; HEADER_BLOCK_START
; generated by Creality_Print V5.1.0.9484 on 2024-07-18 at 13:34:35
; total layer number: 111
; filament_density: 1.24
; filament_diameter: 1.75
; max_z_height: 19.20
; HEADER_BLOCK_END

; MINX = 79.20
; MINY = 79.00
; MINZ = 0.00
; MAXX = 140.80
; MAXY = 159.00
; MAXZ = 19.20

; THUMBNAIL_BLOCK_START

;
; THUMBNAIL_BLOCK_END

; THUMBNAIL_BLOCK_START

;
; THUMBNAIL_BLOCK_END

; external perimeters extrusion width = 0.42mm
; perimeters extrusion width = 0.45mm
; infill extrusion width = 0.45mm
; solid infill extrusion width = 0.42mm
; top infill extrusion width = 0.42mm
; support material extrusion width = 0.42mm
; first layer extrusion width = 0.50mm

; external perimeters extrusion width = 0.42mm
; perimeters extrusion width = 0.45mm
; infill extrusion width = 0.45mm
; solid infill extrusion width = 0.42mm
; top infill extrusion width = 0.42mm
; support material extrusion width = 0.42mm
; first layer extrusion width = 0.50mm

; external perimeters extrusion width = 0.42mm
; perimeters extrusion width = 0.45mm
; infill extrusion width = 0.45mm
; solid infill extrusion width = 0.42mm
; top infill extrusion width = 0.42mm
; support material extrusion width = 0.42mm
; first layer extrusion width = 0.50mm

; external perimeters extrusion width = 0.42mm
; perimeters extrusion width = 0.45mm
; infill extrusion width = 0.45mm
; solid infill extrusion width = 0.42mm
; top infill extrusion width = 0.42mm
; support material extrusion width = 0.42mm
; first layer extrusion width = 0.50mm

; EXECUTABLE_BLOCK_START
EXCLUDE_OBJECT_DEFINE NAME=vice_03_v3.stl_id_0_copy_0 CENTER=110,110 POLYGON=[[79.2,102],[79.2438,101.164],[79.3748,100.337],[79.5915,99.5279],[79.8916,98.7461],[80.2718,98],[80.7279,97.2977],[81.2548,96.647],[81.847,96.0548],[82.4977,95.5279],[83.2,95.0718],[83.9461,94.6916],[84.7279,94.3915],[85.5367,94.1748],[86.3638,94.0438],[87.2,94],[132.8,94],[133.636,94.0438],[134.463,94.1748],[135.272,94.3915],[136.054,94.6916],[136.8,95.0718],[137.502,95.5279],[138.153,96.0548],[138.745,96.647],[139.272,97.2977],[139.728,98],[140.108,98.7461],[140.408,99.5279],[140.625,100.337],[140.756,101.164],[140.8,102],[140.8,126],[79.2,126],[79.2,102]]
EXCLUDE_OBJECT_DEFINE NAME=vice_03_v3.stl_id_1_copy_0 CENTER=110,142.996 POLYGON=[[79.2,134.996],[79.2438,134.16],[79.3748,133.333],[79.5915,132.524],[79.8916,131.742],[80.2718,130.996],[80.7279,130.294],[81.2548,129.643],[81.847,129.051],[82.4977,128.524],[83.2,128.068],[83.9461,127.688],[84.7279,127.388],[85.5367,127.171],[86.3638,127.04],[87.2,126.996],[132.8,126.996],[133.636,127.04],[134.463,127.171],[135.272,127.388],[136.054,127.688],[136.8,128.068],[137.502,128.524],[138.153,129.051],[138.745,129.643],[139.272,130.294],[139.728,130.996],[140.108,131.742],[140.408,132.524],[140.625,133.333],[140.756,134.16],[140.8,134.996],[140.8,158.996],[79.2,158.996],[79.2,134.996]]
EXCLUDE_OBJECT_DEFINE NAME=vice_screw_end_01_v1.stl_id_2_copy_0 CENTER=110,86.0026 POLYGON=[[103.002,86.0026],[103.015,85.5759],[103.054,85.1507],[103.119,84.7287],[103.209,84.3114],[103.325,83.9005],[103.465,83.4973],[103.63,83.1035],[103.819,82.7205],[104.03,82.3497],[104.264,81.9924],[104.519,81.6501],[104.795,81.324],[105.09,81.0153],[105.403,80.7251],[105.733,80.4545],[106.08,80.2047],[106.44,79.9763],[106.814,79.7704],[107.2,79.5877],[107.596,79.4288],[108.002,79.2944],[108.414,79.185],[108.833,79.1009],[109.256,79.0425],[109.682,79.0099],[110.108,79.0034],[110.535,79.0229],[110.959,79.0684],[111.38,79.1397],[111.796,79.2365],[112.205,79.3585],[112.606,79.5052],[112.998,79.6761],[113.378,79.8705],[113.745,80.0877],[114.099,80.327],[114.437,80.5873],[114.759,80.8678],[115.063,81.1674],[115.349,81.4849],[115.614,81.8193],[115.859,82.1693],[116.082,82.5335],[116.282,82.9106],[116.459,83.2992],[116.611,83.6978],[116.74,84.1051],[116.843,84.5194],[116.92,84.9392],[116.972,85.363],[116.998,85.7891],[116.998,86.2161],[116.972,86.6422],[116.92,87.066],[116.843,87.4858],[116.74,87.9001],[116.611,88.3074],[116.459,88.706],[116.282,89.0946],[116.082,89.4717],[115.859,89.8359],[115.614,90.1859],[115.349,90.5203],[115.063,90.8378],[114.759,91.1374],[114.437,91.4179],[114.099,91.6782],[113.745,91.9175],[113.378,92.1347],[112.998,92.3291],[112.606,92.5],[112.205,92.6467],[111.796,92.7687],[111.38,92.8655],[110.959,92.9368],[110.535,92.9823],[110.108,93.0018],[109.682,92.9953],[109.256,92.9628],[108.833,92.9043],[108.414,92.8202],[108.002,92.7108],[107.596,92.5764],[107.2,92.4175],[106.814,92.2348],[106.44,92.0289],[106.08,91.8006],[105.733,91.5507],[105.403,91.2801],[105.09,90.9899],[104.795,90.6812],[104.519,90.3551],[104.264,90.0128],[104.03,89.6555],[103.819,89.2847],[103.63,88.9017],[103.465,88.5079],[103.325,88.1047],[103.209,87.6938],[103.119,87.2765],[103.054,86.8545],[103.015,86.4293],[103.002,86.0026]]
EXCLUDE_OBJECT_DEFINE NAME=vice_screw_end_01_v1.stl_id_3_copy_0 CENTER=95.0051,86.0026 POLYGON=[[88.0067,86.0026],[88.0197,85.5759],[88.0588,85.1507],[88.1236,84.7287],[88.2141,84.3114],[88.3298,83.9005],[88.4704,83.4973],[88.6353,83.1035],[88.8239,82.7205],[89.0355,82.3497],[89.2693,81.9924],[89.5244,81.6501],[89.8,81.324],[90.0949,81.0153],[90.4081,80.7251],[90.7383,80.4545],[91.0845,80.2047],[91.4453,79.9763],[91.8193,79.7704],[92.2052,79.5877],[92.6014,79.4288],[93.0067,79.2944],[93.4194,79.185],[93.8379,79.1009],[94.2609,79.0425],[94.6866,79.0099],[95.1135,79.0034],[95.54,79.0229],[95.9645,79.0684],[96.3854,79.1397],[96.8013,79.2365],[97.2104,79.3585],[97.6114,79.5052],[98.0026,79.6761],[98.3827,79.8705],[98.7503,80.0877],[99.1039,80.327],[99.4423,80.5873],[99.7642,80.8678],[100.068,81.1674],[100.354,81.4849],[100.619,81.8193],[100.864,82.1693],[101.087,82.5335],[101.287,82.9106],[101.464,83.2992],[101.616,83.6978],[101.745,84.1051],[101.848,84.5194],[101.925,84.9392],[101.977,85.363],[102.003,85.7891],[102.003,86.2161],[101.977,86.6422],[101.925,87.066],[101.848,87.4858],[101.745,87.9001],[101.616,88.3074],[101.464,88.706],[101.287,89.0946],[101.087,89.4717],[100.864,89.8359],[100.619,90.1859],[100.354,90.5203],[100.068,90.8378],[99.7642,91.1374],[99.4423,91.4179],[99.1039,91.6782],[98.7503,91.9175],[98.3827,92.1347],[98.0026,92.3291],[97.6114,92.5],[97.2104,92.6467],[96.8013,92.7687],[96.3854,92.8655],[95.9645,92.9368],[95.54,92.9823],[95.1135,93.0018],[94.6866,92.9953],[94.2609,92.9628],[93.8379,92.9043],[93.4194,92.8202],[93.0067,92.7108],[92.6014,92.5764],[92.2052,92.4175],[91.8193,92.2348],[91.4453,92.0289],[91.0845,91.8006],[90.7383,91.5507],[90.4081,91.2801],[90.0949,90.9899],[89.8,90.6812],[89.5244,90.3551],[89.2693,90.0128],[89.0355,89.6555],[88.8239,89.2847],[88.6353,88.9017],[88.4704,88.5079],[88.3298,88.1047],[88.2141,87.6938],[88.1236,87.2765],[88.0588,86.8545],[88.0197,86.4293],[88.0067,86.0026]]
M73 P0 R38
M106 S0
M106 P2 S0
;TYPE:Custom
M140 S0
M104 S0 
START_PRINT EXTRUDER_TEMP=240 BED_TEMP=60
M141 S35;set chamber_temperature
G90
G21
M83 ; use relative distances for extrusion
; filament start gcode
M106 S0
M106 P2 S0
;LAYER_CHANGE
;Z:0.2
;HEIGHT:0.2
;BEFORE_LAYER_CHANGE
;0.2
G92 E0
M106 P2 S204
M106 S0

G1 E-.5 F2400
M106 S0
;AFTER_LAYER_CHANGE
;0.2
;_SET_FAN_SPEED_CHANGING_LAYER
SET_VELOCITY_LIMIT ACCEL=1000 ACCEL_TO_DECEL=1000
SET_VELOCITY_LIMIT SQUARE_CORNER_VELOCITY=20
G1 X87.988 Y79.002 F12000
M106 S0
G1 Z.4
M106 S0
G1 Z.2
M106 S0
G1 E.5 F2400
M106 S0
;TYPE:Skirt
;WIDTH:0.5
G1 F3000
M106 S0
G1 X89.526 Y77.742 E.0718
G1 X90.572 Y77.137 E.04364
G1 X91.684 Y76.663 E.04364
G1 X92.845 Y76.328 E.04364
G1 X94.039 Y76.137 E.04364
G1 X110.272 Y76.094 E.58612
G1 X111.446 Y76.195 E.04254
G1 X112.64 Y76.447 E.04407
G1 X114.164 Y77.006 E.05859
G1 X115.228 Y77.579 E.04364
G1 X139.09 Y93.084 E1.02749
G1 X139.987 Y93.79 E.0412
G1 X140.806 Y94.586 E.04124
G1 X141.537 Y95.464 E.04124
G1 X142.172 Y96.413 E.04124
G1 X142.705 Y97.423 E.04124
G1 X146.519 Y106.88 E.36817
G1 X146.729 Y107.967 E.03997
G1 X146.729 Y150.62 E1.54004
G1 X146.557 Y151.607 E.03617
G1 X143.542 Y159.983 E.32142
G1 X142.677 Y161.225 E.05465
G1 X140.8 Y161.91 E.07214
G1 X79.2 Y161.91 E2.22413
G1 X77.738 Y161.517 E.05465
G1 X76.671 Y160.444 E.05465
G1 X76.286 Y158.996 E.05409
G1 X76.286 Y102 E2.0579
G1 X76.334 Y101.011 E.03574
G1 X76.497 Y99.881 E.04124
G1 X76.871 Y98.484 E.05223
G1 X77.731 Y96.573 E.07565
G1 X86.504 Y80.905 E.64835
G1 X87.188 Y79.909 E.04364
G1 X87.961 Y79.032 E.0422
M106 S0
G1 X88.303 Y79.335 F12000
M106 S0
G1 F3000
M106 S0
G1 X88.318 Y79.318 E.00081
G1 X89.77 Y78.128 E.06778
G1 X90.768 Y77.55 E.04163
G1 X91.828 Y77.097 E.04163
G1 X92.935 Y76.776 E.04163
G1 X94.074 Y76.593 E.04163
G1 X110.251 Y76.55 E.58411
G1 X111.37 Y76.646 E.04053
G1 X112.508 Y76.885 E.04199
G1 X113.981 Y77.424 E.05665
G1 X114.995 Y77.972 E.04163
G1 X138.841 Y93.468 E1.02679
G1 X139.699 Y94.145 E.03948
G1 X140.483 Y94.91 E.03951
G1 X141.182 Y95.751 E.03951
G1 X141.789 Y96.662 E.03951
G1 X142.298 Y97.631 E.03951
G1 X146.095 Y107.05 E.3667
G1 X146.272 Y107.967 E.0337
G1 X146.272 Y150.62 E1.54004
G1 X146.127 Y151.452 E.0305
G1 X143.112 Y159.828 E.32142
G1 X142.292 Y160.948 E.0501
G1 X140.8 Y161.453 E.05688
G1 X79.2 Y161.453 E2.22413
G1 X77.869 Y161.061 E.0501
G1 X76.962 Y160.011 E.0501
G1 X76.743 Y158.996 E.03748
G1 X76.743 Y102 E2.0579
G1 X76.948 Y99.952 E.0743
G1 X77.298 Y98.647 E.04878
G1 X78.13 Y96.796 E.07328
G1 X86.901 Y81.132 E.64821
G1 X87.554 Y80.182 E.04163
G1 X88.277 Y79.365 E.03938
M106 S0
; printing object vice_03 v3.stl id:1 copy 0
G1 E-.35 F2400
M106 S0
;WIPE_START
G1 F3000
M106 S0
G1 X88.318 Y79.318 E-.00937
M106 S0
G1 X89.043 Y78.724 E-.14063
M106 S0
;WIPE_END
EXCLUDE_OBJECT_START NAME=vice_03_v3.stl_id_1_copy_0
G1 X93.265 Y85.083 Z.6 F12000
M106 S0
G1 X127.319 Y136.384 Z.6
M106 S0
G1 Z.2
M106 S0
G1 E.5 F2400
M106 S0
;TYPE:Support
M106 S0
G3 X130.45 Y140.009 I-.641 J3.718 E.18734
G1 X130.45 Y145.719 E.20618
G2 X130.45 Y146.273 I.238 J.277 E.02271
G1 X130.45 Y156.443 E.36719
G1 X125.324 Y156.443 E.18508
G1 X125.324 Y136.346 E.72561
G3 X127.251 Y136.379 I.732 J13.487 E.06964
M106 S0
G1 X125.735 Y136.757 F12000
M106 S0
G1 F2400
M106 S0
G3 X130.039 Y140.023 I.807 J3.405 E.22284
G1 X130.039 Y145.564 E.20007
G2 X130.039 Y146.428 I.668 J.432 E.03294
G1 X130.039 Y156.031 E.34675
G1 X125.735 Y156.031 E.15537
G1 X125.735 Y136.757 E.69591
M106 S0
G1 X126.243 Y137.265 F12000
M106 S0
G1 F2400
M106 S0
G3 X129.531 Y140.042 I.424 J2.833 E.17576
G1 X129.531 Y145.374 E.19252
G1 X129.403 Y145.519 E.00698
G1 X129.403 Y146.473 E.03444
G1 X129.531 Y146.618 E.00698
G1 X129.531 Y155.524 E.32153
G1 X126.243 Y155.524 E.1187
G1 X126.243 Y137.265 E.65923
M106 S0
G1 X126.751 Y137.774 F12000
M106 S0
G1 F2400
M106 S0
G3 X129.023 Y140.06 I.026 J2.246 E.12975
G1 X129.023 Y145.183 E.18497
G1 X128.896 Y145.328 E.00698
G1 X128.896 Y146.664 E.04822
G1 X129.023 Y146.809 E.00698
G1 X129.023 Y155.016 E.2963
G1 X126.751 Y155.016 E.08202
G1 X126.751 Y137.774 E.62252
M106 S0
G1 X127.259 Y138.305 F12000
M106 S0
G1 F2400
M106 S0
G3 X128.515 Y140.078 I-.646 J1.789 E.08349
G1 X128.515 Y144.992 E.17742
G1 X128.388 Y145.137 E.00698
G1 X128.388 Y146.855 E.062
G1 X128.515 Y147 E.00698
G1 X128.515 Y154.508 E.27107
G1 X127.259 Y154.508 E.04535
G1 X127.259 Y138.305 E.58501
M106 S0
G1 E-.35
M106 S0
;WIPE_START
M106 S0
G1 X127.259 Y139.305 E-.15
M106 S0
;WIPE_END
G1 X133.52 Y143.67 Z.6 F12000
M106 S0
G1 X143.586 Y150.689 Z.6
M106 S0
G1 Z.2
M106 S0
G1 E.5 F2400
M106 S0
M106 S0
G1 X141.15 Y150.689 E.08797
G1 X141.15 Y141.058 E.34774
M73 P0 R37
G1 X143.586 Y141.058 E.08797
G1 X143.586 Y150.62 E.34526
M106 S0
G1 X141.561 Y141.469 F12000
M106 S0
G1 F2400
M106 S0
G1 X143.175 Y141.469 E.05826
G1 X143.175 Y150.277 E.31803
G1 X141.561 Y150.277 E.05826
G1 X141.561 Y141.469 E.31803
M106 S0
G1 X142.069 Y141.977 F12000
M106 S0
G1 F2400
M106 S0
G1 X142.667 Y141.977 E.02159
G1 X142.667 Y149.769 E.28136
G1 X142.069 Y149.769 E.02159
G1 X142.069 Y141.977 E.28136
M106 S0
G1 E-.35
M106 S0
;WIPE_START
M106 S0
G1 X142.069 Y142.977 E-.15
M106 S0
;WIPE_END
G1 X134.669 Y144.846 Z.6 F12000
M106 S0
G1 X83.839 Y157.682 Z.6
M106 S0
G1 Z.2
M106 S0
G1 E.5 F2400
M106 S0
;TYPE:Inner wall
M106 S0
G1 X80.514 Y157.682 E.12006
G1 X80.514 Y135.03 E.81785
G3 X87.234 Y128.31 I6.712 J-.008 E.38126
G1 X87.696 Y128.31 E.01666
G1 X132.77 Y128.31 E1.62745
M73 P1 R37
G3 X139.486 Y135.03 I.004 J6.712 E.3811
G1 X139.486 Y157.682 E.81785
G1 X132.114 Y157.682 E.26616
G1 X132.114 Y139.949 E.64027
G1 X132.063 Y139.236 E.02582
G1 X131.899 Y138.488 E.02764
G1 X131.639 Y137.791 E.02685
G1 X131.278 Y137.128 E.02727
G1 X130.819 Y136.514 E.02766
G1 X130.282 Y135.977 E.02742
G1 X129.674 Y135.522 E.02743
G1 X129.003 Y135.157 E.02761
G1 X128.298 Y134.894 E.02714
G1 X127.557 Y134.733 E.02739
G1 X126.847 Y134.682 E.02569
G1 X89.753 Y134.682 E1.33931
G1 X89.043 Y134.733 E.02569
G1 X88.302 Y134.894 E.02739
G1 X87.591 Y135.159 E.02739
G1 X86.925 Y135.523 E.02739
G1 X86.318 Y135.977 E.02739
G1 X85.781 Y136.514 E.02739
G1 X85.327 Y137.121 E.02739
G1 X84.963 Y137.787 E.02739
G1 X84.698 Y138.498 E.02741
G1 X84.536 Y139.244 E.02754
G1 X84.486 Y139.949 E.02553
G1 X84.486 Y157.682 E.64025
G1 X83.879 Y157.682 E.0219
M106 S0
G1 X84.443 Y158.139 F12000
M106 S0
G1 F2400
M106 S0
G1 X80.057 Y158.139 E.15836
G1 X80.057 Y135.018 E.83479
G3 X87.222 Y127.853 I7.169 J.004 E.40632
G1 X87.696 Y127.853 E.01709
G1 X132.782 Y127.853 E1.62788
G3 X139.943 Y135.018 I-.008 J7.169 E.40616
G1 X139.943 Y158.139 E.83479
G1 X131.657 Y158.139 E.29917
G1 X131.657 Y139.965 E.65618
G1 X131.609 Y139.301 E.02403
G1 X131.459 Y138.618 E.02528
G1 X131.222 Y137.982 E.02451
G1 X130.892 Y137.375 E.02492
G1 X130.473 Y136.814 E.02529
G1 X129.982 Y136.324 E.02505
G1 X129.427 Y135.908 E.02506
G1 X128.812 Y135.574 E.02525
G1 X128.169 Y135.334 E.0248
G1 X127.492 Y135.186 E.02503
G1 X126.831 Y135.139 E.02392
G1 X89.769 Y135.139 E1.33813
G1 X89.108 Y135.186 E.02393
G1 X88.431 Y135.334 E.02503
G1 X87.781 Y135.576 E.02503
G1 X87.173 Y135.908 E.02503
G1 X86.618 Y136.324 E.02503
G1 X86.128 Y136.814 E.02503
G1 X85.712 Y137.369 E.02503
G1 X85.38 Y137.977 E.02503
G1 X85.137 Y138.627 E.02504
G1 X84.99 Y139.309 E.02518
G1 X84.943 Y139.966 E.02377
G1 X84.943 Y158.139 E.65617
G1 X84.483 Y158.139 E.01661
M106 S0
G1 X85.4 Y158.596 F12000
M106 S0
;TYPE:Outer wall
G1 F2400
M106 S0
G1 X79.6 Y158.596 E.20941
G1 X79.6 Y135.006 E.85172
G3 X87.21 Y127.396 I7.627 J.016 E.43138
G1 X87.696 Y127.396 E.01752
G1 X132.794 Y127.396 E1.62832
G3 X140.4 Y135.006 I-.02 J7.626 E.43122
G1 X140.4 Y158.596 E.85172
G1 X131.2 Y158.596 E.33218
G1 X131.2 Y139.982 E.67209
G2 X126.814 Y135.596 I-4.425 J.039 E.24814
G1 X89.786 Y135.596 E1.33695
G2 X85.4 Y139.982 I.039 J4.425 E.24814
G1 X85.4 Y158.556 E.67064
M106 S0
G1 E-.35
M106 S0
;WIPE_START
M106 S0
G1 X84.4 Y158.563 E-.15
M106 S0
;WIPE_END
G1 X91.235 Y155.167 Z.6 F12000
M106 S0
G1 X138.415 Y131.723 Z.6
M106 S0
G1 Z.2
M106 S0
G1 E.5 F2400
M106 S0
;TYPE:Bottom surface
;WIDTH:0.502622
G1 F3600
M106 S0
G1 X137.002 Y130.31 E.07258
G2 X135.242 Y129.2 I-4.097 J4.546 E.07593
G1 X138.596 Y132.554 E.17225
G3 X138.913 Y133.521 I-4.441 J1.99 E.03701
G1 X134.275 Y128.883 E.23816
G1 X134.109 Y128.839 E.00626
G1 X133.481 Y128.739 E.02308
G1 X139.057 Y134.315 E.28634
G1 X139.095 Y135.004 E.02505
G1 X132.792 Y128.701 E.32368
G2 X132.141 Y128.699 I-.342 J6.218 E.02368
G1 X139.097 Y135.656 E.35726
G1 X139.097 Y136.306 E.02361
G1 X131.491 Y128.699 E.39064
G1 X130.84 Y128.699 E.02361
G1 X139.097 Y136.956 E.42403
G1 X139.097 Y137.606 E.02361
G1 X130.19 Y128.699 E.45742
G1 X129.54 Y128.699 E.02361
G1 X139.097 Y138.256 E.4908
G1 X139.097 Y138.906 E.02361
G1 X128.89 Y128.699 E.52419
G1 X128.24 Y128.699 E.02361
G1 X139.097 Y139.556 E.55758
G1 X139.097 Y140.206 E.02361
G1 X127.59 Y128.699 E.59096
G1 X126.94 Y128.699 E.02361
G1 X139.097 Y140.857 E.62435
G1 X139.097 Y141.507 E.02361
G1 X126.29 Y128.699 E.65774
G1 X125.639 Y128.699 E.02361
G1 X139.097 Y142.157 E.69112
G1 X139.097 Y142.807 E.02361
G1 X124.989 Y128.699 E.72451
G1 X124.339 Y128.699 E.02361
G1 X139.097 Y143.457 E.7579
G1 X139.097 Y144.107 E.02361
G1 X123.689 Y128.699 E.79128
G1 X123.039 Y128.699 E.02361
