; HEADER_BLOCK_START
; generated by Creality_Print V5.1.0.9484 on 2024-07-12 at 09:41:01
; total layer number: 148
; filament_density: 1.24
; filament_diameter: 1.75
; max_z_height: 22.00
; HEADER_BLOCK_END

; MINX = 72.50
; MINY = 90.60
; MINZ = 0.00
; MAXX = 147.50
; MAXY = 129.40
; MAXZ = 22.00

; THUMBNAIL_BLOCK_START

;
; THUMBNAIL_BLOCK_END

; THUMBNAIL_BLOCK_START

;
; THUMBNAIL_BLOCK_END

; external perimeters extrusion width = 0.42mm
; perimeters extrusion width = 0.45mm
; infill extrusion width = 0.45mm
; solid infill extrusion width = 0.42mm
; top infill extrusion width = 0.42mm
; support material extrusion width = 0.42mm
; first layer extrusion width = 0.50mm

; EXECUTABLE_BLOCK_START
EXCLUDE_OBJECT_DEFINE NAME=base_01_v15.step_id_0_copy_0 CENTER=110,110 POLYGON=[[72.5,90.6006],[147.5,90.6006],[147.5,95.6006],[124.704,122.602],[124.419,122.93],[124.127,123.251],[123.827,123.565],[123.521,123.873],[123.208,124.173],[122.888,124.467],[122.561,124.753],[122.229,125.032],[121.89,125.304],[121.544,125.567],[121.194,125.823],[120.837,126.071],[120.475,126.311],[120.108,126.542],[119.735,126.765],[119.358,126.98],[118.976,127.186],[118.589,127.384],[118.198,127.573],[117.803,127.753],[117.404,127.924],[117.001,128.086],[116.595,128.239],[116.185,128.383],[115.772,128.517],[115.356,128.642],[114.938,128.758],[114.517,128.865],[114.094,128.961],[113.668,129.049],[113.241,129.126],[112.812,129.195],[112.382,129.253],[111.951,129.302],[111.518,129.341],[111.085,129.37],[110.651,129.39],[110.217,129.399],[109.783,129.399],[109.349,129.39],[108.915,129.37],[108.482,129.341],[108.049,129.302],[107.618,129.253],[107.188,129.195],[106.759,129.126],[106.332,129.049],[105.906,128.961],[105.483,128.865],[105.062,128.758],[104.644,128.642],[104.228,128.517],[103.815,128.383],[103.405,128.239],[102.999,128.086],[102.596,127.924],[102.197,127.753],[101.802,127.573],[101.411,127.384],[101.024,127.186],[100.642,126.98],[100.265,126.765],[99.8922,126.542],[99.5249,126.311],[99.1629,126.071],[98.8064,125.823],[98.4555,125.567],[98.1105,125.304],[97.7715,125.032],[97.4387,124.753],[97.1122,124.467],[96.7923,124.173],[96.479,123.873],[96.1726,123.565],[95.8732,123.251],[95.581,122.93],[95.296,122.602],[72.5,95.6006],[72.5,90.6006]]
M73 P0 R16
M106 S0
M106 P2 S0
;TYPE:Custom
M140 S0
M104 S0 
START_PRINT EXTRUDER_TEMP=240 BED_TEMP=60
M141 S35;set chamber_temperature
G90
G21
M83 ; use relative distances for extrusion
; filament start gcode
M106 S0
M106 P2 S0
;LAYER_CHANGE
;Z:0.2
;HEIGHT:0.2
;BEFORE_LAYER_CHANGE
;0.2
G92 E0
M106 P2 S204
M106 S0

G1 E-.5 F2400
M106 S0
;AFTER_LAYER_CHANGE
;0.2
;_SET_FAN_SPEED_CHANGING_LAYER
SET_VELOCITY_LIMIT ACCEL=1000 ACCEL_TO_DECEL=1000
SET_VELOCITY_LIMIT SQUARE_CORNER_VELOCITY=20
G1 X70.735 Y88.282 F18000
M106 S0
G1 Z.4
M106 S0
G1 Z.2
M106 S0
G1 E.5 F2400
M106 S0
;TYPE:Skirt
;WIDTH:0.5
G1 F3000
M106 S0
G1 X74.554 Y85.375 E.1733
G1 X76.319 Y84.779 E.06726
G1 X143.681 Y84.779 E2.43217
G1 X145.446 Y85.375 E.06726
G1 X149.265 Y88.282 E.1733
G1 X150.19 Y89.48 E.05465
G1 X150.414 Y90.601 E.04126
G1 X150.414 Y95.601 E.18053
G1 X149.727 Y97.481 E.07227
G1 X126.931 Y124.482 E1.27589
G1 X125.178 Y126.321 E.09172
G1 X123.71 Y127.579 E.06979
G1 X122.446 Y128.5 E.05649
G1 X120.8 Y129.513 E.06979
G1 X119.406 Y130.225 E.05649
G1 X117.621 Y130.966 E.06979
G1 X116.134 Y131.451 E.05649
G1 X114.254 Y131.903 E.06979
G1 X112.774 Y132.141 E.05413
G1 X110.717 Y132.303 E.07452
G1 X108.22 Y132.243 E.09018
G1 X105.81 Y131.916 E.08781
G1 X103.803 Y131.433 E.07452
G1 X101.448 Y130.602 E.09018
G1 X99.258 Y129.545 E.08781
G1 X97.5 Y128.464 E.07452
G1 X95.567 Y126.987 E.08781
G1 X94.414 Y125.929 E.05649
G1 X93.097 Y124.514 E.06979
G1 X70.273 Y97.481 E1.27744
G1 X69.586 Y95.601 E.07227
G1 X69.586 Y90.601 E.18053
G1 X69.979 Y89.139 E.05465
G1 X70.708 Y88.312 E.03981
M106 S0
G1 X71.012 Y88.646 F18000
M106 S0
G1 F3000
M106 S0
G1 X74.831 Y85.738 E.1733
G1 X76.319 Y85.236 E.05671
G1 X143.681 Y85.236 E2.43217
G1 X145.169 Y85.738 E.05671
G1 X148.988 Y88.646 E.1733
G1 X149.81 Y89.764 E.0501
G1 X149.957 Y90.601 E.03068
G1 X149.957 Y95.601 E.18053
G1 X149.377 Y97.186 E.06094
G1 X126.581 Y124.187 E1.27589
G1 X124.91 Y125.945 E.08758
G1 X123.764 Y126.951 E.05506
G1 X122.24 Y128.088 E.06868
G1 X120.951 Y128.901 E.055
G1 X119.267 Y129.785 E.06868
G1 X117.867 Y130.386 E.05501
G1 X116.065 Y130.995 E.06868
G1 X114.588 Y131.368 E.055
G1 X112.713 Y131.688 E.06868
G1 X110.707 Y131.846 E.07266
G1 X108.316 Y131.792 E.08633
G1 X105.892 Y131.466 E.08832
G1 X103.935 Y130.995 E.07266
G1 X101.628 Y130.182 E.08832
G1 X99.475 Y129.142 E.08633
G1 X97.76 Y128.088 E.07267
G1 X95.861 Y126.637 E.08633
G1 X94.738 Y125.607 E.05501
G1 X93.419 Y124.187 E.06998
G1 X70.623 Y97.186 E1.27589
G1 X70.043 Y95.601 E.06094
G1 X70.043 Y90.601 E.18053
G1 X70.435 Y89.269 E.0501
G1 X70.985 Y88.675 E.02924
M106 S0
; printing object base_01 v15.step id:0 copy 0
G1 E-.35 F2400
M106 S0
;WIPE_START
G1 F3000
M106 S0
G1 X71.779 Y88.068 E-.15
M106 S0
;WIPE_END
EXCLUDE_OBJECT_START NAME=base_01_v15.step_id_0_copy_0
G1 X79.324 Y89.222 Z.6 F18000
M106 S0
G1 X86.045 Y90.251 Z.6
M106 S0
G1 Z.2
M106 S0
G1 E.5 F2400
M106 S0
;TYPE:Support
M106 S0
G1 X76.414 Y90.251 E.34774
G1 X76.414 Y87.922 E.08408
G1 X86.045 Y87.922 E.34774
G1 X86.045 Y90.182 E.0816
M106 S0
G1 X85.633 Y89.839 F18000
M106 S0
G1 F2400
M106 S0
G1 X76.825 Y89.839 E.31803
M73 P1 R16
G1 X76.825 Y88.333 E.05437
G1 X85.633 Y88.333 E.31803
G1 X85.633 Y89.839 E.05437
M106 S0
G1 X85.125 Y89.331 F18000
M106 S0
G1 F2400
M106 S0
G1 X77.333 Y89.331 E.28136
G1 X77.333 Y88.841 E.0177
G1 X85.125 Y88.841 E.28136
G1 X85.125 Y89.331 E.0177
M106 S0
G1 E-.35
M106 S0
;WIPE_START
M106 S0
G1 X85.125 Y88.841 E-.07352
M106 S0
G1 X84.616 Y88.841 E-.07648
M106 S0
;WIPE_END
G1 X92.246 Y89.024 Z.6 F18000
M106 S0
G1 X143.586 Y90.251 Z.6
M106 S0
G1 Z.2
M106 S0
G1 E.5 F2400
M106 S0
M106 S0
G1 X133.955 Y90.251 E.34774
G1 X133.955 Y87.922 E.08408
G1 X143.586 Y87.922 E.34774
G1 X143.586 Y90.182 E.0816
M106 S0
G1 X134.367 Y89.839 F18000
M106 S0
G1 F2400
M106 S0
G1 X134.367 Y88.333 E.05437
G1 X143.175 Y88.333 E.31803
G1 X143.175 Y89.839 E.05437
G1 X134.367 Y89.839 E.31803
M106 S0
G1 X134.875 Y89.331 F18000
M106 S0
G1 F2400
M106 S0
G1 X134.875 Y88.841 E.0177
G1 X142.667 Y88.841 E.28136
G1 X142.667 Y89.331 E.0177
G1 X134.875 Y89.331 E.28136
M106 S0
G1 E-.35
M106 S0
;WIPE_START
M106 S0
G1 X135.875 Y89.331 E-.15
M106 S0
;WIPE_END
G1 X132.272 Y96.06 Z.6 F18000
M106 S0
G1 X121.468 Y116.243 Z.6
M106 S0
G1 Z.2
M106 S0
G1 E.5 F2400
M106 S0
;TYPE:Inner wall
M106 S0
G1 X120.955 Y117.121 E.03668
G3 X97.625 Y114.133 I-10.957 J-7.028 E1.06011
G3 X92.561 Y112.126 I-2.123 J-2.036 E.25143
G1 X92.561 Y108.075 E.14624
G3 X97.625 Y106.068 I2.941 J.028 E.25145
G3 X109.724 Y97.089 I12.394 J4.06 E.57996
G3 X122.373 Y106.07 I.261 J13.031 E.59992
G3 X127.439 Y108.075 I2.125 J2.033 E.25154
G1 X127.439 Y112.126 E.14624
G3 X122.373 Y114.131 I-2.941 J-.028 E.25154
G3 X121.528 Y116.135 I-12.375 J-4.039 E.07859
G1 X121.487 Y116.209 E.00305
M106 S0
G1 X121.735 Y114.538 F18000
M106 S0
G1 F2400
M106 S0
G1 X121.593 Y114.927 E.01497
G3 X97.793 Y113.078 I-11.596 J-4.841 E1.13688
G3 X93.018 Y112.117 I-2.286 J-.983 E.24496
G1 X93.018 Y108.084 E.14561
G3 X97.531 Y106.673 I2.483 J.018 E.22599
G1 X97.802 Y107.092 E.01801
G3 X109.734 Y97.546 I12.22 J3.045 E.59282
G3 X122.203 Y107.131 I.25 J12.579 E.61341
G3 X126.982 Y108.084 I2.29 J.977 E.24527
G1 X126.982 Y112.117 E.14561
G3 X122.203 Y113.07 I-2.489 J-.023 E.24527
G3 X121.972 Y113.894 I-12.206 J-2.984 E.03089
G1 X121.749 Y114.5 E.02333
M106 S0
G1 E-.35
M106 S0
;WIPE_START
M106 S0
G1 X121.593 Y114.927 E-.0682
M106 S0
G1 X121.361 Y115.421 E-.0818
M106 S0
;WIPE_END
G1 X122.041 Y110.915 Z.6 F18000
M106 S0
G1 Z.2
M106 S0
G1 E.5 F2400
M106 S0
;TYPE:Outer wall
M106 S0
G1 X122.018 Y111.327 E.01488
G3 X121.943 Y112.035 I-15.406 J-1.268 E.02573
G3 X97.989 Y111.505 I-11.94 J-1.936 E1.25099
M73 P2 R16
G3 X98.031 Y108.342 I18.497 J-1.339 E.11437
G3 X109.744 Y98.003 I11.982 J1.771 E.61305
G3 X122.024 Y108.874 I.263 J12.076 E.65094
G3 X122.06 Y110.624 I-15.413 J1.185 E.06324
G1 X122.044 Y110.876 E.00909
M106 S0
G1 E-.35
M106 S0
;WIPE_START
M106 S0
G1 X122.018 Y111.327 E-.0678
M106 S0
G1 X121.96 Y111.872 E-.0822
M106 S0
;WIPE_END
G1 X114.334 Y112.183 Z.6 F18000
M106 S0
G1 X97.369 Y112.876 Z.6
M106 S0
G1 Z.2
M106 S0
G1 E.5 F2400
M106 S0
M106 S0
G1 X97.24 Y113.135 E.01043
G3 X93.475 Y112.108 I-1.74 J-1.035 E.19011
G1 X93.475 Y108.093 E.14498
G3 X95.422 Y106.077 I2.04 J.022 E.11157
G3 X97.524 Y108.095 I.075 J2.025 E.11738
G2 X97.524 Y112.107 I52.152 J2.006 E.14489
G3 X97.384 Y112.839 I-2.025 J-.007 E.02709
M106 S0
G1 E-.35
M106 S0
;WIPE_START
M106 S0
G1 X97.24 Y113.135 E-.04933
M106 S0
G1 X96.959 Y113.505 E-.06966
M106 S0
G1 X96.805 Y113.643 E-.03102
M106 S0
;WIPE_END
G1 X104.22 Y111.836 Z.6 F18000
M106 S0
G1 X122.618 Y107.354 Z.6
M106 S0
G1 Z.2
M106 S0
G1 E.5 F2400
M106 S0
M106 S0
G1 X122.626 Y107.345 E.00043
G3 X124.422 Y106.077 I1.889 J.768 E.08387
G3 X126.525 Y108.093 I.074 J2.027 E.11733
G1 X126.525 Y112.108 E.14498
G3 X122.476 Y112.107 I-2.025 J-.009 E.22909
G2 X122.476 Y108.095 I-51.481 J-2.006 E.1449
G3 X122.531 Y107.64 I2.039 J.019 E.01656
G1 X122.607 Y107.393 E.00935
M106 S0
G1 E-.35
M106 S0
;WIPE_START
M106 S0
G1 X122.626 Y107.345 E-.00765
M106 S0
G1 X122.759 Y107.066 E-.04647
M106 S0
G1 X123.041 Y106.696 E-.06968
M106 S0
G1 X123.171 Y106.58 E-.0262
M106 S0
;WIPE_END
G1 X129.874 Y102.93 Z.6 F18000
M106 S0
G1 X138.183 Y98.405 Z.6
M106 S0
G1 Z.2
M106 S0
G1 E.5 F2400
M106 S0
;TYPE:Inner wall
M106 S0
G1 X138.176 Y98.867 E.01668
G3 X138.149 Y99.4 I-25.628 J-1.044 E.01927
G3 X136.59 Y103.617 I-8.68 J-.811 E.16419
G1 X124.699 Y120.466 E.7446
G3 X95.301 Y120.466 I-14.699 J-10.368 E1.24236
G1 X83.409 Y103.617 E.7446
G3 X81.814 Y98.591 I7.178 J-5.044 E.19341
G1 X81.814 Y97.056 E.0554
G1 X79.044 Y94.286 E.14143
G1 X73.814 Y94.286 E.18884
G1 X73.814 Y91.915 E.08563
G1 X146.186 Y91.915 E2.61305
G1 X146.186 Y94.286 E.08563
G1 X140.956 Y94.286 E.18884
G1 X138.186 Y97.056 E.14143
G1 X138.183 Y98.365 E.04726
M106 S0
G1 X138.641 Y97.983 F18000
M106 S0
G1 F2400
M106 S0
G1 X138.631 Y98.881 E.03243
G3 X138.574 Y99.721 I-20.23 J-.961 E.03041
G3 X136.966 Y103.878 I-9.211 J-1.174 E.16251
G1 X125.071 Y120.732 E.74482
G3 X94.929 Y120.732 I-15.071 J-10.634 E1.27373
G1 X83.034 Y103.878 E.74482
M73 P3 R16
G3 X81.357 Y98.594 I7.556 J-5.306 E.2033
G1 X81.357 Y97.246 E.04869
G1 X78.855 Y94.744 E.12776
G1 X73.357 Y94.744 E.19851
G1 X73.357 Y91.458 E.11864
G1 X146.643 Y91.458 E2.64606
G1 X146.643 Y94.744 E.11864
G1 X141.145 Y94.744 E.19851
G1 X138.643 Y97.246 E.12776
G1 X138.641 Y97.943 E.02519
M106 S0
G1 X139.121 Y97.414 F18000
M106 S0
;TYPE:Outer wall
G1 F2400
M106 S0
G1 X139.1 Y97.435 E.00108
G3 X139.028 Y99.778 I-19.109 J.581 E.08468
G3 X137.341 Y104.139 I-9.671 J-1.232 E.17049
G1 X125.443 Y120.997 E.74504
G3 X94.557 Y120.997 I-15.443 J-10.9 E1.30511
G1 X82.659 Y104.139 E.74504
G3 X80.9 Y98.598 I7.935 J-5.568 E.21319
G1 X80.9 Y97.435 E.04198
G1 X78.666 Y95.201 E.11409
G1 X72.9 Y95.201 E.20818
G1 X72.9 Y91.001 E.15165
G1 X147.1 Y91.001 E2.67907
G1 X147.1 Y95.201 E.15165
G1 X141.334 Y95.201 E.20818
G1 X139.149 Y97.386 E.11157
M106 S0
G1 E-.35
M106 S0
;WIPE_START
M106 S0
G1 X139.1 Y97.435 E-.01047
M106 S0
G1 X139.097 Y98.365 E-.13953
M106 S0
;WIPE_END
G1 X145.136 Y93.697 Z.6 F18000
M106 S0
G1 X146.003 Y93.026 Z.6
M106 S0
G1 Z.2
M106 S0
G1 E.5 F2400
M106 S0
;TYPE:Bottom surface
;WIDTH:0.502301
G1 F3600
M106 S0
G1 X145.28 Y92.303 E.03711
G1 X144.63 Y92.303 E.02357
G1 X145.797 Y93.47 E.0599
G1 X145.797 Y93.898 E.01551
G1 X145.575 Y93.898 E.00806
G1 X143.981 Y92.303 E.08184
G1 X143.331 Y92.303 E.02357
G1 X144.926 Y93.898 E.08184
G1 X144.276 Y93.898 E.02357
G1 X142.681 Y92.303 E.08184
G1 X142.032 Y92.303 E.02357
G1 X143.626 Y93.898 E.08184
G1 X142.977 Y93.898 E.02357
G1 X141.382 Y92.303 E.08184
G1 X140.732 Y92.303 E.02357
G1 X142.327 Y93.898 E.08184
G1 X141.677 Y93.898 E.02357
G1 X140.083 Y92.303 E.08184
G1 X139.433 Y92.303 E.02357
G1 X141.028 Y93.898 E.08184
G1 X140.795 Y93.898 E.00845
G1 X140.586 Y94.106 E.0107
G1 X138.783 Y92.303 E.09253
G1 X138.134 Y92.303 E.02357
G1 X140.261 Y94.431 E.1092
G1 X139.937 Y94.756 E.01667
G1 X137.484 Y92.303 E.12587
G1 X136.834 Y92.303 E.02357
G1 X139.612 Y95.081 E.14254
G1 X139.287 Y95.406 E.01667
G1 X136.185 Y92.303 E.15921
G1 X135.535 Y92.303 E.02357
G1 X138.962 Y95.731 E.17588
G1 X138.637 Y96.055 E.01667
G1 X134.885 Y92.303 E.19255
G1 X134.236 Y92.303 E.02357
G1 X138.312 Y96.38 E.20922
G1 X137.988 Y96.705 E.01667
G1 X133.586 Y92.303 E.22589
G1 X132.936 Y92.303 E.02357
G1 X137.797 Y97.164 E.24946
G1 X137.797 Y97.814 E.02357
G1 X132.287 Y92.303 E.2828
M73 P4 R16
G1 X131.637 Y92.303 E.02357
G1 X137.797 Y98.464 E.31614
G3 X137.782 Y99.098 I-10.416 J.06 E.02302
G1 X130.987 Y92.303 E.34868
G1 X130.338 Y92.303 E.02357
G1 X137.722 Y99.688 E.37897
G1 X137.628 Y100.243 E.02043
G1 X129.688 Y92.303 E.40745
G1 X129.038 Y92.303 E.02357
G1 X137.5 Y100.765 E.43426
G3 X137.351 Y101.265 I-2.78 J-.558 E.01897
G1 X128.389 Y92.303 E.45993
G1 X127.739 Y92.303 E.02357
G1 X137.176 Y101.74 E.48428
G3 X136.972 Y102.186 I-2.514 J-.878 E.01782
G1 X127.089 Y92.303 E.50718
G1 X126.44 Y92.303 E.02357
G1 X136.756 Y102.619 E.5294
G3 X136.515 Y103.028 I-3.424 J-1.745 E.01723
G1 X125.79 Y92.303 E.55037
G1 X125.14 Y92.303 E.02357
G1 X136.255 Y103.418 E.57041
G1 X135.987 Y103.799 E.01692
G1 X124.491 Y92.303 E.58996
G1 X123.841 Y92.303 E.02357
G1 X135.718 Y104.18 E.6095
G1 X135.449 Y104.561 E.01692
G1 X123.191 Y92.303 E.62904
G1 X122.542 Y92.303 E.02357
G1 X135.18 Y104.942 E.64858
G1 X134.911 Y105.322 E.01692
G1 X121.892 Y92.303 E.66812
G1 X121.242 Y92.303 E.02357
G1 X134.642 Y105.703 E.68766
G1 X134.373 Y106.084 E.01692
G1 X120.593 Y92.303 E.7072
G1 X119.943 Y92.303 E.02357
G1 X134.104 Y106.465 E.72674
G1 X133.835 Y106.845 E.01692
G1 X119.293 Y92.303 E.74628
G1 X118.644 Y92.303 E.02357
G1 X133.567 Y107.226 E.76583
G1 X133.298 Y107.607 E.01692
G1 X117.994 Y92.303 E.78537
G1 X117.344 Y92.303 E.02357
G1 X133.029 Y107.988 E.80491
G1 X132.76 Y108.369 E.01692
G1 X116.695 Y92.303 E.82445
G1 X116.045 Y92.303 E.02357
G1 X132.491 Y108.749 E.84399
G1 X132.222 Y109.13 E.01692
G1 X115.395 Y92.303 E.86353
G1 X114.746 Y92.303 E.02357
G1 X131.953 Y109.511 E.88307
G1 X131.684 Y109.892 E.01692
G1 X114.096 Y92.303 E.90261
G1 X113.446 Y92.303 E.02357
G1 X131.416 Y110.272 E.92215
G1 X131.147 Y110.653 E.01692
G1 X127.701 Y107.207 E.17684
G1 X127.675 Y107.096 E.00415
G2 X125.398 Y104.904 I-3.194 J1.039 E.11941
G1 X112.797 Y92.303 E.64666
M73 P5 R16
G1 X112.147 Y92.303 E.02357
G1 X124.617 Y104.774 E.63996
G1 X124.118 Y104.793 E.01813
G1 X124.008 Y104.814 E.00406
G1 X111.497 Y92.303 E.64204
G1 X110.848 Y92.303 E.02357
G1 X117.667 Y99.122 E.34994
G1 X118.114 Y99.432 E.01975
G1 X119.017 Y100.184 E.04263
G1 X119.851 Y101.012 E.04263
G1 X120.608 Y101.909 E.04261
G1 X120.979 Y102.434 E.02333
G1 X123.483 Y104.938 E.12851
G2 X123.021 Y105.126 I.376 J1.59 E.01817
G1 X121.959 Y104.064 E.0545
G1 X122.373 Y104.948 E.03544
G1 X122.479 Y105.233 E.01103
G1 X122.758 Y105.513 E.01433
M106 S0
G1 E-.35 F2400
M106 S0
;WIPE_START
G1 F3600
M106 S0
G1 X122.479 Y105.233 E-.05923
M106 S0
G1 X122.373 Y104.948 E-.0456
M106 S0
G1 X122.245 Y104.676 E-.04516
M106 S0
;WIPE_END
G1 X127.597 Y107.753 Z.6 F18000
M106 S0
G1 Z.2
M106 S0
G1 E.5 F2400
M106 S0
G1 F3600
M106 S0
G1 X130.878 Y111.034 E.16836
G1 X130.609 Y111.415 E.01692
G1 X127.828 Y108.634 E.14273
G1 X127.828 Y109.283 E.02357
G1 X130.34 Y111.796 E.12893
G1 X130.071 Y112.176 E.01692
G1 X127.828 Y109.933 E.11513
G1 X127.828 Y110.583 E.02357
G1 X129.802 Y112.557 E.10133
G1 X129.533 Y112.938 E.01692
G1 X127.828 Y111.232 E.08753
G1 X127.828 Y111.882 E.02357
G1 X129.264 Y113.319 E.07373
G1 X128.996 Y113.699 E.01692
G1 X127.799 Y112.503 E.0614
G1 X127.791 Y112.609 E.00387
G1 X127.689 Y113.043 E.01615
G1 X128.727 Y114.08 E.05324
G1 X128.458 Y114.461 E.01692
G1 X127.51 Y113.513 E.04863
G3 X127.274 Y113.927 I-2.269 J-1.019 E.01731
G1 X128.189 Y114.842 E.04694
