; HEADER_BLOCK_START
; generated by Creality_Print V5.1.0.9484 on 2024-07-16 at 13:49:05
; total layer number: 280
; filament_density: 1.24
; filament_diameter: 1.75
; max_z_height: 56.00
; HEADER_BLOCK_END

; MINX = 89.50
; MINY = 89.50
; MINZ = 0.00
; MAXX = 130.50
; MAXY = 130.50
; MAXZ = 55.90

; THUMBNAIL_BLOCK_START

;
; THUMBNAIL_BLOCK_END

; THUMBNAIL_BLOCK_START

;
; THUMBNAIL_BLOCK_END

; external perimeters extrusion width = 0.42mm
; perimeters extrusion width = 0.45mm
; infill extrusion width = 0.45mm
; solid infill extrusion width = 0.42mm
; top infill extrusion width = 0.42mm
; first layer extrusion width = 0.50mm

; EXECUTABLE_BLOCK_START
EXCLUDE_OBJECT_DEFINE NAME=weight_03_v6.stl_id_0_copy_0 CENTER=110,110 POLYGON=[[89.5001,110],[89.55,108.57],[89.5512,108.554],[89.6996,107.147],[89.7041,107.115],[89.9481,105.738],[89.9582,105.691],[90.2942,104.349],[90.3121,104.288],[90.7364,102.989],[90.764,102.913],[91.2724,101.662],[91.3119,101.574],[91.8997,100.376],[91.9528,100.277],[92.6151,99.1367],[92.6836,99.0278],[93.4153,97.9504],[93.5007,97.8336],[94.2962,96.8229],[94.4,96.7001],[95.2536,95.7595],[95.3771,95.6328],[96.2829,94.7655],[96.4269,94.6371],[97.379,93.8458],[97.5444,93.7179],[98.5366,93.0047],[98.724,92.8799],[99.7501,92.2465],[99.9597,92.1271],[101.013,91.5747],[101.245,91.4634],[102.321,90.9927],[102.575,90.892],[103.665,90.5033],[103.941,90.4158],[105.041,90.1089],[105.338,90.0372],[106.44,89.8114],[106.757,89.7581],[107.857,89.6123],[108.193,89.5798],[109.285,89.5125],[109.638,89.5032],[110.716,89.5125],[111.085,89.5287],[112.143,89.6123],[112.526,89.6563],[113.56,89.8114],[113.955,89.8851],[114.959,90.1089],[115.364,90.2142],[116.335,90.5033],[116.746,90.6419],[117.68,90.9927],[118.095,91.166],[118.987,91.5747],[119.403,91.7839],[120.25,92.2465],[120.665,92.4926],[121.464,93.0047],[121.873,93.2885],[122.621,93.8458],[123.023,94.1676],[123.717,94.7655],[124.107,95.1257],[124.747,95.7595],[125.121,96.1578],[125.704,96.8229],[126.06,97.2589],[126.585,97.9504],[126.919,98.4235],[127.385,99.1367],[127.693,99.6457],[128.101,100.376],[128.379,100.92],[128.728,101.662],[128.974,102.239],[129.264,102.989],[129.474,103.596],[129.706,104.349],[129.877,104.986],[130.052,105.738],[130.182,106.401],[130.301,107.147],[130.385,107.833],[130.45,108.57],[130.487,109.277],[130.5,110],[130.487,110.723],[130.45,111.43],[130.385,112.167],[130.301,112.853],[130.182,113.599],[130.052,114.262],[129.877,115.014],[129.706,115.651],[129.474,116.404],[129.264,117.011],[128.974,117.761],[128.728,118.338],[128.379,119.08],[128.101,119.624],[127.693,120.354],[127.385,120.863],[126.919,121.577],[126.585,122.05],[126.06,122.741],[125.704,123.177],[125.121,123.842],[124.747,124.24],[124.107,124.874],[123.717,125.234],[123.023,125.832],[122.621,126.154],[121.873,126.712],[121.464,126.995],[120.665,127.507],[120.25,127.754],[119.403,128.216],[118.987,128.425],[118.095,128.834],[117.68,129.007],[116.746,129.358],[116.335,129.497],[115.364,129.786],[114.959,129.891],[113.955,130.115],[113.56,130.189],[112.526,130.344],[112.143,130.388],[111.085,130.471],[110.716,130.488],[109.638,130.497],[109.285,130.488],[108.193,130.42],[107.857,130.388],[106.757,130.242],[106.44,130.189],[105.338,129.963],[105.041,129.891],[103.941,129.584],[103.665,129.497],[102.575,129.108],[102.321,129.007],[101.245,128.537],[101.013,128.425],[99.9597,127.873],[99.7501,127.754],[98.724,127.12],[98.5366,126.995],[97.5444,126.282],[97.379,126.154],[96.4269,125.363],[96.2829,125.234],[95.3771,124.367],[95.2536,124.24],[94.4,123.3],[94.2962,123.177],[93.5007,122.166],[93.4153,122.05],[92.6836,120.972],[92.6151,120.863],[91.9528,119.723],[91.8997,119.624],[91.3119,118.426],[91.2724,118.338],[90.764,117.087],[90.7364,117.011],[90.3121,115.712],[90.2942,115.651],[89.9582,114.309],[89.9481,114.262],[89.7041,112.885],[89.6996,112.853],[89.5512,111.446],[89.55,111.43],[89.5001,110]]
M73 P0 R47
M73 C10
M106 S0
M106 P2 S0
;TYPE:Custom
M140 S0
M104 S0 
START_PRINT EXTRUDER_TEMP=240 BED_TEMP=60
M141 S35;set chamber_temperature
G90
G21
M83 ; use relative distances for extrusion
; filament start gcode
M106 S0
M106 P2 S0
;LAYER_CHANGE
;Z:0.2
;HEIGHT:0.2
;BEFORE_LAYER_CHANGE
;0.2
G92 E0
M106 P2 S204
M106 S0

G1 E-.5 F2400
M106 S0
;AFTER_LAYER_CHANGE
;0.2
;_SET_FAN_SPEED_CHANGING_LAYER
SET_VELOCITY_LIMIT ACCEL=1000 ACCEL_TO_DECEL=1000
SET_VELOCITY_LIMIT SQUARE_CORNER_VELOCITY=20
G1 X93.085 Y93.813 F12000
M106 S0
G1 Z.4
M106 S0
G1 Z.2
M106 S0
G1 E.5 F2400
M106 S0
;TYPE:Skirt
;WIDTH:0.5
G1 F3000
M106 S0
G1 X94.259 Y92.669 E.05918
G1 X95.667 Y91.488 E.06637
G1 X98.206 Y89.775 E.11059
G1 X99.829 Y88.912 E.06637
G1 X102.665 Y87.766 E.11042
G1 X104.238 Y87.308 E.05918
G1 X106.036 Y86.925 E.06637
G1 X109.078 Y86.606 E.11042
G1 X110.92 Y86.605 E.06654
G1 X113.962 Y86.925 E.11042
G1 X115.567 Y87.259 E.05918
G1 X117.333 Y87.765 E.06636
G1 X120.169 Y88.911 E.11042
G1 X121.619 Y89.674 E.05918
G1 X123.178 Y90.648 E.06636
G1 X125.588 Y92.531 E.11042
G1 X126.914 Y93.811 E.06654
G1 X128.879 Y96.154 E.11042
G1 X129.91 Y97.682 E.06654
G1 X131.346 Y100.382 E.11041
G1 X131.966 Y101.899 E.05919
G1 X132.534 Y103.647 E.06635
G1 X133.171 Y106.643 E.11061
G1 X133.363 Y108.471 E.06635
G1 X133.363 Y111.529 E.11041
G1 X133.17 Y113.362 E.06655
G1 X132.534 Y116.353 E.11041
G1 X131.966 Y118.101 E.06636
G1 X131.346 Y119.618 E.05919
G1 X129.91 Y122.318 E.11041
G1 X128.882 Y123.842 E.06636
G1 X127.868 Y125.129 E.05919
G1 X125.743 Y127.329 E.11042
G1 X124.331 Y128.514 E.06654
G1 X121.796 Y130.224 E.11042
G1 X120.173 Y131.087 E.06636
G1 X118.673 Y131.747 E.05918
G1 X115.764 Y132.692 E.11042
G1 X113.967 Y133.074 E.06636
G1 X110.92 Y133.395 E.1106
G1 X109.082 Y133.395 E.06636
G1 X107.448 Y133.273 E.05918
G1 X104.436 Y132.742 E.11042
G1 X102.665 Y132.234 E.06654
G1 X99.829 Y131.088 E.11042
G1 X98.202 Y130.223 E.06654
G1 X95.667 Y128.512 E.11042
G1 X94.259 Y127.331 E.06637
G1 X93.085 Y126.187 E.05918
G1 X91.119 Y123.844 E.11042
G1 X90.199 Y122.493 E.05901
G1 X89.278 Y120.897 E.06653
G1 X88.035 Y118.103 E.11043
G1 X87.465 Y116.351 E.06654
G1 X86.83 Y113.359 E.11042
G1 X86.637 Y111.527 E.06653
G1 X86.637 Y108.473 E.11024
G1 X86.801 Y106.843 E.05917
G1 X87.121 Y105.033 E.06637
G1 X87.963 Y102.093 E.11042
G1 X88.653 Y100.384 E.06654
G1 X90.089 Y97.684 E.11042
G1 X91.119 Y96.156 E.06654
G1 X93.059 Y93.844 E.10897
M106 S0
G1 X93.409 Y94.137 F12000
M106 S0
G1 F3000
M106 S0
G1 X93.425 Y94.119 E.00087
G1 X94.576 Y92.998 E.05803
G1 X95.935 Y91.857 E.06406
G1 X98.448 Y90.163 E.10944
G1 X100.015 Y89.33 E.06406
G1 X102.821 Y88.196 E.10927
G1 X104.364 Y87.747 E.05803
G1 X106.1 Y87.378 E.06406
G1 X109.109 Y87.062 E.10927
G1 X110.888 Y87.061 E.06423
G1 X113.898 Y87.378 E.10927
G1 X115.472 Y87.706 E.05803
G1 X117.177 Y88.195 E.06406
G1 X119.983 Y89.329 E.10927
G1 X121.405 Y90.078 E.05803
G1 X122.909 Y91.018 E.06406
G1 X125.294 Y92.881 E.10926
G1 X126.574 Y94.117 E.06424
G1 X128.519 Y96.435 E.10926
G1 X129.514 Y97.91 E.06424
G1 X130.935 Y100.582 E.10926
G1 X131.543 Y102.07 E.05804
G1 X132.091 Y103.757 E.06405
G1 X132.721 Y106.723 E.10946
G1 X132.906 Y108.487 E.06404
G1 X132.906 Y111.513 E.10926
G1 X132.72 Y113.282 E.06424
G1 X132.091 Y116.242 E.10926
G1 X131.543 Y117.93 E.06406
G1 X130.935 Y119.418 E.05804
G1 X129.514 Y122.09 E.10926
G1 X128.522 Y123.561 E.06406
G1 X127.528 Y124.824 E.05804
G1 X125.426 Y127 E.10926
G1 X124.063 Y128.144 E.06424
G1 X121.554 Y129.836 E.10927
G1 X119.987 Y130.669 E.06406
G1 X118.517 Y131.317 E.05803
G1 X115.638 Y132.253 E.10927
G1 X113.903 Y132.621 E.06406
G1 X110.888 Y132.939 E.10945
G1 X109.114 Y132.939 E.06405
G1 X107.511 Y132.82 E.05803
G1 X104.531 Y132.295 E.10927
G1 X102.821 Y131.804 E.06423
G1 X100.015 Y130.67 E.10927
G1 X98.444 Y129.835 E.06423
G1 X95.935 Y128.143 E.10927
G1 X94.576 Y127.002 E.06406
G1 X93.425 Y125.881 E.05803
G1 X91.479 Y123.563 E.10927
G1 X90.578 Y122.238 E.05785
G1 X89.689 Y120.697 E.06423
G1 X88.458 Y117.932 E.10928
G1 X87.909 Y116.24 E.06423
G1 X87.28 Y113.28 E.10927
G1 X87.094 Y111.511 E.06423
G1 X87.094 Y108.489 E.10909
G1 X87.256 Y106.891 E.05802
G1 X87.564 Y105.143 E.06407
G1 X88.398 Y102.234 E.10927
G1 X89.064 Y100.584 E.06423
G1 X90.485 Y97.912 E.10927
G1 X91.479 Y96.437 E.06423
G1 X93.383 Y94.168 E.10696
M106 S0
; printing object weight_03 v6.stl id:0 copy 0
G1 E-.35 F2400
M106 S0
;WIPE_START
G1 F3000
M106 S0
G1 X93.425 Y94.119 E-.0096
M106 S0
G1 X94.095 Y93.466 E-.1404
M106 S0
;WIPE_END
EXCLUDE_OBJECT_START NAME=weight_03_v6.stl_id_0_copy_0
G1 X99.495 Y98.86 Z.6 F12000
M106 S0
G1 X107.128 Y106.485 Z.6
M106 S0
G1 Z.2
M106 S0
G1 E.5 F2400
M106 S0
;TYPE:Inner wall
M106 S0
G1 X107.728 Y106.065 E.02644
G1 X108.446 Y105.73 E.0286
G1 X109.211 Y105.525 E.0286
G1 X109.6 Y105.491 E.0141
G1 X109.987 Y105.457 E.01402
G1 X110.787 Y105.524 E.029
G1 X111.554 Y105.73 E.02868
G1 X112.272 Y106.065 E.0286
G1 X112.921 Y106.519 E.0286
G1 X113.481 Y107.079 E.0286
G1 X113.935 Y107.728 E.0286
G1 X114.27 Y108.446 E.0286
G1 X114.475 Y109.211 E.0286
G1 X114.544 Y110 E.0286
G1 X114.475 Y110.789 E.0286
G1 X114.27 Y111.554 E.0286
G1 X113.935 Y112.272 E.0286
G1 X113.481 Y112.921 E.0286
G1 X112.921 Y113.481 E.0286
G1 X112.272 Y113.935 E.0286
G1 X111.554 Y114.27 E.0286
G1 X110.789 Y114.475 E.0286
G1 X110 Y114.544 E.0286
G1 X109.211 Y114.475 E.0286
G1 X108.446 Y114.27 E.0286
G1 X107.728 Y113.935 E.0286
G1 X107.079 Y113.481 E.0286
G1 X106.519 Y112.921 E.0286
G1 X106.065 Y112.272 E.0286
G1 X105.73 Y111.554 E.0286
G1 X105.525 Y110.789 E.0286
G1 X105.456 Y110 E.0286
G1 X105.525 Y109.211 E.0286
G1 X105.627 Y108.828 E.0143
G1 X105.73 Y108.446 E.0143
G1 X106.065 Y107.728 E.0286
G1 X106.519 Y107.079 E.0286
G1 X107.079 Y106.519 E.0286
G1 X107.095 Y106.508 E.00071
M106 S0
G1 X107.262 Y106.982 F12000
M106 S0
G1 F2400
M106 S0
G1 X107.374 Y106.87 E.00571
G1 X107.957 Y106.462 E.02571
G1 X108.603 Y106.161 E.02571
G1 X109.291 Y105.977 E.02571
G1 X109.64 Y105.946 E.01265
G1 X109.987 Y105.916 E.0126
G1 X110.708 Y105.976 E.02611
G1 X111.397 Y106.161 E.02576
G1 X112.043 Y106.462 E.02571
G1 X112.626 Y106.87 E.02571
G1 X113.13 Y107.374 E.02571
G1 X113.538 Y107.957 E.02571
G1 X113.839 Y108.603 E.02571
G1 X114.023 Y109.291 E.02571
G1 X114.085 Y110 E.02571
G1 X114.023 Y110.709 E.02571
G1 X113.839 Y111.397 E.02571
G1 X113.538 Y112.043 E.02571
G1 X113.13 Y112.626 E.02571
G1 X112.626 Y113.13 E.02571
G1 X112.043 Y113.538 E.02571
G1 X111.397 Y113.839 E.02571
G1 X110.71 Y114.023 E.02571
G1 X110 Y114.085 E.02571
G1 X109.291 Y114.023 E.02571
G1 X108.603 Y113.839 E.02571
G1 X107.957 Y113.538 E.02571
G1 X107.374 Y113.13 E.02571
G1 X106.871 Y112.626 E.02571
G1 X106.462 Y112.043 E.02571
G1 X106.161 Y111.397 E.02571
G1 X105.977 Y110.709 E.02571
G1 X105.915 Y110 E.02571
G1 X105.977 Y109.291 E.02571
G1 X106.069 Y108.947 E.01286
G1 X106.161 Y108.603 E.01286
G1 X106.462 Y107.957 E.02571
G1 X106.871 Y107.374 E.02571
G1 X107.234 Y107.01 E.01856
M106 S0
G1 X107.232 Y107.659 F12000
M106 S0
;TYPE:Outer wall
G1 F2400
M106 S0
G1 X107.669 Y107.222 E.02231
G1 X108.187 Y106.859 E.02282
G1 X108.76 Y106.592 E.02282
G1 X109.37 Y106.429 E.02282
G1 X109.68 Y106.402 E.01121
G1 X109.988 Y106.375 E.01118
G1 X110.629 Y106.428 E.02322
G1 X111.24 Y106.592 E.02285
G1 X111.813 Y106.859 E.02282
G1 X112.331 Y107.222 E.02282
G1 X112.778 Y107.669 E.02282
G1 X113.141 Y108.187 E.02282
G1 X113.408 Y108.76 E.02282
G1 X113.572 Y109.37 E.02282
G1 X113.627 Y110 E.02282
G1 X113.572 Y110.63 E.02282
G1 X113.408 Y111.24 E.02282
G1 X113.141 Y111.813 E.02282
G1 X112.778 Y112.331 E.02282
G1 X112.331 Y112.778 E.02282
G1 X111.813 Y113.141 E.02282
G1 X111.24 Y113.408 E.02282
G1 X110.63 Y113.571 E.02282
G1 X110 Y113.627 E.02282
G1 X109.37 Y113.571 E.02282
G1 X108.76 Y113.408 E.02282
G1 X108.187 Y113.141 E.02282
G1 X107.669 Y112.778 E.02282
G1 X107.222 Y112.331 E.02282
G1 X106.859 Y111.813 E.02282
G1 X106.592 Y111.24 E.02282
G1 X106.429 Y110.63 E.02282
G1 X106.374 Y110 E.02282
G1 X106.429 Y109.37 E.02282
G1 X106.51 Y109.065 E.01141
G1 X106.592 Y108.76 E.01141
G1 X106.859 Y108.187 E.02282
G1 X107.207 Y107.69 E.02189
M106 S0
G1 E-.35
M106 S0
;WIPE_START
M106 S0
G1 X107.669 Y107.222 E-.09865
M106 S0
G1 X107.949 Y107.026 E-.05135
M106 S0
;WIPE_END
G1 X115.533 Y107.884 Z.6 F12000
M106 S0
G1 X129.165 Y109.428 Z.6
M106 S0
G1 Z.2
M106 S0
G1 E.5 F2400
M106 S0
;TYPE:Inner wall
M106 S0
G1 X129.18 Y109.998 E.02058
G3 X110.671 Y90.827 I-19.179 J-.003 E3.28733
G1 X111.101 Y90.857 E.01556
G1 X112.007 Y90.92 E.03279
G3 X129.134 Y108.664 I-2.006 J19.074 E.96713
G1 X129.164 Y109.388 E.02614
M106 S0
G1 X129.612 Y109.132 F12000
M106 S0
G1 F2400
M106 S0
G1 X129.632 Y109.998 E.03126
G3 X129.595 Y111.368 I-22.074 J.088 E.0495
G1 X129.451 Y112.736 E.04969
G3 X128.459 Y116.716 I-21.84 J-3.332 E.1483
G1 X127.943 Y117.992 E.04969
G3 X125.892 Y121.544 I-20.074 J-9.222 E.1483
G1 X125.045 Y122.628 E.04969
G3 X122.091 Y125.48 I-16.744 J-14.388 E.14848
G3 X118.612 Y127.654 I-13.393 J-17.565 E.1483
G1 X117.355 Y128.213 E.04969
G3 X113.412 Y129.344 I-8.032 J-20.574 E.1483
G1 X112.05 Y129.535 E.04969
G3 X105.249 Y129.059 I-1.992 J-20.362 E.24729
G1 X103.926 Y128.68 E.04969
G3 X97.908 Y125.479 I6.462 J-19.411 E.24729
G1 X96.857 Y124.598 E.0495
G1 X95.867 Y123.641 E.04969
G3 X93.343 Y120.409 I16.061 J-15.149 E.14829
G1 X92.655 Y119.217 E.04969
G3 X90.549 Y112.734 I18.133 J-9.474 E.24729
G1 X90.405 Y111.365 E.04969
G3 X90.549 Y107.266 I22.036 J-1.281 E.14831
G3 X91.541 Y103.287 I21.823 J3.326 E.1483
G1 X92.056 Y102.01 E.04969
G3 X94.109 Y98.454 I20.068 J9.216 E.14848
G3 X96.857 Y95.402 I17.712 J13.186 E.14849
G3 X100.18 Y92.989 I14.583 J16.58 E.14849
G3 X103.926 Y91.32 I10.817 J19.25 E.1483
G1 X105.249 Y90.941 E.04969
G3 X109.311 Y90.37 I5.092 J21.488 E.1483
G1 X110.687 Y90.37 E.04969
G1 X111.133 Y90.401 E.01614
G1 X112.055 Y90.465 E.03336
G1 X113.407 Y90.655 E.04932
G1 X114.753 Y90.941 E.04969
G3 X118.608 Y92.344 I-5.594 J21.367 E.1483
G1 X119.823 Y92.99 E.04969
G3 X123.141 Y95.401 I-11.268 J18.998 E.1483
G1 X124.131 Y96.357 E.04969
G3 X126.659 Y99.593 I-16.054 J15.145 E.14849
G3 X128.459 Y103.284 I-18.85 J11.476 E.14849
G3 X129.452 Y107.269 I-20.823 J7.305 E.14849
G3 X129.584 Y108.633 I-21.893 J2.817 E.0495
G1 X129.61 Y109.092 E.0166
M106 S0
G1 X130.051 Y108.602 F12000
M106 S0
;TYPE:Outer wall
G1 F2400
M106 S0
G1 X130.1 Y109.997 E.05042
G1 X130.051 Y111.4 E.05066
G1 X129.904 Y112.8 E.05084
G1 X129.661 Y114.177 E.05047
G1 X129.322 Y115.538 E.05066
G1 X128.888 Y116.872 E.05066
G1 X128.361 Y118.178 E.05084
G1 X127.748 Y119.434 E.05047
G1 X127.047 Y120.649 E.05066
G1 X126.262 Y121.813 E.05065
G1 X125.395 Y122.922 E.05084
G1 X124.46 Y123.961 E.05047
G1 X123.451 Y124.936 E.05066
G1 X122.372 Y125.841 E.05084
G1 X121.241 Y126.662 E.05047
G1 X120.051 Y127.406 E.05066
G1 X118.813 Y128.065 E.05066
G1 X117.526 Y128.637 E.05084
G1 X116.213 Y129.116 E.05047
G1 X114.864 Y129.502 E.05066
G1 X113.492 Y129.794 E.05065
G1 X112.097 Y129.99 E.05084
G1 X110.703 Y130.087 E.05047
G1 X109.3 Y130.088 E.05066
G1 X107.895 Y129.989 E.05084
G1 X106.511 Y129.795 E.05047
G1 X105.139 Y129.503 E.05066
G1 X103.785 Y129.115 E.05084
G1 X102.471 Y128.637 E.05047
G1 X101.19 Y128.066 E.05066
G1 X99.947 Y127.405 E.05084
G1 X98.761 Y126.664 E.05047
G1 X97.626 Y125.839 E.05066
G1 X96.551 Y124.938 E.05065
G1 X95.538 Y123.959 E.05085
G1 X94.603 Y122.92 E.05047
G1 X93.739 Y121.815 E.05066
G1 X92.955 Y120.652 E.05065
G1 X92.251 Y119.432 E.05084
G1 X91.638 Y118.176 E.05047
G1 X91.113 Y116.875 E.05066
G1 X90.678 Y115.535 E.05085
G1 X90.34 Y114.179 E.05047
G1 X90.096 Y112.797 E.05066
G1 X89.949 Y111.397 E.05084
G1 X89.9 Y110 E.05047
G1 X89.949 Y108.603 E.05047
G1 X90.096 Y107.203 E.05084
G1 X90.34 Y105.821 E.05066
G1 X90.679 Y104.46 E.05066
G1 X91.111 Y103.13 E.05047
G1 X91.638 Y101.824 E.05085
G1 X92.253 Y100.563 E.05065
G1 X92.952 Y99.353 E.05047
G1 X93.739 Y98.185 E.05084
G1 X94.603 Y97.08 E.05066
G1 X95.538 Y96.041 E.05047
G1 X96.551 Y95.062 E.05085
G1 X97.626 Y94.161 E.05066
G1 X98.757 Y93.339 E.05047
G1 X99.951 Y92.593 E.05084
G1 X101.19 Y91.934 E.05065
G1 X102.471 Y91.363 E.05066
G1 X103.785 Y90.885 E.05047
G1 X105.139 Y90.497 E.05084
