; HEADER_BLOCK_START
; generated by Creality_Print V5.1.0.9484 on 2024-07-18 at 15:45:44
; total layer number: 125
; filament_density: 1.24
; filament_diameter: 1.75
; max_z_height: 25.00
; HEADER_BLOCK_END

; MINX = 90.00
; MINY = 100.35
; MINZ = 0.00
; MAXX = 130.00
; MAXY = 136.95
; MAXZ = 25.00

; THUMBNAIL_BLOCK_START

;
; THUMBNAIL_BLOCK_END

; THUMBNAIL_BLOCK_START

;
; THUMBNAIL_BLOCK_END

; external perimeters extrusion width = 0.42mm
; perimeters extrusion width = 0.45mm
; infill extrusion width = 0.45mm
; solid infill extrusion width = 0.42mm
; top infill extrusion width = 0.42mm
; support material extrusion width = 0.42mm
; first layer extrusion width = 0.50mm

; external perimeters extrusion width = 0.42mm
; perimeters extrusion width = 0.45mm
; infill extrusion width = 0.45mm
; solid infill extrusion width = 0.42mm
; top infill extrusion width = 0.42mm
; support material extrusion width = 0.42mm
; first layer extrusion width = 0.50mm

; EXECUTABLE_BLOCK_START
EXCLUDE_OBJECT_DEFINE NAME=m8_tube_tool_01_v4.stl_id_0_copy_0 CENTER=110,110 POLYGON=[[90,107.35],[90.0299,106.704],[90.1192,106.064],[90.2672,105.434],[90.4727,104.821],[90.7339,104.23],[91.0485,103.665],[91.4139,103.132],[91.8269,102.634],[92.2841,102.177],[92.7816,101.764],[93.315,101.398],[93.8798,101.084],[94.4713,100.823],[95.0844,100.617],[95.7138,100.469],[96.3541,100.38],[97,100.35],[123,100.35],[123.646,100.38],[124.286,100.469],[124.916,100.617],[125.529,100.823],[126.12,101.084],[126.685,101.398],[127.218,101.764],[127.716,102.177],[128.173,102.634],[128.586,103.132],[128.952,103.665],[129.266,104.23],[129.527,104.821],[129.733,105.434],[129.881,106.064],[129.97,106.704],[130,107.35],[130,112.65],[129.97,113.296],[129.881,113.936],[129.733,114.566],[129.527,115.179],[129.266,115.77],[128.952,116.335],[128.586,116.868],[128.173,117.366],[127.716,117.823],[127.218,118.236],[126.685,118.602],[126.12,118.916],[125.529,119.177],[124.916,119.383],[124.286,119.531],[123.646,119.62],[123,119.65],[97,119.65],[96.3541,119.62],[95.7138,119.531],[95.0844,119.383],[94.4713,119.177],[93.8798,118.916],[93.315,118.602],[92.7816,118.236],[92.2841,117.823],[91.8269,117.366],[91.4139,116.868],[91.0485,116.335],[90.7339,115.77],[90.4727,115.179],[90.2672,114.566],[90.1192,113.936],[90.0299,113.296],[90,112.65],[90,107.35]]
EXCLUDE_OBJECT_DEFINE NAME=m6_tube_tool_01_v2.stl_id_1_copy_0 CENTER=110,128.799 POLYGON=[[90,127.649],[90.0299,127.003],[90.1192,126.363],[90.2672,125.733],[90.4727,125.12],[90.7339,124.529],[91.0485,123.964],[91.4139,123.431],[91.8269,122.933],[92.2841,122.476],[92.7816,122.063],[93.315,121.697],[93.8798,121.383],[94.4713,121.122],[95.0844,120.916],[95.7138,120.768],[96.3541,120.679],[97,120.649],[123,120.649],[123.646,120.679],[124.286,120.768],[124.916,120.916],[125.529,121.122],[126.12,121.383],[126.685,121.697],[127.218,122.063],[127.716,122.476],[128.173,122.933],[128.586,123.431],[128.952,123.964],[129.266,124.529],[129.527,125.12],[129.733,125.733],[129.881,126.363],[129.97,127.003],[130,127.649],[130,129.949],[129.97,130.595],[129.881,131.235],[129.733,131.865],[129.527,132.478],[129.266,133.069],[128.952,133.634],[128.586,134.167],[128.173,134.665],[127.716,135.122],[127.218,135.535],[126.685,135.901],[126.12,136.215],[125.529,136.476],[124.916,136.682],[124.286,136.83],[123.646,136.919],[123,136.949],[97,136.949],[96.3541,136.919],[95.7138,136.83],[95.0844,136.682],[94.4713,136.476],[93.8798,136.215],[93.315,135.901],[92.7816,135.535],[92.2841,135.122],[91.8269,134.665],[91.4139,134.167],[91.0485,133.634],[90.7339,133.069],[90.4727,132.478],[90.2672,131.865],[90.1192,131.235],[90.0299,130.595],[90,129.949],[90,127.649]]
M73 P0 R18
M106 S0
M106 P2 S0
;TYPE:Custom
M140 S0
M104 S0 
START_PRINT EXTRUDER_TEMP=240 BED_TEMP=60
M141 S35;set chamber_temperature
G90
G21
M83 ; use relative distances for extrusion
; filament start gcode
M106 S0
M106 P2 S0
;LAYER_CHANGE
;Z:0.2
;HEIGHT:0.2
;BEFORE_LAYER_CHANGE
;0.2
G92 E0
M106 P2 S204
M106 S0

G1 E-.5 F2400
M106 S0
;AFTER_LAYER_CHANGE
;0.2
;_SET_FAN_SPEED_CHANGING_LAYER
SET_VELOCITY_LIMIT ACCEL=1000 ACCEL_TO_DECEL=1000
SET_VELOCITY_LIMIT SQUARE_CORNER_VELOCITY=20
G1 X90.431 Y99.928 F12000
M106 S0
G1 Z.4
M106 S0
G1 Z.2
M106 S0
G1 E.5 F2400
M106 S0
;TYPE:Skirt
;WIDTH:0.5
G1 F3000
M106 S0
G1 X91.668 Y98.994 E.05597
G1 X92.462 Y98.538 E.03306
G1 X94.173 Y97.85 E.06659
G1 X95.952 Y97.494 E.0655
G1 X97 Y97.436 E.03792
G1 X123.011 Y97.436 E.93914
G1 X124.689 Y97.583 E.06082
G1 X126.455 Y98.06 E.06604
G1 X127.538 Y98.538 E.04276
G1 X129.08 Y99.522 E.06604
G1 X130.234 Y100.574 E.05636
G1 X131.356 Y102.018 E.06604
G1 X132.198 Y103.658 E.06659
G1 X132.718 Y105.397 E.0655
G1 X132.914 Y107.35 E.07089
G1 X132.881 Y130.729 E.84414
G1 X132.715 Y131.913 E.04315
G1 X132.193 Y133.655 E.06565
G1 X131.497 Y135.052 E.05636
G1 X130.828 Y136.029 E.04276
G1 X130.234 Y136.725 E.03306
G1 X129.08 Y137.777 E.05636
G1 X128.332 Y138.305 E.03306
G1 X127.297 Y138.881 E.04276
G1 X126.455 Y139.239 E.03306
G1 X124.953 Y139.667 E.05636
G1 X123.135 Y139.86 E.06604
G1 X96.22 Y139.83 E.9718
G1 X95.047 Y139.667 E.04276
G1 X93.545 Y139.239 E.05636
G1 X92.462 Y138.761 E.04276
G1 X90.92 Y137.777 E.06604
G1 X89.585 Y136.527 E.06604
G1 X88.644 Y135.281 E.05636
G1 X88.188 Y134.487 E.03306
G1 X87.504 Y132.791 E.06604
G1 X87.233 Y131.638 E.04276
G1 X87.119 Y130.729 E.03306
G1 X87.119 Y106.57 E.87232
G1 X87.282 Y105.397 E.04276
G1 X87.807 Y103.644 E.06604
G1 X88.503 Y102.247 E.05636
G1 X89.172 Y101.27 E.04276
G1 X90.403 Y99.957 E.06498
M106 S0
G1 X90.723 Y100.28 F12000
M106 S0
G1 F3000
M106 S0
G1 X91.926 Y99.371 E.05445
G1 X92.684 Y98.937 E.03153
G1 X94.318 Y98.284 E.06352
G1 X96.015 Y97.946 E.06248
G1 X97 Y97.893 E.03563
G1 X123.011 Y97.893 E.93914
G1 X124.626 Y98.036 E.05853
G1 X126.31 Y98.493 E.063
G1 X127.316 Y98.937 E.03972
G1 X128.788 Y99.874 E.063
G1 X130.063 Y101.064 E.063
G1 X131.098 Y102.469 E.063
G1 X131.78 Y103.842 E.05535
G1 X132.273 Y105.501 E.06248
G1 X132.457 Y107.35 E.06708
G1 X132.425 Y130.708 E.84338
G1 X132.27 Y131.808 E.0401
G1 X131.775 Y133.47 E.06261
G1 X131.098 Y134.83 E.05483
G1 X130.476 Y135.737 E.03972
G1 X129.91 Y136.402 E.03153
G1 X128.788 Y137.425 E.05483
G1 X128.074 Y137.928 E.03153
G1 X127.113 Y138.463 E.03972
G1 X126.31 Y138.806 E.03153
G1 X124.849 Y139.222 E.05483
G1 X123.113 Y139.403 E.063
G1 X96.241 Y139.374 E.97027
G1 X94.522 Y139.074 E.063
G1 X93.479 Y138.724 E.03972
G1 X92.119 Y138.047 E.05483
G1 X91.212 Y137.425 E.03972
G1 X89.937 Y136.235 E.063
G1 X89.021 Y135.023 E.05483
G1 X88.587 Y134.265 E.03153
G1 X88.225 Y133.47 E.03153
G1 X87.875 Y132.427 E.03972
G1 X87.575 Y130.708 E.063
G1 X87.575 Y106.591 E.87079
G1 X87.727 Y105.501 E.03972
G1 X88.143 Y104.04 E.05483
G1 X88.902 Y102.469 E.063
G1 X89.524 Y101.562 E.03972
G1 X90.695 Y100.309 E.06194
M106 S0
; printing object m8_tube_tool_01 v4.stl id:0 copy 0
G1 E-.35 F2400
M106 S0
;WIPE_START
G1 F3000
M106 S0
G1 X91.491 Y99.703 E-.15
M106 S0
;WIPE_END
EXCLUDE_OBJECT_START NAME=m8_tube_tool_01_v4.stl_id_0_copy_0
G1 X93.354 Y102.997 Z.6 F12000
M106 S0
G1 Z.2
M106 S0
G1 E.5 F2400
M106 S0
;TYPE:Inner wall
M106 S0
G1 X93.578 Y102.819 E.01033
G3 X97.03 Y101.664 I3.441 J4.551 E.13377
G1 X97.491 Y101.664 E.01662
G1 X122.98 Y101.665 E.92033
M73 P0 R17
G3 X128.686 Y107.38 I.002 J5.703 E.32399
G1 X128.686 Y112.62 E.18917
G3 X122.97 Y118.336 I-5.704 J.012 E.32439
G1 X97.03 Y118.336 E.93656
G3 X91.314 Y112.62 I-.012 J-5.704 E.32439
G1 X91.314 Y107.38 E.18917
G3 X93.182 Y103.147 I5.705 J-.011 E.17201
G1 X93.324 Y103.023 E.00681
M106 S0
G1 X92.815 Y102.86 F12000
M106 S0
G1 F2400
M106 S0
G1 X92.874 Y102.809 E.00282
G3 X97.02 Y101.207 I4.145 J4.56 E.16417
G1 X97.491 Y101.207 E.017
G1 X122.991 Y101.208 E.92071
G3 X129.143 Y107.37 I-.008 J6.16 E.34915
M73 P1 R17
G1 X129.143 Y112.63 E.18993
G3 X122.98 Y118.793 I-6.161 J.002 E.34955
G1 X97.02 Y118.793 E.93733
G3 X90.857 Y112.63 I-.002 J-6.161 E.34955
G1 X90.857 Y107.37 E.18993
G3 X92.466 Y103.217 I6.162 J-.001 E.16451
G1 X92.787 Y102.888 E.0166
M106 S0
G1 X92.128 Y102.909 F12000
M106 S0
;TYPE:Outer wall
G1 F2400
M106 S0
G3 X97.009 Y100.75 I4.891 J4.46 E.19835
G1 X97.491 Y100.75 E.01739
G1 X123.002 Y100.75 E.92109
G3 X129.6 Y107.359 I-.019 J6.617 E.37432
G1 X129.6 Y112.641 E.19069
G3 X122.991 Y119.25 I-6.618 J-.009 E.37471
G1 X97.009 Y119.25 E.93809
G3 X90.4 Y112.641 I.009 J-6.618 E.37471
G1 X90.4 Y107.359 E.19069
G3 X92.101 Y102.939 I6.619 J.01 E.17489
M106 S0
G1 E-.35
M106 S0
;WIPE_START
M106 S0
G1 X92.562 Y102.466 E-.09899
M106 S0
G1 X92.824 Y102.249 E-.05101
M106 S0
;WIPE_END
G1 X100.438 Y102.776 Z.6 F12000
M106 S0
G1 X127.797 Y104.669 Z.6
M106 S0
G1 Z.2
M106 S0
G1 E.5 F2400
M106 S0
;TYPE:Bottom surface
;WIDTH:0.503603
G1 F3600
M106 S0
G1 X126.552 Y103.424 E.06407
G2 X124.877 Y102.4 I-3.694 J4.162 E.07182
G1 X127.95 Y105.473 E.15816
G3 X128.206 Y106.38 I-7.27 J2.539 E.03433
G1 X123.97 Y102.144 E.21802
G2 X123.239 Y102.066 I-.789 J3.9 E.02676
G1 X128.284 Y107.111 E.25964
G3 X128.297 Y107.775 I-7.178 J.472 E.02419
G1 X122.576 Y102.053 E.29447
G1 X121.924 Y102.053 E.02371
G1 X128.297 Y108.426 E.328
G1 X128.297 Y109.078 E.02371
G1 X121.272 Y102.053 E.36153
G1 X120.621 Y102.053 E.02371
G1 X128.297 Y109.729 E.39506
G1 X128.297 Y110.381 E.02371
G1 X119.969 Y102.053 E.42859
G1 X119.318 Y102.053 E.02371
G1 X128.297 Y111.032 E.46212
G1 X128.297 Y111.684 E.02371
G1 X118.666 Y102.053 E.49565
G1 X118.015 Y102.053 E.02371
G1 X128.297 Y112.336 E.52918
G3 X128.281 Y112.97 I-6.873 J.138 E.02312
G1 X117.363 Y102.053 E.56185
G1 X116.712 Y102.053 E.02371
G1 X128.215 Y113.556 E.59198
G3 X128.096 Y114.089 I-2.933 J-.375 E.01989
G1 X116.06 Y102.053 E.6194
G1 X115.409 Y102.053 E.02371
G1 X127.932 Y114.576 E.6445
G3 X127.731 Y115.027 I-2.532 J-.858 E.01798
G1 X114.757 Y102.053 E.66769
G1 X114.106 Y102.053 E.02371
G1 X127.498 Y115.445 E.68919
G1 X127.233 Y115.831 E.01705
G1 X113.454 Y102.053 E.70909
G1 X112.803 Y102.053 E.02371
G1 X126.938 Y116.188 E.72745
G3 X126.615 Y116.516 I-1.933 J-1.58 E.01679
G1 X112.151 Y102.053 E.74435
G1 X111.5 Y102.053 E.02371
G1 X126.263 Y116.816 E.75978
G3 X125.883 Y117.087 I-1.653 J-1.917 E.01702
G1 X110.848 Y102.053 E.77373
M73 P2 R17
G1 X110.197 Y102.053 E.02371
G1 X125.472 Y117.328 E.78613
G3 X125.029 Y117.537 I-1.347 J-2.286 E.01784
G1 X109.545 Y102.053 E.79686
G1 X108.894 Y102.053 E.02371
G1 X124.55 Y117.709 E.80572
G3 X124.031 Y117.842 I-.988 J-2.779 E.01951
G1 X108.242 Y102.053 E.81256
G1 X107.591 Y102.053 E.02371
G1 X123.462 Y117.924 E.8168
G3 X122.834 Y117.947 I-.565 J-6.783 E.02289
G1 X106.939 Y102.053 E.81799
G1 X106.288 Y102.053 E.02371
G1 X122.182 Y117.947 E.818
G1 X121.531 Y117.947 E.02371
G1 X105.636 Y102.053 E.818
G1 X104.985 Y102.053 E.02371
G1 X120.879 Y117.947 E.818
G1 X120.228 Y117.947 E.02371
G1 X104.333 Y102.053 E.818
G1 X103.682 Y102.053 E.02371
G1 X119.576 Y117.947 E.818
G1 X118.925 Y117.947 E.02371
G1 X103.03 Y102.053 E.818
G1 X102.379 Y102.053 E.02371
G1 X118.273 Y117.947 E.818
G1 X117.622 Y117.947 E.02371
G1 X101.727 Y102.053 E.818
G1 X101.075 Y102.053 E.02371
G1 X116.97 Y117.947 E.818
G1 X116.319 Y117.947 E.02371
G1 X100.424 Y102.053 E.818
G1 X99.772 Y102.053 E.02371
G1 X115.667 Y117.947 E.818
G1 X115.016 Y117.947 E.02371
G1 X99.121 Y102.053 E.818
G1 X98.469 Y102.053 E.02371
G1 X114.364 Y117.947 E.818
G1 X113.713 Y117.947 E.02371
G1 X97.818 Y102.053 E.818
G2 X97.174 Y102.061 I-.161 J12.73 E.02342
G1 X113.061 Y117.947 E.81759
G1 X112.41 Y117.947 E.02371
G1 X96.539 Y102.077 E.81676
G1 X96.507 Y102.078 E.00115
G2 X95.969 Y102.158 I.166 J2.945 E.01984
G1 X111.758 Y117.947 E.81257
G1 X111.107 Y117.947 E.02371
G1 X95.45 Y102.291 E.80574
G2 X94.971 Y102.463 I.675 J2.631 E.01856
G1 X110.455 Y117.947 E.79687
G1 X109.803 Y117.947 E.02371
G1 X94.528 Y102.672 E.78614
M73 P3 R17
G2 X94.117 Y102.913 I1.095 J2.336 E.01735
G1 X109.152 Y117.947 E.77374
G1 X108.5 Y117.947 E.02371
G1 X93.737 Y103.184 E.7598
G2 X93.386 Y103.484 I1.473 J2.076 E.01684
G1 X107.849 Y117.947 E.74433
G1 X107.197 Y117.947 E.02371
G1 X93.062 Y103.812 E.72747
G2 X92.767 Y104.169 I1.779 J1.771 E.01686
G1 X106.546 Y117.947 E.70911
G1 X105.894 Y117.947 E.02371
G1 X92.502 Y104.555 E.68921
G2 X92.269 Y104.973 I2.137 J1.469 E.01745
G1 X105.243 Y117.947 E.6677
G1 X104.591 Y117.947 E.02371
G1 X92.068 Y105.424 E.64451
G2 X91.904 Y105.912 I26.664 J9.227 E.01872
G1 X103.94 Y117.947 E.61941
G1 X103.288 Y117.947 E.02371
G1 X91.785 Y106.444 E.592
G2 X91.719 Y107.03 I3.127 J.649 E.02147
G1 X102.637 Y117.947 E.56187
G1 X101.985 Y117.947 E.02371
G1 X91.703 Y107.665 E.52919
G1 X91.703 Y108.316 E.02371
G1 X101.334 Y117.947 E.49567
G1 X100.682 Y117.947 E.02371
G1 X91.703 Y108.968 E.46214
G1 X91.703 Y109.619 E.02371
G1 X100.031 Y117.947 E.42861
G1 X99.379 Y117.947 E.02371
G1 X91.703 Y110.271 E.39508
G1 X91.703 Y110.922 E.02371
G1 X98.728 Y117.947 E.36155
G1 X98.076 Y117.947 E.02371
G1 X91.703 Y111.574 E.32802
G1 X91.703 Y112.225 E.02371
G1 X97.425 Y117.947 E.29449
G3 X96.761 Y117.934 I-.193 J-7.191 E.02419
G1 X91.716 Y112.889 E.25963
G2 X91.794 Y113.62 I3.98 J-.059 E.02676
G1 X96.03 Y117.856 E.21801
G3 X95.123 Y117.6 I1.633 J-7.529 E.03433
G1 X92.05 Y114.527 E.15815
G2 X93.074 Y116.202 I5.186 J-2.019 E.07183
G1 X94.319 Y117.447 E.06405
M106 S0
G1 X94.759 Y117.594 F12000
M106 S0
;TYPE:Gap infill
;WIDTH:0.113591
G1 F2400
M106 S0
G1 X94.677 Y117.537 E.00056
M106 S0
;WIDTH:0.145231
M106 S0
G1 X94.595 Y117.481 E.00081
M106 S0
;WIDTH:0.161052
M106 S0
G1 X94.418 Y117.347 E.00206
M106 S0
G1 E-.35
M106 S0
;WIPE_START
M106 S0
G1 X94.595 Y117.481 E-.15
M106 S0
;WIPE_END
G1 X101.75 Y114.826 Z.6 F12000
M106 S0
G1 X127.943 Y105.109 Z.6
M106 S0
G1 Z.2
M106 S0
G1 E.5 F2400
M106 S0
;WIDTH:0.113684
M106 S0
G1 X127.886 Y105.026 E.00056
M106 S0
;WIDTH:0.145514
M106 S0
G1 X127.83 Y104.944 E.00081
M106 S0
;WIDTH:0.161429
M106 S0
G1 X127.698 Y104.768 E.00206
M106 S0
; stop printing object m8_tube_tool_01 v4.stl id:0 copy 0
; printing object m6_tube_tool_01 v2.stl id:1 copy 0
G1 E-.35
M106 S0
;WIPE_START
M106 S0
G1 X127.83 Y104.944 E-.15
M106 S0
;WIPE_END
EXCLUDE_OBJECT_END NAME=m8_tube_tool_01_v4.stl_id_0_copy_0
EXCLUDE_OBJECT_START NAME=m6_tube_tool_01_v2.stl_id_1_copy_0
G1 X128.03 Y112.573 Z.6 F12000
M106 S0
G1 X128.376 Y125.822 Z.6
M106 S0
G1 Z.2
M106 S0
G1 E.5 F2400
M106 S0
;TYPE:Inner wall
;WIDTH:0.5
M106 S0
G1 X128.465 Y126.094 E.01034
G3 X128.686 Y127.679 I-5.482 J1.573 E.05798
G1 X128.686 Y129.919 E.08085
G3 X122.97 Y135.635 I-5.704 J.012 E.32439
G1 X97.03 Y135.635 E.93656
G3 X91.314 Y129.919 I-.012 J-5.704 E.32439
G1 X91.314 Y127.679 E.08085
G3 X97.03 Y121.963 I5.704 J-.012 E.32439
G1 X97.491 Y121.963 E.01662
G1 X122.98 Y121.964 E.92033
G3 X128.301 Y125.606 I.002 J5.703 E.24741
G1 X128.363 Y125.784 E.00682
M106 S0
G1 X128.699 Y125.368 F12000
M106 S0
G1 F2400
M106 S0
G1 X128.727 Y125.441 E.00282
G3 X129.143 Y127.669 I-5.744 J2.225 E.08229
G1 X129.143 Y129.929 E.08161
G3 X122.98 Y136.092 I-6.161 J.002 E.34955
G1 X97.02 Y136.092 E.93733
G3 X90.857 Y129.929 I-.002 J-6.161 E.34955
M73 P4 R17
G1 X90.857 Y127.669 E.08161
G3 X97.02 Y121.506 I6.161 J-.002 E.34955
G1 X97.491 Y121.506 E.017
G1 X122.991 Y121.507 E.92071
G3 X128.493 Y124.913 I-.008 J6.16 E.246
G1 X128.683 Y125.332 E.0166
M106 S0
G1 X128.902 Y124.71 F12000
M106 S0
;TYPE:Outer wall
G1 F2400
M106 S0
G3 X129.6 Y127.658 I-5.92 J2.957 E.11038
G1 X129.6 Y129.94 E.08238
G3 X122.991 Y136.549 I-6.618 J-.009 E.37471
G1 X97.009 Y136.549 E.93809
G3 X90.4 Y129.94 I.009 J-6.618 E.37471
G1 X90.4 Y127.658 E.08238
G3 X97.009 Y121.049 I6.618 J.009 E.37471
G1 X97.491 Y121.049 E.01739
G1 X123.002 Y121.049 E.92109
G3 X128.885 Y124.674 I-.019 J6.617 E.26249
M106 S0
G1 X127.799 Y124.972 F12000
M106 S0
;TYPE:Bottom surface
;WIDTH:0.506321
G1 F3600
M106 S0
G1 X126.541 Y123.713 E.06516
G2 X124.868 Y122.696 I-3.667 J4.146 E.07204
G1 X127.953 Y125.781 E.15969
G3 X128.207 Y126.691 I-6.886 J2.417 E.03461
G1 X123.958 Y122.442 E.21996
G2 X123.225 Y122.364 I-.786 J3.917 E.02702
G1 X128.285 Y127.424 E.26193
G3 X128.297 Y128.091 I-7.212 J.466 E.02445
G1 X122.558 Y122.352 E.2971
G1 X121.903 Y122.352 E.02399
