; HEADER_BLOCK_START
; generated by Creality_Print V5.1.0.9484 on 2024-07-16 at 14:03:55
; total layer number: 204
; filament_density: 1.24
; filament_diameter: 1.75
; max_z_height: 40.80
; HEADER_BLOCK_END

; MINX = 89.51
; MINY = 89.50
; MINZ = 0.00
; MAXX = 130.49
; MAXY = 130.50
; MAXZ = 40.70

; THUMBNAIL_BLOCK_START

;
; THUMBNAIL_BLOCK_END

; THUMBNAIL_BLOCK_START

;
; THUMBNAIL_BLOCK_END

; external perimeters extrusion width = 0.42mm
; perimeters extrusion width = 0.45mm
; infill extrusion width = 0.45mm
; solid infill extrusion width = 0.42mm
; top infill extrusion width = 0.42mm
; first layer extrusion width = 0.50mm

; EXECUTABLE_BLOCK_START
EXCLUDE_OBJECT_DEFINE NAME=weight_04_v2.stl_id_0_copy_0 CENTER=110,110 POLYGON=[[89.5057,110],[89.5505,108.645],[89.6848,107.296],[89.9079,105.959],[90.2189,104.64],[90.6165,103.344],[91.0988,102.077],[91.6638,100.845],[92.3089,99.6523],[93.0315,98.5053],[93.8283,97.4086],[94.6959,96.367],[95.6303,95.385],[96.6277,94.4668],[97.6835,93.6166],[98.7933,92.8381],[99.952,92.1346],[101.155,91.5092],[102.396,90.9646],[103.671,90.5033],[104.973,90.1273],[106.298,89.8381],[107.638,89.6372],[108.989,89.5252],[110.345,89.5028],[111.699,89.57],[113.045,89.7266],[114.378,89.9718],[115.692,90.3046],[116.982,90.7235],[118.24,91.2266],[119.463,91.8119],[120.645,92.4767],[121.779,93.2182],[122.863,94.033],[123.89,94.9177],[124.856,95.8683],[125.758,96.8806],[126.591,97.9504],[127.351,99.0729],[128.035,100.243],[128.64,101.456],[129.164,102.706],[129.604,103.988],[129.959,105.297],[130.226,106.626],[130.405,107.97],[130.494,109.322],[130.494,110.678],[130.405,112.03],[130.226,113.374],[129.959,114.703],[129.604,116.012],[129.164,117.294],[128.64,118.544],[128.035,119.757],[127.351,120.927],[126.591,122.05],[125.758,123.119],[124.856,124.132],[123.89,125.082],[122.863,125.967],[121.779,126.782],[120.645,127.523],[119.463,128.188],[118.24,128.773],[116.982,129.277],[115.692,129.695],[114.378,130.028],[113.045,130.273],[111.699,130.43],[110.345,130.497],[108.989,130.475],[107.638,130.363],[106.298,130.162],[104.973,129.873],[103.671,129.497],[102.396,129.035],[101.155,128.491],[99.952,127.865],[98.7933,127.162],[97.6835,126.383],[96.6277,125.533],[95.6303,124.615],[94.6959,123.633],[93.8283,122.591],[93.0315,121.495],[92.3089,120.348],[91.6638,119.155],[91.0988,117.923],[90.6165,116.656],[90.2189,115.36],[89.9079,114.041],[89.6848,112.704],[89.5505,111.355],[89.5057,110]]
M73 P0 R36
M73 C10
M106 S0
M106 P2 S0
;TYPE:Custom
M140 S0
M104 S0 
START_PRINT EXTRUDER_TEMP=240 BED_TEMP=60
M141 S35;set chamber_temperature
G90
G21
M83 ; use relative distances for extrusion
; filament start gcode
M106 S0
M106 P2 S0
;LAYER_CHANGE
;Z:0.2
;HEIGHT:0.2
;BEFORE_LAYER_CHANGE
;0.2
G92 E0
M106 P2 S204
M106 S0

G1 E-.5 F2400
M106 S0
;AFTER_LAYER_CHANGE
;0.2
;_SET_FAN_SPEED_CHANGING_LAYER
SET_VELOCITY_LIMIT ACCEL=1000 ACCEL_TO_DECEL=1000
SET_VELOCITY_LIMIT SQUARE_CORNER_VELOCITY=20
G1 X92.7 Y94.245 F12000
M106 S0
G1 Z.4
M106 S0
G1 Z.2
M106 S0
G1 E.5 F2400
M106 S0
;TYPE:Skirt
;WIDTH:0.5
G1 F3000
M106 S0
G1 X94.654 Y92.323 E.09898
G1 X96.01 Y91.231 E.06285
G1 X98.44 Y89.644 E.10479
G1 X99.984 Y88.84 E.06285
G1 X102.679 Y87.763 E.10479
G1 X104.358 Y87.279 E.06309
G1 X107.206 Y86.755 E.10455
G1 X108.942 Y86.611 E.06289
G1 X110.496 Y86.593 E.05611
G1 X113.382 Y86.832 E.10455
G1 X115.095 Y87.147 E.06289
G1 X117.882 Y87.952 E.10476
G1 X119.499 Y88.598 E.06285
G1 X122.074 Y89.937 E.10479
G1 X123.531 Y90.889 E.06285
G1 X125.792 Y92.71 E.1048
G1 X127.033 Y93.93 E.06285
G1 X128.89 Y96.16 E.10479
G1 X129.866 Y97.602 E.06285
G1 X131.248 Y100.154 E.10479
G1 X131.921 Y101.761 E.06289
G1 X132.772 Y104.535 E.10476
G1 X133.115 Y106.241 E.06285
G1 X133.402 Y109.13 E.10479
G1 X133.402 Y110.87 E.06285
G1 X133.115 Y113.759 E.10479
G1 X132.771 Y115.466 E.06289
G1 X131.921 Y118.24 E.10476
G1 X131.248 Y119.846 E.06285
G1 X129.866 Y122.398 E.10479
G1 X128.89 Y123.84 E.06289
G1 X127.033 Y126.07 E.10476
G1 X125.792 Y127.29 E.06285
G1 X123.531 Y129.111 E.10479
G1 X122.238 Y129.963 E.0559
G1 X120.721 Y130.817 E.06285
G1 X118.063 Y131.983 E.10479
G1 X116.408 Y132.52 E.06285
G1 X113.572 Y133.14 E.10479
G1 X111.843 Y133.341 E.06285
G1 X108.941 Y133.389 E.10479
G1 X107.206 Y133.245 E.06285
G1 X104.352 Y132.72 E.10479
G1 X102.679 Y132.237 E.06285
G1 X99.984 Y131.16 E.10479
G1 X98.434 Y130.353 E.06309
G1 X96.01 Y128.769 E.10455
G1 X94.654 Y127.677 E.06285
G1 X92.585 Y125.642 E.10479
G1 X91.471 Y124.304 E.06285
G1 X89.843 Y121.901 E.10479
G1 X89.015 Y120.37 E.06285
G1 X87.893 Y117.693 E.10479
G1 X87.381 Y116.022 E.06309
G1 X86.81 Y113.183 E.10455
G1 X86.638 Y111.451 E.06285
G1 X86.638 Y108.549 E.10479
G1 X86.81 Y106.817 E.06285
G1 X87.382 Y103.971 E.10479
G1 X87.895 Y102.301 E.06309
G1 X89.015 Y99.63 E.10455
G1 X89.843 Y98.099 E.06285
G1 X91.471 Y95.696 E.10479
G1 X92.585 Y94.358 E.06285
G1 X92.671 Y94.273 E.00437
M106 S0
G1 X92.991 Y94.599 F12000
M106 S0
G1 F3000
M106 S0
G1 X94.964 Y92.659 E.09988
G1 X96.272 Y91.605 E.06067
G1 X98.677 Y90.034 E.1037
G1 X100.168 Y89.259 E.06067
G1 X102.835 Y88.193 E.1037
G1 X104.456 Y87.725 E.06091
G1 X107.274 Y87.207 E.10346
G1 X108.949 Y87.068 E.0607
G1 X110.473 Y87.049 E.05502
G1 X113.329 Y87.286 E.10346
G1 X114.982 Y87.59 E.0607
G1 X117.741 Y88.387 E.10367
G1 X119.301 Y89.01 E.06067
G1 X121.85 Y90.335 E.1037
G1 X123.256 Y91.255 E.06067
G1 X125.493 Y93.056 E.1037
G1 X126.691 Y94.234 E.06067
G1 X128.53 Y96.441 E.1037
G1 X129.472 Y97.833 E.06067
G1 X130.839 Y100.359 E.1037
G1 X131.488 Y101.909 E.0607
G1 X132.33 Y104.654 E.10367
G1 X132.662 Y106.302 E.06067
G1 X132.946 Y109.16 E.1037
G1 X132.946 Y110.84 E.06067
G1 X132.662 Y113.698 E.1037
G1 X132.33 Y115.346 E.0607
G1 X131.488 Y118.092 E.10367
G1 X130.839 Y119.641 E.06067
G1 X129.472 Y122.167 E.1037
G1 X128.625 Y123.427 E.05481
G1 X127.588 Y124.758 E.06091
G1 X125.613 Y126.834 E.10346
G1 X124.34 Y127.931 E.06067
G1 X121.988 Y129.58 E.1037
G1 X120.524 Y130.404 E.06067
G1 X117.894 Y131.558 E.1037
G1 X116.296 Y132.077 E.06067
G1 X113.49 Y132.69 E.1037
G1 X111.82 Y132.884 E.06067
G1 X108.949 Y132.932 E.1037
G1 X107.274 Y132.793 E.06067
G1 X104.449 Y132.273 E.1037
G1 X102.835 Y131.807 E.06067
G1 X100.168 Y130.741 E.1037
G1 X98.671 Y129.962 E.06091
G1 X96.272 Y128.395 E.10346
G1 X94.964 Y127.341 E.06067
G1 X92.916 Y125.327 E.1037
G1 X91.84 Y124.036 E.06067
G1 X90.23 Y121.657 E.1037
G1 X89.43 Y120.18 E.06067
G1 X88.32 Y117.531 E.1037
G1 X87.826 Y115.918 E.06091
G1 X87.261 Y113.108 E.10346
G1 X87.095 Y111.436 E.06067
G1 X87.095 Y108.564 E.1037
G1 X87.261 Y106.892 E.06067
G1 X87.827 Y104.076 E.1037
G1 X88.323 Y102.463 E.06091
G1 X89.43 Y99.82 E.10346
G1 X90.23 Y98.343 E.06067
G1 X91.841 Y95.964 E.1037
G1 X92.916 Y94.673 E.06067
G1 X92.963 Y94.627 E.00238
M106 S0
; printing object weight_04 v2.stl id:0 copy 0
G1 E-.35 F2400
M106 S0
;WIPE_START
G1 F3000
M106 S0
G1 X93.676 Y93.926 E-.15
M106 S0
;WIPE_END
EXCLUDE_OBJECT_START NAME=weight_04_v2.stl_id_0_copy_0
G1 X99.595 Y98.744 Z.6 F12000
M106 S0
G1 X108.272 Y105.808 Z.6
M106 S0
G1 Z.2
M106 S0
G1 E.5 F2400
M106 S0
;TYPE:Inner wall
M106 S0
G1 X108.89 Y105.595 E.02361
G1 X109.63 Y105.472 E.02709
G1 X110.381 Y105.472 E.02709
G1 X111.121 Y105.595 E.0271
G1 X111.831 Y105.839 E.0271
G1 X112.491 Y106.196 E.02709
G1 X113.083 Y106.657 E.0271
G1 X113.591 Y107.209 E.02709
G1 X114.002 Y107.837 E.02709
G1 X114.303 Y108.525 E.02709
G1 X114.484 Y109.24 E.02663
G1 X114.55 Y109.998 E.02747
G1 X114.487 Y110.748 E.02717
G1 X114.303 Y111.475 E.0271
G1 X114.007 Y112.151 E.02663
G1 X113.593 Y112.789 E.02747
G1 X113.083 Y113.343 E.02717
G1 X112.491 Y113.804 E.0271
G1 X111.831 Y114.161 E.0271
G1 X111.121 Y114.405 E.02709
G1 X110.381 Y114.528 E.02709
G1 X109.63 Y114.528 E.02709
G1 X108.89 Y114.405 E.0271
G1 X108.181 Y114.161 E.0271
G1 X107.521 Y113.804 E.02709
G1 X106.928 Y113.343 E.02709
G1 X106.42 Y112.791 E.0271
G1 X106.01 Y112.163 E.0271
G1 X105.713 Y111.487 E.02663
G1 X105.524 Y110.75 E.02747
G1 X105.462 Y110 E.02717
G1 X105.524 Y109.252 E.02709
G1 X105.708 Y108.525 E.0271
G1 X106.01 Y107.837 E.02709
G1 X106.42 Y107.209 E.02709
G1 X106.92 Y106.667 E.02663
G1 X107.519 Y106.197 E.02747
G1 X108.181 Y105.839 E.02717
G1 X108.234 Y105.821 E.00204
M106 S0
G1 X108.256 Y106.318 F12000
M106 S0
G1 F2400
M106 S0
G1 X108.365 Y106.259 E.00446
G1 X109.003 Y106.04 E.02436
G1 X109.668 Y105.929 E.02436
G1 X110.343 Y105.929 E.02436
G1 X111.009 Y106.04 E.02436
G1 X111.647 Y106.259 E.02436
G1 X112.24 Y106.58 E.02436
G1 X112.772 Y106.995 E.02436
G1 X113.229 Y107.491 E.02436
G1 X113.598 Y108.056 E.02436
G1 X113.869 Y108.674 E.02436
G1 X114.032 Y109.316 E.02393
G1 X114.091 Y109.999 E.02474
G1 X114.035 Y110.672 E.02441
G1 X113.869 Y111.326 E.02436
G1 X113.603 Y111.933 E.02392
G1 X113.23 Y112.508 E.02474
G1 X112.772 Y113.005 E.02441
G1 X112.24 Y113.42 E.02436
G1 X111.647 Y113.741 E.02436
G1 X111.009 Y113.96 E.02436
G1 X110.343 Y114.071 E.02436
G1 X109.668 Y114.071 E.02436
G1 X109.003 Y113.96 E.02436
G1 X108.365 Y113.741 E.02436
G1 X107.771 Y113.42 E.02436
G1 X107.239 Y113.005 E.02436
G1 X106.782 Y112.509 E.02436
G1 X106.413 Y111.944 E.02436
G1 X106.147 Y111.337 E.02393
G1 X105.977 Y110.674 E.02474
G1 X105.921 Y110 E.02441
G1 X105.976 Y109.328 E.02436
G1 X106.142 Y108.674 E.02436
G1 X106.413 Y108.056 E.02436
G1 X106.782 Y107.491 E.02436
G1 X107.231 Y107.003 E.02392
G1 X107.77 Y106.581 E.02474
G1 X108.221 Y106.337 E.01851
M106 S0
G1 X108.034 Y106.958 F12000
M106 S0
;TYPE:Outer wall
G1 F2400
M106 S0
G1 X108.549 Y106.679 E.02115
G1 X109.115 Y106.485 E.02162
G1 X109.706 Y106.386 E.02162
G1 X110.305 Y106.386 E.02162
G1 X110.896 Y106.485 E.02163
G1 X111.462 Y106.679 E.02162
G1 X111.989 Y106.964 E.02162
G1 X112.462 Y107.332 E.02162
G1 X112.867 Y107.773 E.02162
G1 X113.195 Y108.274 E.02162
G1 X113.436 Y108.823 E.02162
G1 X113.58 Y109.392 E.02122
G1 X113.632 Y109.999 E.022
G1 X113.583 Y110.597 E.02165
G1 X113.436 Y111.177 E.02162
G1 X113.2 Y111.716 E.02122
G1 X112.868 Y112.227 E.022
G1 X112.462 Y112.668 E.02165
G1 X111.989 Y113.036 E.02162
G1 X111.462 Y113.321 E.02162
G1 X110.896 Y113.515 E.02162
G1 X110.305 Y113.614 E.02162
G1 X109.706 Y113.614 E.02162
G1 X109.115 Y113.515 E.02162
G1 X108.549 Y113.321 E.02162
G1 X108.022 Y113.036 E.02162
G1 X107.55 Y112.668 E.02162
G1 X107.144 Y112.227 E.02163
G1 X106.816 Y111.726 E.02162
G1 X106.58 Y111.188 E.02122
G1 X106.429 Y110.598 E.022
G1 X106.379 Y110 E.02165
G1 X106.429 Y109.403 E.02162
G1 X106.576 Y108.823 E.02162
G1 X106.816 Y108.274 E.02162
G1 X107.144 Y107.773 E.02162
G1 X107.542 Y107.34 E.02122
G1 X108.001 Y106.981 E.02106
M106 S0
G1 E-.35
M106 S0
;WIPE_START
M106 S0
G1 X108.549 Y106.679 E-.09379
M106 S0
G1 X108.903 Y106.557 E-.05621
M106 S0
;WIPE_END
G1 X101.338 Y105.545 Z.6 F12000
M106 S0
G1 X91.711 Y104.257 Z.6
M106 S0
G1 Z.2
M106 S0
G1 E.5 F2400
M106 S0
;TYPE:Inner wall
M106 S0
G1 X91.868 Y103.766 E.01859
G3 X110.329 Y90.818 I18.141 J6.23 E.87034
G1 X111.184 Y90.86 E.03091
G1 X111.59 Y90.88 E.01467
G3 X91.494 Y104.985 I-1.581 J19.116 E3.38956
G1 X91.7 Y104.295 E.026
M106 S0
G1 X91.193 Y104.386 F12000
M106 S0
G1 F2400
M106 S0
G1 X91.435 Y103.618 E.02908
G3 X110.337 Y90.361 I18.574 J6.379 E.89109
G1 X111.207 Y90.404 E.03145
G1 X111.628 Y90.425 E.01521
G3 X91.052 Y104.866 I-1.619 J19.572 E3.47037
G1 X91.182 Y104.424 E.0166
M106 S0
G1 X90.612 Y104.746 F12000
M106 S0
;TYPE:Outer wall
G1 F2400
M106 S0
G3 X110.345 Y89.903 I19.397 J5.249 E.96005
G1 X111.23 Y89.947 E.03199
G1 X111.666 Y89.969 E.01576
G3 X90.602 Y104.785 I-1.656 J20.026 E3.54949
M106 S0
G1 E-.35
M106 S0
;WIPE_START
M106 S0
G1 X90.889 Y103.827 E-.15
M106 S0
;WIPE_END
G1 X98.204 Y101.649 Z.6 F12000
M106 S0
G1 X121.338 Y94.76 Z.6
M106 S0
G1 Z.2
M106 S0
G1 E.5 F2400
M106 S0
;TYPE:Bottom surface
;WIDTH:0.501276
G1 F3600
M106 S0
G1 X123.63 Y97.051 E.11732
G3 X125.905 Y99.974 I-15.436 J14.36 E.13429
G1 X120.058 Y94.127 E.29938
G1 X119.76 Y93.933 E.01286
G1 X118.54 Y93.258 E.0505
G1 X126.736 Y101.454 E.41969
G3 X127.302 Y102.668 I-8.882 J4.878 E.04853
G1 X117.331 Y92.697 E.51057
G1 X116.268 Y92.282 E.04132
G1 X127.715 Y103.729 E.58616
G3 X128.031 Y104.694 I-7.159 J2.883 E.03678
G1 X115.307 Y91.97 E.65153
G1 X114.431 Y91.742 E.03278
G1 X128.272 Y105.583 E.70872
G3 X128.445 Y106.403 I-6.108 J1.711 E.03038
G1 X113.601 Y91.56 E.76004
G1 X112.807 Y91.414 E.02924
G1 X128.584 Y107.191 E.80782
M73 P1 R36
G1 X128.683 Y107.938 E.02731
G1 X112.072 Y91.328 E.85053
G2 X111.354 Y91.258 I-.887 J5.387 E.02614
G1 X128.743 Y108.647 E.89039
G1 X128.789 Y109.341 E.02519
G1 X110.672 Y91.224 E.92767
G2 X110.012 Y91.212 I-.424 J5.004 E.02394
G1 X128.792 Y109.992 E.96162
G3 X128.791 Y110.639 I-4.887 J.315 E.02345
G1 X109.374 Y91.222 E.99422
G2 X108.757 Y91.253 I-.075 J4.651 E.02239
G1 X128.75 Y111.247 E1.02376
G1 X128.71 Y111.855 E.02206
G1 X108.158 Y91.303 E1.05235
G2 X107.576 Y91.368 I.204 J4.43 E.02124
G1 X128.634 Y112.427 E1.0783
G1 X128.558 Y112.999 E.0209
G1 X107.012 Y91.453 E1.10327
G2 X106.457 Y91.546 I.427 J4.235 E.02039
G1 X128.455 Y113.544 E1.1264
G1 X128.347 Y114.084 E.01993
G1 X105.925 Y91.662 E1.14808
G2 X105.393 Y91.779 I.616 J4.087 E.01972
G1 X128.221 Y114.606 E1.16888
G1 X128.083 Y115.116 E.01913
G1 X104.89 Y91.924 E1.18756
G1 X104.387 Y92.069 E.01896
G1 X127.939 Y115.62 E1.20594
M73 P1 R35
G1 X127.773 Y116.103 E.01847
G1 X103.901 Y92.231 E1.22235
G1 X103.425 Y92.403 E.01833
G1 X127.607 Y116.586 E1.23824
G3 X127.421 Y117.048 I-3.583 J-1.173 E.01805
G1 X102.953 Y92.58 E1.25287
G1 X102.502 Y92.777 E.01781
G1 X127.23 Y117.505 E1.26614
G3 X127.032 Y117.955 I-3.496 J-1.271 E.01782
G1 X102.052 Y92.975 E1.27906
G2 X101.617 Y93.188 I1.391 J3.391 E.01755
G1 X126.816 Y118.387 E1.29029
G1 X126.6 Y118.819 E.0175
G1 X101.19 Y93.41 E1.30108
G2 X100.765 Y93.633 I1.47 J3.32 E.0174
G1 X126.368 Y119.235 E1.31095
G1 X126.128 Y119.644 E.01716
G1 X114.508 Y108.023 E.59504
G1 X114.345 Y107.652 E.01469
G1 X113.899 Y106.97 E.0295
G1 X113.347 Y106.37 E.0295
G1 X112.704 Y105.87 E.0295
G1 X111.955 Y105.471 E.03073
G1 X100.362 Y93.878 E.59362
G1 X99.958 Y94.123 E.01708
G1 X111.021 Y105.185 E.56643
G1 X110.413 Y105.083 E.0223
G1 X110.271 Y105.083 E.00514
G1 X99.565 Y94.377 E.54822
G1 X99.184 Y94.644 E.01685
G1 X109.623 Y105.083 E.53453
G1 X109.064 Y105.173 E.0205
G1 X98.803 Y94.911 E.52541
G2 X98.438 Y95.195 I1.959 J2.893 E.01674
G1 X108.546 Y105.303 E.51756
G1 X108.063 Y105.468 E.01847
G1 X98.079 Y95.484 E.51124
G2 X97.721 Y95.775 I2.012 J2.846 E.0167
G1 X107.638 Y105.691 E.50777
G1 X107.305 Y105.871 E.0137
G1 X107.229 Y105.931 E.00349
G1 X97.384 Y96.085 E.50412
G1 X97.046 Y96.396 E.01661
G1 X106.866 Y106.215 E.5028
G2 X106.524 Y106.522 I.768 J1.197 E.01669
G1 X96.716 Y96.714 E.50223
G1 X96.4 Y97.046 E.0166
G1 X106.214 Y106.86 E.5025
G2 X105.94 Y107.234 I.985 J1.008 E.01687
G1 X96.084 Y97.378 E.50466
G2 X95.781 Y97.724 I2.459 J2.456 E.01664
G1 X105.684 Y107.626 E.50703
G1 X105.482 Y108.073 E.01774
G1 X95.487 Y98.078 E.5118
G1 X95.192 Y98.431 E.01666
G1 X105.303 Y108.542 E.51771
G1 X105.172 Y109.059 E.01932
G1 X94.918 Y98.805 E.52504
G1 X94.645 Y99.181 E.0168
G1 X105.102 Y109.638 E.53543
G2 X105.095 Y110.279 I1.918 J.341 E.02333
G1 X94.378 Y99.562 E.54876
G1 X94.128 Y99.96 E.01702
G1 X105.48 Y111.311 E.58126
M106 S0
G1 E-.35 F2400
M106 S0
;WIPE_START
G1 F3600
M106 S0
G1 X104.772 Y110.604 E-.15
M106 S0
;WIPE_END
G1 X112.264 Y109.143 Z.6 F12000
M106 S0
G1 X114.536 Y108.7 Z.6
M106 S0
G1 Z.2
M106 S0
G1 E.5 F2400
M106 S0
G1 F3600
M106 S0
G1 X125.887 Y120.051 E.58122
G1 X125.626 Y120.438 E.0169
G1 X114.916 Y109.729 E.54836
G3 X114.909 Y110.369 I-1.886 J.298 E.0233
G1 X125.364 Y120.824 E.53535
G3 X125.093 Y121.202 I-2.969 J-1.848 E.01683
G1 X114.838 Y110.947 E.5251
G1 X114.707 Y111.464 E.01932
G1 X124.809 Y121.566 E.51727
G1 X124.525 Y121.93 E.01672
G1 X114.527 Y111.932 E.51195
G1 X114.323 Y112.377 E.01771
G1 X124.226 Y122.279 E.50705
G1 X123.921 Y122.622 E.01662
G1 X114.068 Y112.77 E.50448
G3 X113.794 Y113.144 I-1.236 J-.618 E.01687
G1 X123.615 Y122.965 E.50286
G1 X123.288 Y123.286 E.0166
G1 X113.484 Y113.482 E.50204
M73 P2 R35
G3 X113.143 Y113.789 I-1.091 J-.868 E.01669
