; HEADER_BLOCK_START
; generated by Creality_Print V5.1.0.9484 on 2024-07-15 at 07:31:10
; total layer number: 60
; filament_density: 1.24
; filament_diameter: 1.75
; max_z_height: 12.00
; HEADER_BLOCK_END

; MINX = 64.98
; MINY = 38.19
; MINZ = -0.00
; MAXX = 154.98
; MAXY = 181.76
; MAXZ = 12.00

; THUMBNAIL_BLOCK_START

;
; THUMBNAIL_BLOCK_END

; THUMBNAIL_BLOCK_START

;
; THUMBNAIL_BLOCK_END

; external perimeters extrusion width = 0.42mm
; perimeters extrusion width = 0.45mm
; infill extrusion width = 0.45mm
; solid infill extrusion width = 0.42mm
; top infill extrusion width = 0.42mm
; first layer extrusion width = 0.50mm

; EXECUTABLE_BLOCK_START
EXCLUDE_OBJECT_DEFINE NAME=base_01_cover_v39.stl_id_0_copy_0 CENTER=109.979,109.974 POLYGON=[[64.9793,38.1878],[154.979,38.1878],[154.979,181.76],[64.9793,181.76],[64.9793,38.1878]]
M73 P0 R63
M73 C50
M106 S0
M106 P2 S0
;TYPE:Custom
M140 S0
M104 S0 
START_PRINT EXTRUDER_TEMP=240 BED_TEMP=60
M141 S35;set chamber_temperature
G90
G21
M83 ; use relative distances for extrusion
; filament start gcode
M106 S0
M106 P2 S0
;LAYER_CHANGE
;Z:0.2
;HEIGHT:0.2
;BEFORE_LAYER_CHANGE
;0.2
G92 E0
M106 P2 S204
M106 S0

G1 E-.5 F2400
M106 S0
;AFTER_LAYER_CHANGE
;0.2
;_SET_FAN_SPEED_CHANGING_LAYER
SET_VELOCITY_LIMIT ACCEL=1000 ACCEL_TO_DECEL=1000
SET_VELOCITY_LIMIT SQUARE_CORNER_VELOCITY=20
G1 X62.458 Y36.746 F12000
M106 S0
M73 C49
G1 Z.4
M106 S0
G1 Z.2
M106 S0
G1 E.5 F2400
M106 S0
;TYPE:Skirt
;WIDTH:0.5
G1 F3000
M106 S0
G1 X63.532 Y35.679 E.05465
G1 X64.979 Y35.294 E.05409
G1 X154.979 Y35.294 E3.24954
G1 X156.441 Y35.687 E.05465
G1 X157.508 Y36.76 E.05465
G1 X157.893 Y38.208 E.05409
G1 X157.893 Y180.98 E5.15495
G1 X157.5 Y182.442 E.05465
G1 X156.427 Y183.509 E.05465
G1 X154.979 Y183.894 E.05409
G1 X64.979 Y183.894 E3.24954
G1 X63.518 Y183.501 E.05465
G1 X62.45 Y182.428 E.05465
G1 X62.065 Y180.98 E.05409
G1 X62.065 Y38.208 E5.15495
G1 X62.448 Y36.785 E.05321
M106 S0
G1 X62.902 Y36.918 F12000
M106 S0
G1 F3000
M106 S0
G1 X62.914 Y36.877 E.00157
G1 X63.965 Y35.97 E.0501
G1 X64.979 Y35.751 E.03748
G1 X154.979 Y35.751 E3.24954
G1 X156.31 Y36.143 E.0501
G1 X157.217 Y37.193 E.0501
G1 X157.436 Y38.208 E.03748
G1 X157.436 Y180.98 E5.15495
G1 X157.045 Y182.312 E.0501
G1 X155.994 Y183.218 E.0501
G1 X154.979 Y183.437 E.03748
G1 X64.979 Y183.437 E3.24954
G1 X63.648 Y183.046 E.0501
G1 X62.741 Y181.995 E.0501
G1 X62.522 Y180.98 E.03748
G1 X62.522 Y38.208 E5.15495
G1 X62.891 Y36.957 E.04709
M106 S0
; printing object base_01_cover v39.stl id:0 copy 0
G1 E-.35 F2400
M106 S0
;WIPE_START
G1 F3000
M106 S0
G1 X62.914 Y36.877 E-.01252
M106 S0
G1 X63.608 Y36.278 E-.13748
M106 S0
;WIPE_END
EXCLUDE_OBJECT_START NAME=base_01_cover_v39.stl_id_0_copy_0
G1 X67.653 Y42.75 Z.6 F12000
M106 S0
G1 X152.639 Y178.727 Z.6
M106 S0
M73 P0 R62
G1 Z.2
M106 S0
G1 E.5 F2400
M106 S0
;TYPE:Inner wall
M106 S0
G1 X152.442 Y178.938 E.0104
G1 X151.624 Y179.456 E.03497
G1 X150.703 Y179.756 E.03497
G1 X149.737 Y179.817 E.03497
G1 X148.785 Y179.635 E.03497
G1 X147.909 Y179.223 E.03497
G1 X147.163 Y178.605 E.03497
G1 X146.593 Y177.822 E.03497
G1 X146.237 Y176.921 E.03497
G1 X146.115 Y175.96 E.03497
G1 X146.237 Y174.999 E.03497
G1 X146.593 Y174.099 E.03497
G1 X147.163 Y173.315 E.03497
G1 X147.909 Y172.698 E.03497
G1 X148.785 Y172.286 E.03497
G1 X149.601 Y172.13 E.02997
G1 X149.737 Y172.104 E.005
G1 X150.703 Y172.165 E.03497
G1 X151.624 Y172.464 E.03497
G1 X152.442 Y172.983 E.03497
G1 X153.105 Y173.689 E.03497
G1 X153.505 Y174.417 E.02997
G1 X153.572 Y174.538 E.005
G1 X153.813 Y175.476 E.03497
G1 X153.813 Y176.445 E.03497
G1 X153.606 Y177.249 E.02998
G1 X153.572 Y177.383 E.005
G1 X153.105 Y178.231 E.03497
G1 X152.667 Y178.698 E.02312
M106 S0
G1 X152.649 Y178.05 F12000
M106 S0
;TYPE:Outer wall
G1 F2400
M106 S0
G1 X152.149 Y178.583 E.02637
G1 X151.428 Y179.04 E.0308
G1 X150.617 Y179.303 E.0308
G1 X149.766 Y179.357 E.0308
G1 X148.928 Y179.197 E.0308
G1 X148.156 Y178.834 E.0308
G1 X147.498 Y178.29 E.0308
G1 X146.997 Y177.6 E.0308
G1 X146.683 Y176.807 E.0308
G1 X146.576 Y175.96 E.0308
G1 X146.683 Y175.114 E.0308
G1 X146.997 Y174.321 E.0308
G1 X147.498 Y173.631 E.0308
G1 X148.156 Y173.087 E.0308
G1 X148.928 Y172.724 E.0308
G1 X149.686 Y172.579 E.02789
G1 X149.766 Y172.564 E.00291
G1 X150.617 Y172.617 E.0308
G1 X151.428 Y172.881 E.0308
G1 X152.149 Y173.338 E.0308
G1 X152.733 Y173.96 E.0308
G1 X153.105 Y174.637 E.02789
G1 X153.143 Y174.708 E.00291
G1 X153.356 Y175.534 E.0308
G1 X153.356 Y176.387 E.0308
G1 X153.164 Y177.135 E.02789
G1 X153.143 Y177.213 E.00291
G1 X152.733 Y177.961 E.0308
G1 X152.676 Y178.021 E.00299
M106 S0
G1 X153.657 Y178.311 F12000
M106 S0
;TYPE:Inner wall
G1 F2400
M106 S0
G1 X153.665 Y178.303 E.00042
G1 X153.665 Y179.666 E.04922
G1 X152.516 Y179.666 E.04149
G1 X152.459 Y179.468 E.00743
G1 X152.736 Y179.292 E.01186
G1 X153.63 Y178.341 E.04715
M106 S0
G1 E-.35
M106 S0
;WIPE_START
M106 S0
G1 X153.665 Y178.303 E-.00774
M106 S0
G1 X153.665 Y179.251 E-.14226
M106 S0
;WIPE_END
G1 X146.06 Y178.609 Z.6 F12000
M106 S0
G1 X69.52 Y172.145 Z.6
M106 S0
G1 Z.2
M106 S0
G1 E.5 F2400
M106 S0
M106 S0
G1 X69.601 Y172.13 E.00296
G1 X69.737 Y172.104 E.005
G1 X70.703 Y172.165 E.03497
G1 X71.624 Y172.464 E.03497
G1 X72.442 Y172.983 E.03497
G1 X73.105 Y173.689 E.03497
G1 X73.331 Y174.1 E.01694
G1 X73.572 Y174.538 E.01803
G1 X73.813 Y175.476 E.03497
G1 X73.813 Y176.445 E.03497
G1 X73.572 Y177.383 E.03497
G1 X73.105 Y178.231 E.03497
G1 X72.442 Y178.938 E.03497
G1 X71.624 Y179.456 E.03497
G1 X70.703 Y179.756 E.03497
G1 X69.737 Y179.817 E.03497
G1 X68.785 Y179.635 E.03497
G1 X67.909 Y179.223 E.03497
G1 X67.163 Y178.605 E.03497
G1 X66.593 Y177.822 E.03497
G1 X66.237 Y176.921 E.03497
G1 X66.115 Y175.96 E.03497
G1 X66.237 Y174.999 E.03497
G1 X66.593 Y174.099 E.03497
G1 X67.163 Y173.315 E.03497
G1 X67.909 Y172.698 E.03497
G1 X68.785 Y172.286 E.03497
G1 X69.481 Y172.153 E.02558
M106 S0
G1 X69.115 Y172.688 F12000
M106 S0
;TYPE:Outer wall
G1 F2400
M106 S0
G1 X69.686 Y172.579 E.02101
G1 X69.766 Y172.564 E.00291
G1 X70.617 Y172.617 E.0308
G1 X71.428 Y172.881 E.0308
G1 X72.149 Y173.338 E.0308
G1 X72.733 Y173.96 E.0308
G1 X72.931 Y174.321 E.01486
G1 X73.143 Y174.708 E.01594
G1 X73.356 Y175.534 E.0308
G1 X73.356 Y176.387 E.0308
G1 X73.143 Y177.213 E.0308
G1 X72.733 Y177.961 E.0308
G1 X72.149 Y178.583 E.0308
G1 X71.428 Y179.04 E.0308
G1 X70.617 Y179.303 E.0308
G1 X69.766 Y179.357 E.0308
G1 X68.928 Y179.197 E.0308
G1 X68.156 Y178.834 E.0308
G1 X67.498 Y178.29 E.0308
G1 X66.997 Y177.6 E.0308
G1 X66.683 Y176.807 E.0308
G1 X66.576 Y175.96 E.0308
G1 X66.683 Y175.114 E.0308
G1 X66.997 Y174.321 E.0308
G1 X67.498 Y173.631 E.0308
G1 X68.156 Y173.087 E.0308
G1 X68.928 Y172.724 E.0308
G1 X69.076 Y172.695 E.00544
M106 S0
G1 E-.35
M106 S0
;WIPE_START
M106 S0
G1 X69.686 Y172.579 E-.09328
M106 S0
G1 X69.766 Y172.564 E-.01209
M106 S0
G1 X70.063 Y172.583 E-.04463
M106 S0
;WIPE_END
G1 X66.514 Y178.491 Z.6 F12000
M106 S0
G1 Z.2
M106 S0
G1 E.5 F2400
M106 S0
;TYPE:Inner wall
M106 S0
G1 X66.827 Y178.921 E.01918
G1 X67.728 Y179.666 E.04222
G1 X66.293 Y179.666 E.05179
G1 X66.293 Y178.509 E.04178
G1 X66.483 Y178.447 E.00719
G1 X66.491 Y178.459 E.00049
M106 S0
G1 E-.35
M106 S0
;WIPE_START
M106 S0
G1 X66.827 Y178.921 E-.0857
M106 S0
G1 X67.157 Y179.194 E-.0643
M106 S0
;WIPE_END
G1 X67.148 Y171.562 Z.6 F12000
M106 S0
G1 X66.998 Y40.086 Z.6
M106 S0
G1 Z.2
M106 S0
G1 E.5 F2400
M106 S0
M106 S0
G1 X66.827 Y40.227 E.008
G1 X66.483 Y40.701 E.02112
G1 X66.293 Y40.639 E.00719
G1 X66.293 Y39.522 E.04034
G1 X67.68 Y39.522 E.05005
G1 X67.028 Y40.061 E.03051
M106 S0
G1 E-.35
M106 S0
;WIPE_START
M106 S0
G1 X66.827 Y40.227 E-.03925
M106 S0
G1 X66.483 Y40.701 E-.08775
M106 S0
G1 X66.337 Y40.653 E-.023
M106 S0
;WIPE_END
G1 X72.899 Y44.551 Z.6 F12000
M106 S0
G1 X73.431 Y44.867 Z.6
M106 S0
G1 Z.2
M106 S0
G1 E.5 F2400
M106 S0
M106 S0
G1 X73.105 Y45.459 E.0244
G1 X72.442 Y46.165 E.03497
G1 X71.624 Y46.684 E.03497
G1 X70.703 Y46.983 E.03497
G1 X69.737 Y47.044 E.03497
G1 X68.785 Y46.863 E.03497
G1 X67.909 Y46.45 E.03497
G1 X67.163 Y45.833 E.03497
G1 X66.593 Y45.049 E.03497
G1 X66.237 Y44.149 E.03497
G1 X66.115 Y43.188 E.03497
G1 X66.237 Y42.227 E.03497
G1 X66.593 Y41.326 E.03497
G1 X67.163 Y40.543 E.03497
G1 X67.909 Y39.925 E.03497
G1 X68.785 Y39.513 E.03497
G1 X69.601 Y39.357 E.02998
G1 X69.737 Y39.332 E.005
G1 X70.703 Y39.392 E.03497
G1 X71.624 Y39.692 E.03497
G1 X72.442 Y40.211 E.03497
G1 X73.105 Y40.917 E.03497
G1 X73.572 Y41.765 E.03497
G1 X73.813 Y42.704 E.03497
G1 X73.813 Y43.672 E.03497
G1 X73.572 Y44.61 E.03497
G1 X73.45 Y44.832 E.00912
M106 S0
G1 X73.181 Y44.296 F12000
M106 S0
;TYPE:Outer wall
G1 F2400
M106 S0
G1 X73.143 Y44.441 E.0054
G1 X72.733 Y45.188 E.0308
G1 X72.149 Y45.81 E.0308
G1 X71.428 Y46.267 E.0308
G1 X70.617 Y46.531 E.0308
G1 X69.766 Y46.584 E.0308
G1 X68.928 Y46.424 E.0308
G1 X68.156 Y46.061 E.0308
G1 X67.498 Y45.517 E.0308
G1 X66.997 Y44.827 E.0308
G1 X66.683 Y44.034 E.0308
G1 X66.576 Y43.188 E.0308
G1 X66.683 Y42.341 E.0308
G1 X66.997 Y41.548 E.0308
G1 X67.498 Y40.858 E.0308
G1 X68.156 Y40.314 E.0308
G1 X68.928 Y39.951 E.0308
G1 X69.686 Y39.806 E.02789
G1 X69.766 Y39.791 E.00291
G1 X70.617 Y39.845 E.0308
G1 X71.428 Y40.108 E.0308
G1 X72.149 Y40.566 E.0308
G1 X72.733 Y41.187 E.0308
G1 X73.143 Y41.935 E.0308
G1 X73.356 Y42.761 E.0308
G1 X73.356 Y43.614 E.0308
G1 X73.191 Y44.257 E.02395
M106 S0
G1 E-.35
M106 S0
;WIPE_START
M106 S0
G1 X73.143 Y44.441 E-.02845
M106 S0
G1 X72.753 Y45.151 E-.12155
M106 S0
;WIPE_END
G1 X75.979 Y52.068 Z.6 F12000
M106 S0
G1 X116.672 Y139.324 Z.6
M106 S0
G1 Z.2
M106 S0
G1 E.5 F2400
M106 S0
;TYPE:Inner wall
M106 S0
G1 X116.404 Y139.897 E.02286
G1 X115.663 Y140.957 E.04669
G1 X114.748 Y141.871 E.04669
G1 X113.689 Y142.613 E.04669
G1 X112.517 Y143.16 E.04669
G1 X111.268 Y143.494 E.04669
G1 X109.979 Y143.607 E.04669
G1 X108.691 Y143.494 E.04669
G1 X107.442 Y143.16 E.04669
G1 X106.27 Y142.613 E.04669
G1 X105.21 Y141.871 E.04669
G1 X104.296 Y140.957 E.04669
G1 X103.554 Y139.897 E.04669
G1 X103.008 Y138.725 E.04669
G1 X102.673 Y137.476 E.04669
G1 X102.56 Y136.188 E.04669
G1 X102.673 Y134.899 E.04669
G1 X103.008 Y133.65 E.04669
G1 X103.554 Y132.478 E.04669
G1 X104.296 Y131.419 E.04669
G1 X105.21 Y130.504 E.04669
G1 X106.27 Y129.763 E.04669
G1 X107.442 Y129.216 E.04669
G1 X108.691 Y128.881 E.04669
G1 X109.838 Y128.781 E.04158
G1 X109.979 Y128.769 E.00511
G1 X111.268 Y128.881 E.04669
G1 X112.517 Y129.216 E.04669
G1 X113.689 Y129.763 E.04669
G1 X114.748 Y130.504 E.04669
G1 X115.663 Y131.419 E.04669
G1 X116.404 Y132.478 E.04669
G1 X116.951 Y133.65 E.04669
G1 X117.286 Y134.899 E.04669
G1 X117.398 Y136.188 E.04669
G1 X117.286 Y137.476 E.04669
G1 X116.951 Y138.725 E.04669
G1 X116.689 Y139.287 E.02239
M106 S0
G1 X116.286 Y139.07 F12000
M106 S0
G1 F2400
M106 S0
G1 X116.007 Y139.668 E.02382
G1 X115.311 Y140.662 E.04381
G1 X114.453 Y141.52 E.04381
G1 X113.459 Y142.216 E.04381
G1 X112.36 Y142.728 E.04381
G1 X111.188 Y143.042 E.04381
G1 X109.979 Y143.148 E.04381
G1 X108.771 Y143.042 E.04381
G1 X107.599 Y142.728 E.04381
G1 X106.499 Y142.216 E.04381
G1 X105.505 Y141.52 E.04381
G1 X104.647 Y140.662 E.04381
G1 X103.951 Y139.668 E.04381
G1 X103.439 Y138.568 E.04381
G1 X103.125 Y137.396 E.04381
G1 X103.019 Y136.188 E.04381
G1 X103.125 Y134.979 E.04381
G1 X103.439 Y133.807 E.04381
G1 X103.951 Y132.708 E.04381
G1 X104.647 Y131.714 E.04381
G1 X105.505 Y130.856 E.04381
G1 X106.499 Y130.16 E.04381
G1 X107.599 Y129.647 E.04381
G1 X108.771 Y129.333 E.04381
G1 X109.878 Y129.236 E.04014
G1 X109.979 Y129.227 E.00367
G1 X111.188 Y129.333 E.04381
G1 X112.36 Y129.647 E.04381
G1 X113.459 Y130.16 E.04381
G1 X114.453 Y130.856 E.04381
G1 X115.311 Y131.714 E.04381
G1 X116.007 Y132.708 E.04381
G1 X116.52 Y133.807 E.04381
G1 X116.834 Y134.979 E.04381
G1 X116.94 Y136.188 E.04381
G1 X116.834 Y137.396 E.04381
G1 X116.52 Y138.568 E.04381
G1 X116.303 Y139.034 E.01855
M106 S0
G1 X116.083 Y138.424 F12000
M106 S0
;TYPE:Outer wall
G1 F2400
M106 S0
G1 X115.61 Y139.439 E.04043
G1 X114.96 Y140.367 E.04092
G1 X114.158 Y141.168 E.04092
G1 X113.23 Y141.818 E.04092
G1 X112.203 Y142.297 E.04092
G1 X111.108 Y142.591 E.04092
G1 X109.979 Y142.689 E.04092
G1 X108.85 Y142.591 E.04092
G1 X107.756 Y142.297 E.04092
G1 X106.729 Y141.818 E.04092
G1 X105.8 Y141.168 E.04092
G1 X104.999 Y140.367 E.04092
G1 X104.349 Y139.439 E.04092
G1 X103.87 Y138.411 E.04092
G1 X103.577 Y137.317 E.04092
G1 X103.478 Y136.188 E.04092
G1 X103.577 Y135.059 E.04092
G1 X103.87 Y133.964 E.04092
G1 X104.349 Y132.937 E.04092
G1 X104.999 Y132.009 E.04092
G1 X105.8 Y131.207 E.04092
G1 X106.729 Y130.557 E.04092
G1 X107.756 Y130.078 E.04092
G1 X108.85 Y129.785 E.04092
G1 X109.918 Y129.692 E.0387
G1 X111.108 Y129.785 E.04311
G1 X112.203 Y130.078 E.04092
G1 X113.23 Y130.557 E.04092
G1 X114.158 Y131.207 E.04092
G1 X114.96 Y132.009 E.04092
G1 X115.61 Y132.937 E.04092
G1 X116.089 Y133.964 E.04092
G1 X116.382 Y135.059 E.04092
G1 X116.481 Y136.188 E.04092
G1 X116.382 Y137.317 E.04092
G1 X116.096 Y138.386 E.03997
M106 S0
G1 E-.35
M106 S0
;WIPE_START
M106 S0
G1 X115.677 Y139.294 E-.15
M106 S0
;WIPE_END
G1 X119.632 Y132.766 Z.6 F12000
M106 S0
G1 X141.379 Y96.874 Z.6
M106 S0
G1 Z.2
M106 S0
G1 E.5 F2400
M106 S0
;TYPE:Inner wall
M106 S0
G1 X141.793 Y96.874 E.01495
G1 X141.793 Y113.902 E.61482
G1 X78.165 Y113.902 E2.29736
G1 X78.165 Y96.874 E.61482
G1 X141.339 Y96.874 E2.28097
M106 S0
G1 X141.336 Y97.374 F12000
M106 S0
G1 F2400
M106 S0
G1 X141.336 Y113.445 E.58027
G1 X78.622 Y113.445 E2.26436
M73 P1 R62
G1 X78.622 Y97.331 E.58182
G1 X141.336 Y97.331 E2.26436
G1 X141.336 Y97.334 E.00011
M106 S0
G1 X140.879 Y97.788 F12000
M106 S0
;TYPE:Outer wall
G1 F2400
M106 S0
G1 X140.879 Y112.988 E.54881
G1 X79.079 Y112.988 E2.23135
G1 X79.079 Y97.788 E.54881
G1 X140.839 Y97.788 E2.22991
M106 S0
G1 E-.35
M106 S0
;WIPE_START
M106 S0
G1 X140.842 Y98.788 E-.15
M106 S0
;WIPE_END
G1 X133.9 Y95.615 Z.6 F12000
M106 S0
G1 X79.135 Y70.583 Z.6
M106 S0
G1 Z.2
M106 S0
G1 E.5 F2400
M106 S0
;TYPE:Inner wall
M106 S0
G1 X78.682 Y70.543 E.01641
G1 X77.425 Y70.207 E.04701
G1 X76.245 Y69.656 E.04701
G1 X75.294 Y68.991 E.04189
G1 X75.178 Y68.909 E.00512
G1 X74.258 Y67.989 E.04701
G1 X73.511 Y66.922 E.04701
G1 X72.961 Y65.742 E.04701
G1 X72.624 Y64.485 E.04701
G1 X72.51 Y63.188 E.04701
G1 X72.624 Y61.891 E.04701
G1 X72.961 Y60.633 E.04701
G1 X73.511 Y59.453 E.04701
G1 X74.258 Y58.387 E.04701
G1 X75.178 Y57.466 E.04701
G1 X76.245 Y56.719 E.04701
G1 X77.425 Y56.169 E.04701
G1 X78.682 Y55.832 E.04701
G1 X79.838 Y55.731 E.04189
G1 X79.979 Y55.719 E.00512
G1 X81.276 Y55.832 E.04701
G1 X82.534 Y56.169 E.04701
G1 X83.714 Y56.719 E.04701
G1 X84.78 Y57.466 E.04701
G1 X85.701 Y58.387 E.04701
G1 X86.448 Y59.453 E.04701
G1 X86.998 Y60.633 E.04701
G1 X87.335 Y61.891 E.04701
G1 X87.448 Y63.188 E.04701
G1 X87.335 Y64.485 E.04701
G1 X86.998 Y65.742 E.04701
G1 X86.448 Y66.922 E.04701
G1 X85.701 Y67.989 E.04701
G1 X84.78 Y68.91 E.04701
G1 X83.714 Y69.656 E.04701
G1 X82.534 Y70.207 E.04701
G1 X81.276 Y70.543 E.04701
G1 X79.979 Y70.657 E.04701
G1 X79.175 Y70.587 E.02915
M106 S0
G1 X79.535 Y70.159 F12000
M106 S0
G1 F2400
M106 S0
G1 X78.762 Y70.092 E.028
G1 X77.582 Y69.775 E.04412
G1 X76.474 Y69.259 E.04412
G1 X75.556 Y68.616 E.04045
G1 X75.473 Y68.558 E.00368
G1 X74.609 Y67.694 E.04412
G1 X73.908 Y66.693 E.04412
G1 X73.392 Y65.585 E.04412
G1 X73.075 Y64.405 E.04412
G1 X72.969 Y63.188 E.04412
G1 X73.075 Y61.97 E.04412
G1 X73.392 Y60.79 E.04412
G1 X73.908 Y59.683 E.04412
G1 X74.609 Y58.682 E.04412
G1 X75.473 Y57.818 E.04412
G1 X76.474 Y57.117 E.04412
G1 X77.582 Y56.6 E.04412
G1 X78.762 Y56.284 E.04412
G1 X79.878 Y56.186 E.04045
G1 X79.979 Y56.177 E.00367
G1 X81.197 Y56.284 E.04412
G1 X82.377 Y56.6 E.04412
G1 X83.484 Y57.117 E.04412
G1 X84.485 Y57.818 E.04412
G1 X85.35 Y58.682 E.04412
G1 X86.05 Y59.683 E.04412
G1 X86.567 Y60.79 E.04412
G1 X86.883 Y61.97 E.04412
G1 X86.99 Y63.188 E.04412
G1 X86.883 Y64.405 E.04412
G1 X86.567 Y65.585 E.04412
G1 X86.241 Y66.285 E.02787
G1 X86.05 Y66.693 E.01625
G1 X85.35 Y67.694 E.04412
G1 X84.485 Y68.558 E.04412
G1 X83.484 Y69.259 E.04412
G1 X82.377 Y69.775 E.04412
