; HEADER_BLOCK_START
; generated by Creality_Print V5.1.0.9484 on 2024-07-15 at 10:27:09
; total layer number: 25
; filament_density: 1.24
; filament_diameter: 1.75
; max_z_height: 5.00
; HEADER_BLOCK_END

; MINX = 77.00
; MINY = 89.80
; MINZ = -0.00
; MAXX = 143.00
; MAXY = 130.20
; MAXZ = 5.00

; THUMBNAIL_BLOCK_START

;
; THUMBNAIL_BLOCK_END

; THUMBNAIL_BLOCK_START

;
; THUMBNAIL_BLOCK_END

; external perimeters extrusion width = 0.42mm
; perimeters extrusion width = 0.45mm
; infill extrusion width = 0.45mm
; solid infill extrusion width = 0.42mm
; top infill extrusion width = 0.42mm
; support material extrusion width = 0.42mm
; first layer extrusion width = 0.50mm

; EXECUTABLE_BLOCK_START
EXCLUDE_OBJECT_DEFINE NAME=base_01_display_support_v43.stl_id_0_copy_0 CENTER=110,110 POLYGON=[[77,89.8],[143,89.8],[143,130.2],[77,130.2],[77,89.8]]
M73 P0 R12
M106 S0
M106 P2 S0
;TYPE:Custom
M140 S0
M104 S0 
START_PRINT EXTRUDER_TEMP=240 BED_TEMP=60
M141 S35;set chamber_temperature
G90
G21
M83 ; use relative distances for extrusion
; filament start gcode
M106 S0
M106 P2 S0
;LAYER_CHANGE
;Z:0.2
;HEIGHT:0.2
;BEFORE_LAYER_CHANGE
;0.2
G92 E0
M106 P2 S204
M106 S0

G1 E-.5 F2400
M106 S0
;AFTER_LAYER_CHANGE
;0.2
;_SET_FAN_SPEED_CHANGING_LAYER
SET_VELOCITY_LIMIT ACCEL=1000 ACCEL_TO_DECEL=1000
SET_VELOCITY_LIMIT SQUARE_CORNER_VELOCITY=20
G1 X75.552 Y87.271 F12000
M106 S0
G1 Z.4
M106 S0
G1 Z.2
M106 S0
G1 E.5 F2400
M106 S0
;TYPE:Skirt
;WIDTH:0.5
G1 F3000
M106 S0
G1 X77 Y86.886 E.05409
G1 X143 Y86.886 E2.383
G1 X144.462 Y87.279 E.05465
G1 X145.529 Y88.352 E.05465
G1 X145.914 Y89.8 E.05409
G1 X145.914 Y130.2 E1.45868
G1 X145.521 Y131.662 E.05465
G1 X144.448 Y132.729 E.05465
G1 X143 Y133.114 E.05409
G1 X77 Y133.114 E2.383
G1 X75.538 Y132.721 E.05465
G1 X74.471 Y131.648 E.05465
G1 X74.086 Y130.2 E.05409
G1 X74.086 Y89.8 E1.45868
G1 X74.479 Y88.338 E.05465
G1 X75.524 Y87.299 E.05321
M106 S0
G1 X75.851 Y87.678 F12000
M106 S0
G1 F3000
M106 S0
G1 X75.985 Y87.562 E.00641
G1 X77 Y87.343 E.03748
G1 X143 Y87.343 E2.383
G1 X144.331 Y87.735 E.0501
G1 X145.238 Y88.785 E.0501
G1 X145.457 Y89.8 E.03748
G1 X145.457 Y130.2 E1.45868
M73 P1 R12
G1 X145.065 Y131.531 E.0501
G1 X144.015 Y132.438 E.0501
G1 X143 Y132.657 E.03748
G1 X77 Y132.657 E2.383
G1 X75.669 Y132.265 E.0501
G1 X74.762 Y131.215 E.0501
G1 X74.543 Y130.2 E.03748
G1 X74.543 Y89.8 E1.45868
G1 X74.935 Y88.469 E.0501
G1 X75.821 Y87.704 E.04225
M106 S0
; printing object base_01_display_support v43.stl id:0 copy 0
G1 E-.35 F2400
M106 S0
;WIPE_START
G1 F3000
M106 S0
G1 X75.985 Y87.562 E-.03261
M106 S0
G1 X76.75 Y87.397 E-.11739
M106 S0
;WIPE_END
EXCLUDE_OBJECT_START NAME=base_01_display_support_v43.stl_id_0_copy_0
G1 X81.765 Y93.151 Z.6 F12000
M106 S0
G1 X107.44 Y122.608 Z.6
M106 S0
G1 Z.2
M106 S0
G1 E.5 F2400
M106 S0
;TYPE:Inner wall
M106 S0
G1 X107.861 Y122.061 E.02493
G1 X108.487 Y121.58 E.02852
G1 X109.217 Y121.278 E.02852
G1 X109.817 Y121.199 E.02187
G1 X110 Y121.175 E.00665
G1 X110.783 Y121.278 E.02852
G1 X111.513 Y121.58 E.02852
G1 X112.139 Y122.061 E.02852
G1 X112.62 Y122.687 E.02852
G1 X112.922 Y123.417 E.02852
G1 X113.026 Y124.2 E.02852
G1 X112.922 Y124.983 E.02852
G1 X112.62 Y125.713 E.02852
G1 X112.139 Y126.339 E.02852
G1 X111.513 Y126.82 E.02852
G1 X110.783 Y127.122 E.02852
G1 X110 Y127.226 E.02852
G1 X109.217 Y127.122 E.02852
G1 X108.487 Y126.82 E.02852
G1 X107.861 Y126.339 E.02852
G1 X107.38 Y125.713 E.02852
G1 X107.078 Y124.983 E.02852
G1 X106.975 Y124.2 E.02852
G1 X107.078 Y123.417 E.02852
G1 X107.38 Y122.687 E.02852
G1 X107.416 Y122.64 E.00214
M106 S0
G1 X107.745 Y123 F12000
M106 S0
G1 F2400
M106 S0
G1 X107.779 Y122.918 E.00322
G1 X108.187 Y122.387 E.02417
G1 X108.718 Y121.979 E.02417
G1 X109.336 Y121.723 E.02417
G1 X109.877 Y121.652 E.0197
G1 X110 Y121.636 E.00447
G1 X110.664 Y121.723 E.02417
G1 X111.282 Y121.979 E.02417
G1 X111.813 Y122.387 E.02417
G1 X112.221 Y122.918 E.02417
G1 X112.477 Y123.536 E.02417
G1 X112.564 Y124.2 E.02417
G1 X112.477 Y124.864 E.02417
G1 X112.221 Y125.482 E.02417
G1 X111.813 Y126.013 E.02417
G1 X111.282 Y126.421 E.02417
G1 X110.664 Y126.677 E.02417
G1 X110 Y126.764 E.02417
G1 X109.336 Y126.677 E.02417
G1 X108.718 Y126.421 E.02417
G1 X108.187 Y126.013 E.02417
G1 X107.779 Y125.482 E.02417
G1 X107.523 Y124.864 E.02417
G1 X107.436 Y124.2 E.02417
G1 X107.523 Y123.536 E.02417
G1 X107.73 Y123.037 E.01951
M106 S0
G1 X107.976 Y123.637 F12000
M106 S0
;TYPE:Outer wall
G1 F2400
M106 S0
G1 X108.178 Y123.148 E.0191
G1 X108.513 Y122.713 E.01983
G1 X108.948 Y122.378 E.01983
G1 X109.456 Y122.168 E.01983
G1 X109.937 Y122.105 E.01752
G1 X110 Y122.097 E.0023
G1 X110.544 Y122.168 E.01983
G1 X111.052 Y122.378 E.01983
G1 X111.487 Y122.713 E.01983
G1 X111.822 Y123.148 E.01983
G1 X112.032 Y123.656 E.01983
G1 X112.103 Y124.2 E.01983
G1 X112.032 Y124.744 E.01983
G1 X111.822 Y125.252 E.01983
G1 X111.487 Y125.687 E.01983
G1 X111.052 Y126.022 E.01983
G1 X110.544 Y126.232 E.01983
G1 X110 Y126.303 E.01983
G1 X109.456 Y126.232 E.01983
G1 X108.948 Y126.022 E.01983
G1 X108.513 Y125.687 E.01983
G1 X108.178 Y125.252 E.01983
G1 X107.968 Y124.744 E.01983
G1 X107.897 Y124.2 E.01983
G1 X107.966 Y123.675 E.01911
M106 S0
G1 E-.35
M106 S0
;WIPE_START
M106 S0
G1 X108.178 Y123.148 E-.08524
M106 S0
G1 X108.441 Y122.806 E-.06476
M106 S0
;WIPE_END
G1 X116.057 Y123.315 Z.6 F12000
M106 S0
G1 X131.998 Y124.38 Z.6
M106 S0
G1 Z.2
M106 S0
G1 E.5 F2400
M106 S0
;TYPE:Inner wall
M106 S0
G1 X131.975 Y124.2 E.00656
G1 X132.078 Y123.417 E.02852
G1 X132.38 Y122.687 E.02852
G1 X132.861 Y122.061 E.02852
G1 X133.487 Y121.58 E.02852
G1 X134.217 Y121.278 E.02852
G1 X134.817 Y121.199 E.02187
G1 X135 Y121.175 E.00665
G1 X135.783 Y121.278 E.02852
G1 X136.513 Y121.58 E.02852
G1 X137.139 Y122.061 E.02852
G1 X137.62 Y122.687 E.02852
G1 X137.922 Y123.417 E.02852
G1 X138.025 Y124.2 E.02852
G1 X137.922 Y124.983 E.02852
G1 X137.62 Y125.713 E.02852
G1 X137.139 Y126.339 E.02852
G1 X136.513 Y126.82 E.02852
G1 X135.783 Y127.122 E.02852
G1 X135 Y127.226 E.02852
G1 X134.217 Y127.122 E.02852
G1 X133.487 Y126.82 E.02852
G1 X132.861 Y126.339 E.02852
G1 X132.38 Y125.713 E.02852
G1 X132.148 Y125.153 E.02187
G1 X132.078 Y124.983 E.00665
G1 X132.003 Y124.42 E.02051
M106 S0
G1 X132.468 Y124.448 F12000
M106 S0
G1 F2400
M106 S0
G1 X132.436 Y124.2 E.00902
G1 X132.523 Y123.536 E.02417
G1 X132.779 Y122.918 E.02417
G1 X133.187 Y122.387 E.02417
G1 X133.718 Y121.979 E.02417
G1 X134.336 Y121.723 E.02417
G1 X134.877 Y121.652 E.0197
G1 X135 Y121.636 E.00447
G1 X135.664 Y121.723 E.02417
G1 X136.282 Y121.979 E.02417
G1 X136.813 Y122.387 E.02417
G1 X137.221 Y122.918 E.02417
G1 X137.477 Y123.536 E.02417
G1 X137.564 Y124.2 E.02417
G1 X137.477 Y124.864 E.02417
G1 X137.221 Y125.482 E.02417
G1 X136.813 Y126.013 E.02417
G1 X136.282 Y126.421 E.02417
G1 X135.664 Y126.677 E.02417
G1 X135 Y126.764 E.02417
G1 X134.336 Y126.677 E.02417
G1 X133.718 Y126.421 E.02417
G1 X133.187 Y126.013 E.02417
G1 X132.779 Y125.482 E.02417
G1 X132.57 Y124.978 E.0197
G1 X132.523 Y124.864 E.00447
G1 X132.473 Y124.487 E.01371
M106 S0
G1 X132.976 Y124.763 F12000
M106 S0
;TYPE:Outer wall
G1 F2400
M106 S0
G1 X132.968 Y124.744 E.00073
G1 X132.897 Y124.2 E.01983
G1 X132.968 Y123.656 E.01983
G1 X133.178 Y123.148 E.01983
G1 X133.513 Y122.713 E.01983
G1 X133.948 Y122.378 E.01983
G1 X134.456 Y122.168 E.01983
G1 X134.937 Y122.105 E.01752
G1 X135 Y122.097 E.0023
G1 X135.544 Y122.168 E.01983
G1 X136.052 Y122.378 E.01983
G1 X136.487 Y122.713 E.01983
G1 X136.822 Y123.148 E.01983
G1 X137.032 Y123.656 E.01983
G1 X137.103 Y124.2 E.01983
G1 X137.032 Y124.744 E.01983
G1 X136.822 Y125.252 E.01983
G1 X136.487 Y125.687 E.01983
G1 X136.052 Y126.022 E.01983
G1 X135.544 Y126.232 E.01983
G1 X135 Y126.303 E.01983
G1 X134.456 Y126.232 E.01983
G1 X133.948 Y126.022 E.01983
G1 X133.513 Y125.687 E.01983
G1 X133.178 Y125.252 E.01983
G1 X132.993 Y124.803 E.01753
G1 X132.991 Y124.8 E.00013
M106 S0
G1 E-.35
M106 S0
;WIPE_START
M106 S0
G1 X132.968 Y124.744 E-.00903
M106 S0
G1 X132.897 Y124.2 E-.08236
M106 S0
G1 X132.948 Y123.813 E-.0586
M106 S0
;WIPE_END
G1 X134.294 Y116.3 Z.6 F12000
M106 S0
G1 X138.002 Y95.62 Z.6
M106 S0
G1 Z.2
M106 S0
G1 E.5 F2400
M106 S0
;TYPE:Inner wall
M106 S0
G1 X138.025 Y95.8 E.00656
G1 X137.922 Y96.583 E.02852
G1 X137.691 Y97.143 E.02187
G1 X137.62 Y97.313 E.00665
G1 X137.139 Y97.939 E.02852
G1 X136.513 Y98.42 E.02852
G1 X135.783 Y98.722 E.02852
G1 X135 Y98.826 E.02852
G1 X134.217 Y98.722 E.02852
G1 X133.487 Y98.42 E.02852
G1 X132.861 Y97.939 E.02852
G1 X132.38 Y97.313 E.02852
G1 X132.148 Y96.753 E.02187
G1 X132.078 Y96.583 E.00665
G1 X131.975 Y95.8 E.02851
G1 X132.078 Y95.017 E.02852
G1 X132.38 Y94.287 E.02852
G1 X132.861 Y93.661 E.02852
G1 X133.487 Y93.18 E.02852
G1 X134.217 Y92.878 E.02852
G1 X134.817 Y92.799 E.02187
G1 X135 Y92.775 E.00665
G1 X135.783 Y92.878 E.02852
G1 X136.513 Y93.18 E.02852
G1 X137.139 Y93.661 E.02852
G1 X137.62 Y94.287 E.02852
G1 X137.922 Y95.017 E.02852
G1 X137.997 Y95.58 E.02051
M106 S0
G1 X137.532 Y95.552 F12000
M106 S0
G1 F2400
M106 S0
G1 X137.564 Y95.8 E.00902
G1 X137.477 Y96.464 E.02417
G1 X137.268 Y96.968 E.0197
G1 X137.221 Y97.082 E.00447
G1 X136.813 Y97.613 E.02417
G1 X136.282 Y98.021 E.02417
G1 X135.664 Y98.277 E.02417
G1 X135 Y98.364 E.02417
G1 X134.336 Y98.277 E.02417
G1 X133.718 Y98.021 E.02417
G1 X133.187 Y97.613 E.02417
G1 X132.779 Y97.082 E.02417
G1 X132.57 Y96.578 E.0197
G1 X132.523 Y96.464 E.00447
G1 X132.436 Y95.8 E.02417
G1 X132.523 Y95.136 E.02417
G1 X132.779 Y94.518 E.02417
G1 X133.187 Y93.987 E.02417
G1 X133.718 Y93.579 E.02417
G1 X134.336 Y93.323 E.02417
G1 X134.877 Y93.252 E.0197
G1 X135 Y93.236 E.00447
G1 X135.664 Y93.323 E.02417
G1 X136.282 Y93.579 E.02417
G1 X136.813 Y93.987 E.02417
G1 X137.221 Y94.518 E.02417
G1 X137.477 Y95.136 E.02417
G1 X137.527 Y95.513 E.01371
M106 S0
G1 X137.024 Y95.237 F12000
M106 S0
;TYPE:Outer wall
G1 F2400
M106 S0
G1 X137.032 Y95.256 E.00073
G1 X137.103 Y95.8 E.01983
G1 X137.032 Y96.344 E.01983
G1 X136.846 Y96.793 E.01752
G1 X136.822 Y96.852 E.0023
G1 X136.487 Y97.287 E.01983
G1 X136.052 Y97.622 E.01983
G1 X135.544 Y97.832 E.01983
G1 X135 Y97.903 E.01983
G1 X134.456 Y97.832 E.01983
G1 X133.948 Y97.622 E.01983
G1 X133.513 Y97.287 E.01983
G1 X133.178 Y96.852 E.01983
G1 X132.993 Y96.403 E.01753
G1 X132.968 Y96.344 E.0023
G1 X132.897 Y95.8 E.01983
G1 X132.968 Y95.256 E.01983
G1 X133.178 Y94.748 E.01983
G1 X133.513 Y94.313 E.01983
G1 X133.948 Y93.978 E.01983
G1 X134.456 Y93.768 E.01983
G1 X134.937 Y93.705 E.01752
G1 X135 Y93.697 E.0023
G1 X135.544 Y93.768 E.01983
G1 X136.052 Y93.978 E.01983
G1 X136.487 Y94.313 E.01983
G1 X136.822 Y94.748 E.01983
G1 X137.009 Y95.2 E.01765
M106 S0
G1 E-.35
M106 S0
;WIPE_START
M106 S0
G1 X137.032 Y95.256 E-.00903
M106 S0
G1 X137.103 Y95.8 E-.08237
M106 S0
M73 P2 R12
G1 X137.052 Y96.187 E-.0586
M106 S0
;WIPE_END
G1 X129.474 Y95.28 Z.6 F12000
M106 S0
G1 X109.315 Y92.865 Z.6
M106 S0
G1 Z.2
M106 S0
G1 E.5 F2400
M106 S0
;TYPE:Inner wall
M106 S0
G1 X109.817 Y92.799 E.01828
G1 X110 Y92.775 E.00665
G1 X110.783 Y92.878 E.02852
G1 X111.513 Y93.18 E.02852
G1 X112.139 Y93.661 E.02852
G1 X112.62 Y94.287 E.02852
G1 X112.922 Y95.017 E.02852
G1 X113.026 Y95.8 E.02852
G1 X112.922 Y96.583 E.02852
G1 X112.691 Y97.143 E.02187
G1 X112.62 Y97.313 E.00665
G1 X112.139 Y97.939 E.02852
G1 X111.513 Y98.42 E.02852
G1 X110.783 Y98.722 E.02852
G1 X110 Y98.826 E.02852
G1 X109.217 Y98.722 E.02852
G1 X108.657 Y98.491 E.02187
G1 X108.487 Y98.42 E.00665
G1 X107.861 Y97.939 E.02852
G1 X107.38 Y97.313 E.02852
G1 X107.078 Y96.583 E.02852
G1 X106.975 Y95.8 E.02852
G1 X107.078 Y95.017 E.02852
G1 X107.38 Y94.287 E.02852
G1 X107.861 Y93.661 E.02852
G1 X108.487 Y93.18 E.02852
G1 X109.217 Y92.878 E.02852
G1 X109.276 Y92.87 E.00214
M106 S0
G1 X109.254 Y93.357 F12000
M106 S0
G1 F2400
M106 S0
G1 X109.336 Y93.323 E.00322
G1 X109.877 Y93.252 E.0197
G1 X110 Y93.236 E.00447
G1 X110.664 Y93.323 E.02417
G1 X111.282 Y93.579 E.02417
G1 X111.813 Y93.987 E.02417
G1 X112.221 Y94.518 E.02417
G1 X112.477 Y95.136 E.02417
G1 X112.564 Y95.8 E.02417
G1 X112.477 Y96.464 E.02417
G1 X112.268 Y96.968 E.0197
G1 X112.221 Y97.082 E.00447
G1 X111.813 Y97.613 E.02417
G1 X111.282 Y98.021 E.02417
G1 X110.664 Y98.277 E.02417
G1 X110 Y98.364 E.02417
G1 X109.336 Y98.277 E.02417
G1 X108.832 Y98.068 E.0197
G1 X108.718 Y98.021 E.00447
G1 X108.187 Y97.613 E.02417
G1 X107.779 Y97.082 E.02417
G1 X107.523 Y96.464 E.02417
G1 X107.436 Y95.8 E.02417
G1 X107.523 Y95.136 E.02417
G1 X107.779 Y94.518 E.02417
G1 X108.187 Y93.987 E.02417
G1 X108.718 Y93.579 E.02417
G1 X109.217 Y93.372 E.01951
M106 S0
G1 X108.967 Y93.971 F12000
M106 S0
;TYPE:Outer wall
G1 F2400
M106 S0
G1 X109.456 Y93.768 E.0191
G1 X109.937 Y93.705 E.01752
G1 X110 Y93.697 E.0023
G1 X110.544 Y93.768 E.01983
G1 X111.052 Y93.978 E.01983
G1 X111.487 Y94.313 E.01983
G1 X111.822 Y94.748 E.01983
G1 X112.032 Y95.256 E.01983
G1 X112.103 Y95.8 E.01983
G1 X112.032 Y96.344 E.01983
G1 X111.846 Y96.793 E.01752
G1 X111.822 Y96.852 E.0023
G1 X111.487 Y97.287 E.01983
G1 X111.052 Y97.622 E.01983
G1 X110.544 Y97.832 E.01983
G1 X110 Y97.903 E.01983
G1 X109.456 Y97.832 E.01983
G1 X109.007 Y97.646 E.01752
G1 X108.948 Y97.622 E.0023
G1 X108.513 Y97.287 E.01983
G1 X108.178 Y96.852 E.01983
G1 X107.968 Y96.344 E.01983
G1 X107.897 Y95.8 E.01983
G1 X107.968 Y95.256 E.01983
G1 X108.178 Y94.748 E.01983
G1 X108.513 Y94.313 E.01983
G1 X108.933 Y93.99 E.01911
M106 S0
G1 E-.35
M106 S0
;WIPE_START
M106 S0
G1 X109.456 Y93.768 E-.08523
M106 S0
G1 X109.884 Y93.712 E-.06477
M106 S0
;WIPE_END
G1 X102.252 Y93.85 Z.6 F12000
M106 S0
G1 X82.44 Y94.208 Z.6
M106 S0
G1 Z.2
M106 S0
G1 E.5 F2400
M106 S0
;TYPE:Inner wall
M106 S0
G1 X82.861 Y93.661 E.02493
G1 X83.487 Y93.18 E.02852
G1 X84.217 Y92.878 E.02852
G1 X84.817 Y92.799 E.02187
G1 X85 Y92.775 E.00665
G1 X85.783 Y92.878 E.02852
G1 X86.513 Y93.18 E.02852
G1 X87.139 Y93.661 E.02852
G1 X87.62 Y94.287 E.02852
G1 X87.922 Y95.017 E.02852
G1 X88.025 Y95.8 E.02852
G1 X87.922 Y96.583 E.02852
G1 X87.62 Y97.313 E.02852
G1 X87.139 Y97.939 E.02852
G1 X86.513 Y98.42 E.02852
G1 X85.783 Y98.722 E.02852
G1 X85 Y98.826 E.02852
G1 X84.217 Y98.722 E.02852
G1 X83.487 Y98.42 E.02852
G1 X82.861 Y97.939 E.02852
G1 X82.38 Y97.313 E.02852
G1 X82.078 Y96.583 E.02852
G1 X81.975 Y95.8 E.02852
G1 X82.078 Y95.017 E.02852
G1 X82.38 Y94.287 E.02852
G1 X82.416 Y94.24 E.00214
M106 S0
G1 X82.745 Y94.6 F12000
M106 S0
G1 F2400
M106 S0
G1 X82.779 Y94.518 E.00322
G1 X83.187 Y93.987 E.02417
G1 X83.718 Y93.579 E.02417
G1 X84.336 Y93.323 E.02417
G1 X84.877 Y93.252 E.0197
G1 X85 Y93.236 E.00447
G1 X85.664 Y93.323 E.02417
G1 X86.282 Y93.579 E.02417
G1 X86.813 Y93.987 E.02417
G1 X87.221 Y94.518 E.02417
G1 X87.477 Y95.136 E.02417
G1 X87.564 Y95.8 E.02417
G1 X87.477 Y96.464 E.02417
G1 X87.221 Y97.082 E.02417
G1 X86.813 Y97.613 E.02417
G1 X86.282 Y98.021 E.02417
G1 X85.664 Y98.277 E.02417
G1 X85 Y98.364 E.02417
G1 X84.336 Y98.277 E.02417
G1 X83.718 Y98.021 E.02417
G1 X83.187 Y97.613 E.02417
G1 X82.779 Y97.082 E.02417
G1 X82.523 Y96.464 E.02417
G1 X82.436 Y95.8 E.02417
G1 X82.523 Y95.136 E.02417
G1 X82.73 Y94.637 E.01951
M106 S0
G1 X82.976 Y95.237 F12000
M106 S0
;TYPE:Outer wall
G1 F2400
M106 S0
G1 X83.178 Y94.748 E.0191
G1 X83.513 Y94.313 E.01983
G1 X83.948 Y93.978 E.01983
G1 X84.456 Y93.768 E.01983
G1 X84.937 Y93.705 E.01752
G1 X85 Y93.697 E.0023
G1 X85.544 Y93.768 E.01983
G1 X86.052 Y93.978 E.01983
G1 X86.487 Y94.313 E.01983
G1 X86.822 Y94.748 E.01983
G1 X87.032 Y95.256 E.01983
G1 X87.103 Y95.8 E.01983
G1 X87.032 Y96.344 E.01983
G1 X86.822 Y96.852 E.01983
G1 X86.487 Y97.287 E.01983
G1 X86.052 Y97.622 E.01983
G1 X85.544 Y97.832 E.01983
G1 X85 Y97.903 E.01983
G1 X84.456 Y97.832 E.01983
G1 X83.948 Y97.622 E.01983
G1 X83.513 Y97.287 E.01983
G1 X83.178 Y96.852 E.01983
G1 X82.968 Y96.344 E.01983
G1 X82.897 Y95.8 E.01983
G1 X82.966 Y95.275 E.01911
M106 S0
G1 E-.35
M106 S0
;WIPE_START
M106 S0
G1 X83.178 Y94.748 E-.08524
M106 S0
G1 X83.441 Y94.406 E-.06476
M106 S0
;WIPE_END
G1 X84.56 Y101.956 Z.6 F12000
M106 S0
G1 X87.946 Y124.803 Z.6
M106 S0
G1 Z.2
M106 S0
G1 E.5 F2400
M106 S0
;TYPE:Inner wall
M106 S0
G1 X87.922 Y124.983 E.00656
