; HEADER_BLOCK_START
; generated by Creality_Print V5.1.0.9484 on 2024-07-18 at 14:52:32
; total layer number: 95
; filament_density: 1.24
; filament_diameter: 1.75
; max_z_height: 19.00
; HEADER_BLOCK_END

; MINX = 100.14
; MINY = 95.13
; MINZ = 0.00
; MAXX = 139.99
; MAXY = 119.93
; MAXZ = 19.00

; THUMBNAIL_BLOCK_START

;
; THUMBNAIL_BLOCK_END

; THUMBNAIL_BLOCK_START

;
; THUMBNAIL_BLOCK_END

; external perimeters extrusion width = 0.42mm
; perimeters extrusion width = 0.45mm
; infill extrusion width = 0.45mm
; solid infill extrusion width = 0.42mm
; top infill extrusion width = 0.42mm
; support material extrusion width = 0.42mm
; first layer extrusion width = 0.50mm

; external perimeters extrusion width = 0.42mm
; perimeters extrusion width = 0.45mm
; infill extrusion width = 0.45mm
; solid infill extrusion width = 0.42mm
; top infill extrusion width = 0.42mm
; support material extrusion width = 0.42mm
; first layer extrusion width = 0.50mm

; EXECUTABLE_BLOCK_START
EXCLUDE_OBJECT_DEFINE NAME=vice_handle_01_v3.stl_id_0_copy_0 CENTER=109.999,110 POLYGON=[[100.136,107.757],[100.139,107.687],[100.142,107.667],[100.153,107.607],[100.16,107.581],[100.178,107.529],[100.192,107.497],[100.214,107.454],[102.299,103.481],[102.32,103.445],[102.343,103.411],[102.373,103.374],[102.396,103.349],[102.436,103.312],[102.457,103.294],[102.509,103.258],[106.201,100.709],[106.218,100.698],[106.279,100.666],[106.317,100.65],[106.362,100.635],[106.422,100.621],[106.449,100.617],[110.903,100.076],[110.959,100.07],[110.993,100.069],[111.068,100.073],[111.081,100.075],[111.168,100.094],[111.175,100.096],[115.448,101.717],[115.526,101.759],[115.543,101.77],[115.597,101.812],[115.627,101.84],[115.66,101.876],[118.635,105.234],[118.658,105.261],[118.69,105.306],[118.717,105.353],[118.732,105.383],[118.759,105.454],[118.763,105.467],[119.836,109.823],[119.852,109.891],[119.856,109.912],[119.863,110],[119.856,110.088],[119.852,110.109],[119.836,110.177],[118.763,114.533],[118.759,114.546],[118.732,114.617],[118.717,114.647],[118.69,114.694],[118.658,114.739],[118.635,114.766],[115.66,118.124],[115.627,118.16],[115.597,118.188],[115.543,118.23],[115.526,118.241],[115.448,118.283],[111.175,119.904],[111.168,119.906],[111.081,119.925],[111.068,119.927],[110.993,119.931],[110.959,119.93],[110.903,119.924],[106.449,119.383],[106.422,119.379],[106.362,119.365],[106.317,119.35],[106.279,119.334],[106.218,119.302],[106.201,119.291],[102.509,116.742],[102.457,116.706],[102.436,116.688],[102.377,116.631],[102.373,116.626],[102.32,116.555],[102.313,116.543],[100.192,112.503],[100.189,112.496],[100.16,112.419],[100.143,112.34],[100.142,112.333],[100.136,112.257],[100.136,112.243],[100.136,107.757]]
EXCLUDE_OBJECT_DEFINE NAME=vice_handle_01_v3.stl_id_1_copy_0 CENTER=130.127,105.066 POLYGON=[[120.264,102.823],[120.267,102.753],[120.269,102.733],[120.281,102.673],[120.288,102.646],[120.306,102.595],[120.32,102.563],[120.342,102.52],[122.427,98.547],[122.448,98.511],[122.471,98.4769],[122.501,98.4397],[122.524,98.4147],[122.564,98.3774],[122.585,98.3599],[122.637,98.3236],[126.329,95.7749],[126.346,95.7638],[126.407,95.7314],[126.444,95.7156],[126.489,95.7006],[126.55,95.6866],[126.577,95.6823],[131.031,95.1418],[131.087,95.1357],[131.121,95.1345],[131.196,95.1387],[131.209,95.1405],[131.296,95.1599],[131.302,95.162],[135.576,96.7826],[135.654,96.8247],[135.671,96.836],[135.725,96.8778],[135.755,96.9062],[135.788,96.9422],[138.763,100.3],[138.785,100.327],[138.817,100.372],[138.845,100.419],[138.86,100.449],[138.886,100.52],[138.89,100.533],[139.964,104.889],[139.98,104.957],[139.984,104.977],[139.99,105.066],[139.984,105.154],[139.98,105.175],[139.964,105.243],[138.89,109.599],[138.886,109.612],[138.86,109.683],[138.845,109.713],[138.817,109.76],[138.785,109.805],[138.763,109.831],[135.788,113.189],[135.755,113.225],[135.725,113.254],[135.671,113.296],[135.654,113.307],[135.576,113.349],[131.302,114.97],[131.296,114.972],[131.209,114.991],[131.196,114.993],[131.121,114.997],[131.087,114.996],[131.031,114.99],[126.577,114.449],[126.55,114.445],[126.489,114.431],[126.444,114.416],[126.407,114.4],[126.346,114.368],[126.329,114.357],[122.637,111.808],[122.585,111.772],[122.564,111.754],[122.505,111.697],[122.501,111.692],[122.448,111.621],[122.441,111.609],[120.32,107.568],[120.317,107.562],[120.288,107.485],[120.27,107.406],[120.269,107.399],[120.264,107.323],[120.264,107.309],[120.264,102.823]]
M73 P0 R15
M106 S0
M106 P2 S0
;TYPE:Custom
M140 S0
M104 S0 
START_PRINT EXTRUDER_TEMP=240 BED_TEMP=60
M141 S35;set chamber_temperature
G90
G21
M83 ; use relative distances for extrusion
; filament start gcode
M106 S0
M106 P2 S0
;LAYER_CHANGE
;Z:0.2
;HEIGHT:0.2
;BEFORE_LAYER_CHANGE
;0.2
G92 E0
M106 P2 S204
M106 S0

G1 E-.5 F2400
M106 S0
;AFTER_LAYER_CHANGE
;0.2
;_SET_FAN_SPEED_CHANGING_LAYER
SET_VELOCITY_LIMIT ACCEL=1000 ACCEL_TO_DECEL=1000
SET_VELOCITY_LIMIT SQUARE_CORNER_VELOCITY=20
G1 X100.655 Y101.018 F12000
M106 S0
G1 Z.4
M106 S0
G1 Z.2
M106 S0
G1 E.5 F2400
M106 S0
;TYPE:Skirt
;WIDTH:0.5
G1 F3000
M106 S0
G1 X100.71 Y100.964 E.00279
G1 X104.545 Y98.311 E.16838
G1 X105.668 Y97.804 E.04447
G1 X125.894 Y92.848 E.75189
G1 X130.68 Y92.249 E.17415
G1 X131.404 Y92.233 E.02616
G1 X132.329 Y92.435 E.03419
G1 X136.609 Y94.058 E.16526
G1 X137.407 Y94.497 E.03288
G1 X137.969 Y95.01 E.02749
G1 X141.081 Y98.534 E.16975
G1 X141.416 Y99.049 E.0222
G1 X141.72 Y99.836 E.03044
G1 X142.826 Y104.334 E.16725
G1 X142.896 Y105.288 E.03454
G1 X141.72 Y110.296 E.18573
G1 X141.416 Y111.082 E.03044
G1 X141.081 Y111.598 E.0222
G1 X137.969 Y115.122 E.16975
G1 X137.477 Y115.582 E.02431
G1 X136.609 Y116.074 E.03604
G1 X131.99 Y117.802 E.17807
G1 X111.279 Y122.833 E.76952
G1 X110.552 Y122.817 E.02626
G1 X106.098 Y122.276 E.16198
G1 X105.262 Y122.065 E.03116
G1 X104.545 Y121.689 E.02921
G1 X100.853 Y119.14 E.16198
G1 X100.03 Y118.359 E.04096
G1 X97.612 Y113.857 E.18453
G1 X97.311 Y113.033 E.03167
G1 X97.222 Y112.243 E.02871
G1 X97.228 Y107.574 E.16857
G1 X97.311 Y106.967 E.02214
G1 X97.612 Y106.143 E.03167
G1 X99.697 Y102.171 E.16197
G1 X100.03 Y101.64 E.02263
G1 X100.627 Y101.046 E.03039
M106 S0
G1 X100.946 Y101.366 F12000
M106 S0
G1 F3000
M106 S0
G1 X100.98 Y101.332 E.00177
G1 X104.805 Y98.687 E.16789
G1 X105.777 Y98.248 E.0385
G1 X125.987 Y93.295 E.75132
G1 X130.735 Y92.703 E.17274
G1 X131.373 Y92.689 E.02305
G1 X132.167 Y92.862 E.02934
G1 X136.447 Y94.485 E.16526
G1 X137.132 Y94.862 E.02823
G1 X137.627 Y95.313 E.02418
G1 X140.717 Y98.811 E.16853
G1 X141.015 Y99.269 E.01972
G1 X141.276 Y99.945 E.02617
G1 X142.38 Y104.435 E.16694
G1 X142.44 Y105.253 E.02962
G1 X141.276 Y110.186 E.18302
G1 X141.015 Y110.863 E.02617
G1 X140.717 Y111.321 E.01972
G1 X137.203 Y115.217 E.18945
G1 X136.447 Y115.646 E.03139
G1 X131.881 Y117.358 E.17606
G1 X111.248 Y122.377 E.76669
G1 X110.607 Y122.363 E.02316
G1 X106.153 Y121.823 E.16198
G1 X105.421 Y121.637 E.02727
G1 X104.805 Y121.313 E.02514
G1 X101.113 Y118.764 E.16198
G1 X100.398 Y118.088 E.03555
G1 X98.016 Y113.645 E.182
G1 X97.758 Y112.937 E.0272
G1 X97.679 Y112.243 E.02521
G1 X97.684 Y107.603 E.16754
G1 X97.758 Y107.063 E.01968
G1 X98.017 Y106.355 E.0272
G1 X100.102 Y102.383 E.16197
G1 X100.398 Y101.912 E.02009
G1 X100.917 Y101.395 E.02648
M106 S0
; printing object vice_handle_01 v3.stl id:0 copy 0
G1 E-.35 F2400
M106 S0
;WIPE_START
G1 F3000
M106 S0
G1 X100.98 Y101.332 E-.01335
M106 S0
G1 X101.73 Y100.814 E-.13665
M106 S0
;WIPE_END
EXCLUDE_OBJECT_START NAME=vice_handle_01_v3.stl_id_0_copy_0
G1 X103.459 Y104.88 Z.6 F12000
M106 S0
G1 Z.2
M106 S0
G1 E.5 F2400
M106 S0
;TYPE:Inner wall
M106 S0
G1 X103.484 Y104.349 E.01919
G2 X104.926 Y103.994 I-.837 J-6.501 E.05374
G2 X106.569 Y102.505 I-1.552 J-3.364 E.08129
G1 X106.841 Y102.031 E.01975
G2 X108.425 Y102.395 I2.071 J-5.374 E.0589
G2 X110.523 Y101.776 I.015 J-3.811 E.08008
G1 X110.89 Y101.538 E.01582
G1 X111.227 Y101.895 E.01773
G2 X114.007 Y103.038 I2.636 J-2.461 E.11194
G2 X114.703 Y102.986 I-.354 J-9.521 E.02519
G2 X115.212 Y104.345 I6.619 J-1.707 E.05248
G2 X116.874 Y105.812 I3.153 J-1.896 E.08132
G2 X117.409 Y106.041 I6.649 J-14.811 E.02099
G2 X117.236 Y107.621 I5.741 J1.43 E.05756
G2 X118.089 Y109.643 I3.761 J-.396 E.08043
G1 X118.387 Y110 E.01677
G2 X117.442 Y111.453 I3.979 J3.619 E.06286
G2 X117.333 Y113.609 I3.698 J1.268 E.07896
G1 X117.409 Y113.959 E.01294
G2 X116.15 Y114.608 I1.69 J4.827 E.05131
G2 X114.874 Y116.428 I2.217 J2.911 E.08155
G2 X114.703 Y117.014 I12.829 J4.068 E.02202
G2 X113.148 Y117.026 I-.732 J6.057 E.05628
G2 X111.227 Y118.105 I.797 J3.669 E.08075
G1 X110.89 Y118.462 E.01773
G2 X109.369 Y117.709 I-3.169 J4.487 E.06155
G2 X107.204 Y117.843 I-.852 J3.78 E.07935
G1 X106.841 Y117.969 E.0139
G2 X106.07 Y116.823 I-5.333 J2.753 E.05
G2 X104.114 Y115.756 I-2.637 J2.509 E.08175
G2 X103.484 Y115.651 I-2.23 J11.455 E.02307
G2 X103.295 Y114.143 I-6.312 J.024 E.05501
G2 X102.005 Y112.35 I-3.535 J1.183 E.08096
G1 X101.587 Y112.038 E.01882
G2 X102.146 Y110.475 I-4.949 J-2.649 E.06017
G2 X101.767 Y108.33 I-3.817 J-.433 E.07973
G1 X101.587 Y107.962 E.0148
G2 X102.61 Y107.083 I-3.498 J-5.108 E.04876
G2 X103.453 Y105.016 I-2.77 J-2.336 E.08194
G1 X103.458 Y104.92 E.00349
M106 S0
G1 X102.945 Y105.358 F12000
M106 S0
G1 F2400
M106 S0
G1 X102.953 Y105.339 E.00073
G2 X102.998 Y104.973 I-3.013 J-.553 E.01335
G3 X103.046 Y103.962 I135.829 J5.979 E.03654
G3 X104.018 Y103.797 I12.1 J68.437 E.03558
G2 X106.18 Y102.264 I-.566 J-3.09 E.09878
G1 X106.628 Y101.482 E.03255
G2 X107.676 Y101.82 I23.342 J-70.513 E.03975
G2 X110.284 Y101.386 I.833 J-3.048 E.09852
G3 X110.962 Y100.956 I7.319 J10.774 E.02898
G1 X111.153 Y101.15 E.00983
G2 X112.114 Y102.051 I4.586 J-3.929 E.04769
G2 X113.999 Y102.58 I1.749 J-2.609 E.07185
G2 X115.035 Y102.505 I-1.048 J-21.631 E.03751
G3 X115.307 Y103.425 I-45.062 J13.856 E.03463
G2 X117.071 Y105.399 I3.005 J-.909 E.09867
G2 X117.928 Y105.761 I10.545 J-23.766 E.03361
G2 X117.723 Y106.816 I163.794 J32.427 E.03879
G2 X118.449 Y109.361 I3.116 J.487 E.09862
G3 X118.974 Y110 I-12.425 J10.73 E.02985
G2 X118.238 Y110.925 I21.857 J18.135 E.04268
G2 X117.723 Y113.184 I2.515 J1.762 E.08579
G2 X117.928 Y114.239 I163.795 J-31.333 E.03879
G2 X116.748 Y114.767 I3.962 J10.438 E.0467
G2 X115.307 Y116.575 I1.522 J2.691 E.08558
G3 X115.035 Y117.495 I-45.395 J-12.955 E.03463
G3 X114.337 Y117.439 I.166 J-6.43 E.0253
G2 X112.46 Y117.741 I-.407 J3.459 E.06953
G2 X111.55 Y118.429 I1.998 J3.586 E.04133
G3 X110.962 Y119.044 I-15.943 J-14.64 E.03073
G2 X109.979 Y118.439 I-19.155 J29.999 E.04169
G2 X107.676 Y118.18 I-1.471 J2.708 E.08579
G2 X106.628 Y118.518 I22.3 J70.869 E.03975
G2 X105.978 Y117.433 I-8.162 J4.157 E.0457
G2 X104.018 Y116.203 I-2.496 J1.799 E.08566
G3 X103.046 Y116.038 I11.114 J-68.52 E.03558
G3 X102.998 Y115.027 I135.802 J-6.992 E.03654
G2 X101.72 Y112.708 I-3.136 J.216 E.0987
G1 X101.017 Y112.183 E.03168
G2 X101.489 Y111.159 I-43.372 J-20.628 E.04072
G2 X101.352 Y108.52 I-2.944 J-1.17 E.0984
G3 X101.017 Y107.817 I9.447 J-4.931 E.02814
G2 X101.994 Y107.059 I-5.503 J-8.106 E.04469
G2 X102.857 Y105.721 I-2.054 J-2.273 E.05815
G1 X102.936 Y105.397 E.01206
M106 S0
G1 X102.312 Y105.867 F12000
M106 S0
;TYPE:Outer wall
G1 F2400
M106 S0
G1 X102.42 Y105.585 E.01089
G2 X102.543 Y104.929 I-2.491 J-.805 E.02419
G3 X102.595 Y103.873 I56.548 J2.286 E.03816
G3 X102.891 Y103.528 I.331 J-.016 E.0181
M73 P1 R15
G3 X103.922 Y103.35 I6.689 J35.67 E.03776
G2 X105.791 Y102.023 I-.47 J-2.643 E.08551
G1 X106.197 Y101.315 E.0295
G3 X106.504 Y101.014 I.508 J.211 E.01593
G3 X106.964 Y101.106 I-.068 J1.535 E.017
G2 X108.113 Y101.446 I2.478 J-6.258 E.04335
G2 X110.046 Y100.996 I.38 J-2.741 E.07329
G3 X110.917 Y100.482 I3.227 J4.476 E.03654
G3 X111.022 Y100.472 I.081 J.273 E.00383
G3 X111.321 Y100.669 I-.151 J.554 E.01314
G2 X112.109 Y101.468 I16.451 J-15.437 E.04054
G2 X113.99 Y102.123 I1.736 J-1.955 E.07377
G3 X115.132 Y102.05 I3.958 J53.148 E.04134
G3 X115.442 Y102.287 I.014 J.302 E.01531
G3 X115.74 Y103.278 I-25.197 J8.126 E.03734
G2 X117.267 Y104.986 I2.572 J-.762 E.08546
G3 X118.202 Y105.397 I-7.854 J19.136 E.03692
G3 X118.381 Y105.825 I-.167 J.321 E.01818
G2 X118.176 Y106.877 I495.982 J97.066 E.03868
G2 X118.809 Y109.079 I2.663 J.426 E.08542
G3 X119.435 Y109.892 I-4.47 J4.089 E.0371
G3 X119.451 Y110.063 I-.207 J.107 E.00638
G3 X119.17 Y110.488 I-1.699 J-.82 E.01843
G2 X118.443 Y111.466 I4.294 J3.953 E.0441
G2 X118.176 Y113.123 I2.359 J1.23 E.06165
G2 X118.381 Y114.175 I497.434 J-96.257 E.03868
G3 X118.303 Y114.531 I-.39 J.102 E.01368
G3 X117.546 Y114.892 I-1.71 J-2.614 E.03037
G2 X116.197 Y115.826 I1.086 J3.011 E.05992
G2 X115.651 Y117.017 I3.061 J2.123 E.04754
G3 X115.383 Y117.827 I-3.315 J-.649 E.0309
G3 X115.055 Y117.953 I-.266 J-.201 E.01336
G3 X113.99 Y117.877 I8.266 J-123.313 E.03856
G2 X111.872 Y118.753 I-.127 J2.689 E.08547
G3 X111.131 Y119.485 I-5.053 J-4.375 E.03764
G3 X110.866 Y119.501 I-.146 J-.211 E.01008
G3 X110.046 Y119.004 I2.496 J-5.049 E.03465
G2 X107.485 Y118.713 I-1.559 J2.303 E.09679
G3 X106.546 Y118.989 I-1.77 J-4.289 E.03541
G3 X106.306 Y118.844 I.007 J-.282 E.01058
G1 X106.197 Y118.685 E.00694
G2 X105.61 Y117.705 I-7.375 J3.755 E.04129
G2 X103.922 Y116.65 I-2.135 J1.538 E.07371
G3 X102.891 Y116.472 I5.658 J-35.842 E.03776
G3 X102.595 Y116.127 I.035 J-.329 E.0181
G3 X102.543 Y115.071 I56.518 J-3.343 E.03816
G2 X101.435 Y113.066 I-2.682 J.172 E.08547
G1 X100.786 Y112.581 E.02925
G3 X100.539 Y112.278 I.28 J-.48 E.01441
G3 X100.692 Y111.789 I1.281 J.131 E.01864
G2 X101.167 Y110.68 I-5.615 J-3.065 E.04361
G2 X101.062 Y109.004 I-2.548 J-.681 E.06172
G2 X100.603 Y108.012 I-46.534 J20.904 E.03945
G3 X100.556 Y107.666 I.381 J-.228 E.01294
G3 X100.786 Y107.419 I.755 J.472 E.01227
G2 X101.682 Y106.724 I-5.044 J-7.434 E.04098
G2 X102.292 Y105.906 I-1.753 J-1.944 E.03709
G1 X102.294 Y105.903 E.00014
M106 S0
G1 E-.35
M106 S0
;WIPE_START
M106 S0
G1 X102.42 Y105.585 E-.05121
M106 S0
G1 X102.499 Y105.255 E-.05098
M106 S0
G1 X102.541 Y104.939 E-.04782
M106 S0
;WIPE_END
G1 X110.122 Y105.827 Z.6 F12000
M106 S0
G1 X117.105 Y106.645 Z.6
M106 S0
G1 Z.2
M106 S0
G1 E.5 F2400
M106 S0
;TYPE:Bottom surface
;WIDTH:0.500718
G1 F3600
M106 S0
G1 X116.533 Y106.073 E.02925
G3 X114.754 Y104.295 I1.622 J-3.401 E.09274
G1 X113.883 Y103.424 E.04453
G3 X113.182 Y103.37 I-.099 J-3.307 E.02548
G1 X116.852 Y107.04 E.18768
G2 X116.853 Y107.688 I6.331 J.314 E.02346
G1 X112.256 Y103.092 E.23508
G1 X112.074 Y103.014 E.00716
G3 X110.824 Y102.034 I2.24 J-4.143 E.05772
G1 X110.655 Y102.138 E.00718
G1 X117.025 Y108.508 E.32578
G1 X117.078 Y108.685 E.00667
G2 X117.876 Y110.006 I4.763 J-1.973 E.05604
G1 X110.241 Y102.372 E.39044
G3 X109.785 Y102.563 I-1.052 J-1.874 E.01793
G1 X117.595 Y110.373 E.39942
G2 X117.343 Y110.768 I2.14 J1.642 E.01698
G1 X109.278 Y102.703 E.41245
G3 X108.701 Y102.774 I-.53 J-1.929 E.02108
G1 X117.13 Y111.203 E.43106
G2 X116.966 Y111.687 I1.645 J.826 E.01853
G1 X108.026 Y102.746 E.45721
G3 X107.181 Y102.549 I.623 J-4.568 E.03143
G1 X116.865 Y112.232 E.49522
G1 X116.847 Y112.348 E.00425
G1 X116.842 Y112.857 E.01839
G1 X106.817 Y102.832 E.51267
G3 X106.546 Y103.208 I-2.117 J-1.244 E.01679
G1 X116.944 Y113.607 E.53179
G1 X116.967 Y113.726 E.00438
G2 X116.588 Y113.898 I1.029 J2.763 E.01508
G1 X106.241 Y103.551 E.52917
G3 X105.9 Y103.858 I-1.241 J-1.037 E.01663
G1 X116.174 Y114.131 E.5254
G2 X115.794 Y114.399 I.874 J1.639 E.01684
G1 X105.52 Y104.124 E.52546
G1 X105.093 Y104.345 E.01738
G1 X115.452 Y114.704 E.52981
G1 X115.149 Y115.049 E.01659
G1 X104.619 Y104.518 E.53855
G3 X104.094 Y104.641 I-1.021 J-3.168 E.01949
G1 X114.891 Y115.437 E.55214
G1 X114.674 Y115.868 E.01743
G1 X103.841 Y105.036 E.55398
G3 X103.757 Y105.598 I-7.17 J-.79 E.02059
G1 X114.496 Y116.338 E.54922
G1 X114.418 Y116.603 E.01001
G1 X114.09 Y116.579 E.01191
G1 X103.616 Y106.105 E.53565
G3 X103.424 Y106.56 I-1.656 J-.43 E.01793
G1 X113.459 Y116.595 E.5132
G2 X112.904 Y116.688 I.071 J2.131 E.0204
G1 X103.186 Y106.97 E.49701
G1 X102.905 Y107.337 E.0167
G1 X112.411 Y116.842 E.48615
G2 X111.97 Y117.049 I.509 J1.666 E.01767
